;TIME:7358.58
;Filament used:24.74464m
;Layer height:0.200
; HEADER_BLOCK_START
; generated by Creality_Print V7.1.0.4414 on 2026-04-27 at 18:36:42
; total layer number: 75
; filament_density: 1.24
; filament_diameter: 1.75
; max_z_height: 13.00
; creality_uuid: 2dd3d09d-4953-48a4-b936-7a073deb41f2
; HEADER_BLOCK_END

; MINX = 35.50
; MINY = 50.50
; MINZ = 0.00
; MAXX = 184.50
; MAXY = 169.50
; MAXZ = 13.00

; multicolor_method = 0 
; THUMBNAIL_BLOCK_START

;
; THUMBNAIL_BLOCK_END

; THUMBNAIL_BLOCK_START

;
; THUMBNAIL_BLOCK_END

; external perimeters extrusion width = 0.42mm
; perimeters extrusion width = 0.45mm
; infill extrusion width = 0.45mm
; solid infill extrusion width = 0.42mm
; top infill extrusion width = 0.42mm
; support material extrusion width = 0.40mm
; first layer extrusion width = 0.50mm

; EXECUTABLE_BLOCK_START
M73 P0 R122
M201 X5000 Y5000 Z500 E5000
M203 X500 Y500 Z30 E100
M204 P5000 R2500 T5000 ; sets acceleration (P, T) and retract acceleration (R), mm/sec^2
M205 X10.00 Y10.00 Z0.40 E5.00 ; sets the jerk limits, mm/sec
; max_print_temp = 50,190
;TYPE:Custom
M220 S100 ;Reset Feedrate 
M221 S100 ;Reset Flowrate 
 
M140 S50 ;Set final bed temp 
G28 ;Home 
 
G92 E0 ;Reset Extruder 
G1 Z2.0 F3000 ;Move Z Axis up 
M104 S190 ;Set final nozzle temp 
G1 X-2.1 Y20 Z0.28 F5000.0 ;Move to start position 
M190 S50 ;Wait for bed temp to stabilize 
M109 S190 ;Wait for nozzle temp to stabilize 
G1 X-2.1 Y145.0 Z0.28 F1500.0 E15 ;Draw the first line 
G1 X-2.4 Y145.0 Z0.28 F5000.0 ;Move to side a little 
G1 X-2.4 Y20 Z0.28 F1500.0 E30 ;Draw the second line 
G92 E0  ;Reset Extruder 
G1 E-1.0000 F1800 ;Retract a bit 
G1 Z2.0 F3000 ;Move Z Axis up 
G1 E0.0000 F1800
G90
G21
M83 ; use relative distances for extrusion
;filament start gcode
G1 E-1.2 F2400
G1 Z.2 F9000
M106 S0
;LAYER_CHANGE
;:0.2
;HEIGHT:0.2
;BEFORE_LAYER_CHANGE
;0.2
G92 E0
;TIME_ELAPSED:69.498482
;_SET_FAN_SPEED_CHANGING_LAYER
M204 P500
M205 X10 Y10
; OBJECT_ID: 71
; printing object rd_back_cover_v1.stl id:2418039361136 copy 0
M204 T500
G1 X123.55 Y168.55 Z.4 F9000
G1 Z.2
G1 E1.2 F1800
;TYPE:Support
;WIDTH:0.5
G1 X96.45 Y168.55 E.97847
G1 X96.45 Y159.45 E.32856
G1 X123.55 Y159.45 E.97847
G1 X123.55 Y168.481 E.32609
G1 X122.925 Y168.139 F9000
G1 F1800
G1 X123.139 Y168.139 E.00771
G1 X123.139 Y159.861 E.29886
G1 X122.697 Y159.861 E.01596
G1 X122.697 Y168.139 E.29886
G1 X122.189 Y168.139 E.01834
G1 X122.189 Y159.861 E.29886
G1 X121.681 Y159.861 E.01834
G1 X121.681 Y168.139 E.29886
G1 X121.173 Y168.139 E.01834
G1 X121.173 Y159.861 E.29886
G1 X120.665 Y159.861 E.01834
G1 X120.665 Y168.139 E.29886
G1 X120.157 Y168.139 E.01834
G1 X120.157 Y159.861 E.29886
G1 X119.649 Y159.861 E.01834
G1 X119.649 Y168.139 E.29886
G1 X119.142 Y168.139 E.01834
G1 X119.142 Y159.861 E.29886
G1 X118.634 Y159.861 E.01834
G1 X118.634 Y168.139 E.29886
G1 X118.126 Y168.139 E.01834
G1 X118.126 Y159.861 E.29886
G1 X117.618 Y159.861 E.01834
G1 X117.618 Y168.139 E.29886
G1 X117.11 Y168.139 E.01834
G1 X117.11 Y159.861 E.29886
G1 X116.602 Y159.861 E.01834
G1 X116.602 Y168.139 E.29886
G1 X116.094 Y168.139 E.01834
G1 X116.094 Y159.861 E.29886
G1 X115.587 Y159.861 E.01834
G1 X115.587 Y168.139 E.29886
G1 X115.079 Y168.139 E.01834
G1 X115.079 Y159.861 E.29886
G1 X114.571 Y159.861 E.01834
G1 X114.571 Y168.139 E.29886
G1 X114.063 Y168.139 E.01834
G1 X114.063 Y159.861 E.29886
G1 X113.555 Y159.861 E.01834
G1 X113.555 Y168.139 E.29886
G1 X113.047 Y168.139 E.01834
G1 X113.047 Y159.861 E.29886
G1 X112.539 Y159.861 E.01834
G1 X112.539 Y168.139 E.29886
G1 X112.031 Y168.139 E.01834
G1 X112.031 Y159.861 E.29886
G1 X111.524 Y159.861 E.01834
G1 X111.524 Y168.139 E.29886
G1 X111.016 Y168.139 E.01834
G1 X111.016 Y159.861 E.29886
G1 X110.508 Y159.861 E.01834
G1 X110.508 Y168.139 E.29886
G1 X110 Y168.139 E.01834
G1 X110 Y159.861 E.29886
G1 X109.492 Y159.861 E.01834
G1 X109.492 Y168.139 E.29886
G1 X108.984 Y168.139 E.01834
G1 X108.984 Y159.861 E.29886
G1 X108.476 Y159.861 E.01834
G1 X108.476 Y168.139 E.29886
G1 X107.969 Y168.139 E.01834
G1 X107.969 Y159.861 E.29886
G1 X107.461 Y159.861 E.01834
G1 X107.461 Y168.139 E.29886
G1 X106.953 Y168.139 E.01834
G1 X106.953 Y159.861 E.29886
G1 X106.445 Y159.861 E.01834
G1 X106.445 Y168.139 E.29886
G1 X105.937 Y168.139 E.01834
G1 X105.937 Y159.861 E.29886
G1 X105.429 Y159.861 E.01834
G1 X105.429 Y168.139 E.29886
G1 X104.921 Y168.139 E.01834
G1 X104.921 Y159.861 E.29886
G1 X104.413 Y159.861 E.01834
G1 X104.413 Y168.139 E.29886
G1 X103.906 Y168.139 E.01834
G1 X103.906 Y159.861 E.29886
G1 X103.398 Y159.861 E.01834
G1 X103.398 Y168.139 E.29886
G1 X102.89 Y168.139 E.01834
G1 X102.89 Y159.861 E.29886
G1 X102.382 Y159.861 E.01834
G1 X102.382 Y168.139 E.29886
G1 X101.874 Y168.139 E.01834
G1 X101.874 Y159.861 E.29886
G1 X101.366 Y159.861 E.01834
G1 X101.366 Y168.139 E.29886
G1 X100.858 Y168.139 E.01834
G1 X100.858 Y159.861 E.29886
G1 X100.351 Y159.861 E.01834
G1 X100.351 Y168.139 E.29886
G1 X99.843 Y168.139 E.01834
G1 X99.843 Y159.861 E.29886
G1 X99.335 Y159.861 E.01834
G1 X99.335 Y168.139 E.29886
G1 X98.827 Y168.139 E.01834
G1 X98.827 Y159.861 E.29886
G1 X98.319 Y159.861 E.01834
G1 X98.319 Y168.139 E.29886
G1 X97.811 Y168.139 E.01834
G1 X97.811 Y159.861 E.29886
G1 X97.303 Y159.861 E.01834
G1 X97.303 Y168.139 E.29886
G1 X96.861 Y168.139 E.01596
G1 X96.861 Y159.861 E.29886
G1 X97.075 Y159.861 E.00771
G1 E-1.2 F2400
;WIPE_START
G1 F9000
G1 X96.861 Y159.861
G1 X96.861 Y161.648
;WIPE_END
G1 X95.143 Y159.616 Z.4
G1 Z.2
G1 E1.2 F1800
;TYPE:Inner wall
;WIDTH:0.499999
G1 X95.143 Y167.524 E.28555
G2 X95.228 Y168.746 I7.122 J.121 E.04426
G2 X94.001 Y168.647 I-1.486 J10.771 E.04448
G1 X36.357 Y168.643 E2.08127
G1 X36.357 Y51.357 E4.23472
G1 X183.643 Y51.357 E5.3179
M73 P0 R121
G1 X183.643 Y168.643 E4.23472
G1 X125.985 Y168.647 E2.0818
G2 X124.772 Y168.746 I.087 J8.551 E.04397
G2 X124.857 Y167.5 I-7.677 J-1.146 E.04512
G1 X124.857 Y158.72 E.31701
G1 X124.72 Y158.417 E.01201
G1 X124.477 Y158.215 E.01144
G1 X124.171 Y158.143 E.01131
G1 X95.729 Y158.143 E1.02693
G1 X95.418 Y158.279 E.01226
G1 X95.215 Y158.523 E.01146
G1 X95.143 Y158.829 E.01134
G1 X95.143 Y159.576 E.02698
G1 X95.6 Y158.829 F9000
;TYPE:Outer wall
G1 F1800
G1 X95.601 Y167.504 E.31322
G2 X95.758 Y169.066 I6.524 J.131 E.05685
G1 X95.982 Y169.25 E.01046
G3 X95.027 Y169.178 I-.224 J-3.417 E.03471
G2 X94.004 Y169.104 I-1.087 J7.864 E.03707
G1 X35.9 Y169.1 E2.09788
G1 X35.9 Y50.9 E4.26773
G1 X184.1 Y50.9 E5.3509
G1 X184.1 Y169.1 E4.26773
G1 X125.723 Y169.104 E2.10774
G2 X124.497 Y169.248 I1.063 J14.346 E.04459
;WIDTH:0.503464
G1 X124.057 Y169.248 E.016
G1 X124.242 Y169.066 E.00942
;WIDTH:0.50028
G1 X124.349 Y168.522 E.02005
;WIDTH:0.499999
G2 X124.399 Y167.504 I-7.567 J-.884 E.03684
G1 X124.4 Y158.829 E.31322
G1 X124.338 Y158.672 E.00607
G1 X124.175 Y158.6 E.00644
G1 X95.829 Y158.6 E1.02348
G1 X95.669 Y158.665 E.00621
G1 X95.616 Y158.792 E.00498
G1 E-1.2 F2400
;WIPE_START
G1 F9000
G1 X95.612 Y160.792
;WIPE_END
G1 X99.27 Y161.879 Z.4
G1 X124.057 Y169.248 Z.4
G1 Z.2
G1 E1.2 F1800
;WIDTH:0.503464
G1 X124.018 Y169.25 E.00145
;WIDTH:0.5
G1 X95.982 Y169.25 E1.01224
G1 E-1.2 F2400
;WIPE_START
G1 F9000
G1 X97.982 Y169.25
;WIPE_END
G1 X182.58 Y51.494 Z.4
G1 Z.2
M73 P1 R121
G1 E1.2 F1800
;TYPE:Bottom surface
;WIDTH:0.500658
G1 F4800
G1 X183.3 Y52.214 E.0368
G1 X183.3 Y52.861 E.02341
G1 X182.139 Y51.7 E.05939
G1 X181.491 Y51.7 E.02341
G1 X183.3 Y53.509 E.09249
G1 X183.3 Y54.156 E.02341
G1 X180.844 Y51.7 E.12559
G1 X180.197 Y51.7 E.02341
G1 X183.3 Y54.803 E.15869
G1 X183.3 Y55.451 E.02341
G1 X179.549 Y51.7 E.19179
G1 X178.902 Y51.7 E.02341
G1 X183.3 Y56.098 E.22489
G1 X183.3 Y56.745 E.02341
G1 X178.255 Y51.7 E.258
G1 X177.607 Y51.7 E.02341
G1 X183.3 Y57.393 E.2911
G1 X183.3 Y58.04 E.02341
G1 X176.96 Y51.7 E.3242
G1 X176.313 Y51.7 E.02341
G1 X183.3 Y58.687 E.3573
G1 X183.3 Y59.335 E.02341
G1 X175.665 Y51.7 E.3904
G1 X175.018 Y51.7 E.02341
G1 X183.3 Y59.982 E.42351
G1 X183.3 Y60.629 E.02341
G1 X174.371 Y51.7 E.45661
G1 X173.723 Y51.7 E.02341
G1 X183.3 Y61.277 E.48971
G1 X183.3 Y61.924 E.02341
G1 X173.076 Y51.7 E.52281
G1 X172.429 Y51.7 E.02341
G1 X183.3 Y62.571 E.55591
G1 X183.3 Y63.219 E.02341
G1 X171.781 Y51.7 E.58901
G1 X171.134 Y51.7 E.02341
G1 X183.3 Y63.866 E.62212
G1 X183.3 Y64.513 E.02341
G1 X170.487 Y51.7 E.65522
G1 X169.839 Y51.7 E.02341
G1 X183.3 Y65.161 E.68832
G1 X183.3 Y65.808 E.02341
G1 X169.192 Y51.7 E.72142
G1 X168.545 Y51.7 E.02341
G1 X183.3 Y66.455 E.75452
G1 X183.3 Y67.103 E.02341
G1 X167.897 Y51.7 E.78763
G1 X167.25 Y51.7 E.02341
G1 X183.3 Y67.75 E.82073
G1 X183.3 Y68.397 E.02341
G1 X166.603 Y51.7 E.85383
G1 X165.955 Y51.7 E.02341
G1 X183.3 Y69.045 E.88693
G1 X183.3 Y69.692 E.02341
G1 X165.308 Y51.7 E.92003
G1 X164.661 Y51.7 E.02341
G1 X183.3 Y70.339 E.95313
G1 X183.3 Y70.987 E.02341
G1 X164.013 Y51.7 E.98624
G1 X163.366 Y51.7 E.02341
G1 X183.3 Y71.634 E1.01934
G1 X183.3 Y72.281 E.02341
G1 X162.719 Y51.7 E1.05244
G1 X162.071 Y51.7 E.02341
G1 X183.3 Y72.929 E1.08554
G1 X183.3 Y73.576 E.02341
G1 X161.424 Y51.7 E1.11864
G1 X160.777 Y51.7 E.02341
G1 X183.3 Y74.223 E1.15174
G1 X183.3 Y74.871 E.02341
G1 X160.129 Y51.7 E1.18485
G1 X159.482 Y51.7 E.02341
G1 X183.3 Y75.518 E1.21795
G1 X183.3 Y76.165 E.02341
G1 X158.835 Y51.7 E1.25105
G1 X158.187 Y51.7 E.02341
G1 X183.3 Y76.813 E1.28415
G1 X183.3 Y77.46 E.02341
G1 X157.54 Y51.7 E1.31725
G1 X156.893 Y51.7 E.02341
G1 X183.3 Y78.107 E1.35036
G1 X183.3 Y78.755 E.02341
G1 X156.245 Y51.7 E1.38346
G1 X155.598 Y51.7 E.02341
G1 X183.3 Y79.402 E1.41656
G1 X183.3 Y80.049 E.02341
G1 X154.951 Y51.7 E1.44966
G1 X154.303 Y51.7 E.02341
G1 X183.3 Y80.697 E1.48276
G1 X183.3 Y81.344 E.02341
G1 X153.656 Y51.7 E1.51586
G1 X153.009 Y51.7 E.02341
G1 X183.3 Y81.991 E1.54897
G1 X183.3 Y82.639 E.02341
G1 X152.361 Y51.7 E1.58207
G1 X151.714 Y51.7 E.02341
G1 X183.3 Y83.286 E1.61517
G1 X183.3 Y83.934 E.02341
G1 X151.066 Y51.7 E1.64827
G1 X150.419 Y51.7 E.02341
G1 X183.3 Y84.581 E1.68137
G1 X183.3 Y85.228 E.02341
G1 X149.772 Y51.7 E1.71448
G1 X149.124 Y51.7 E.02341
G1 X183.3 Y85.876 E1.74758
G1 X183.3 Y86.523 E.02341
G1 X148.477 Y51.7 E1.78068
G1 X147.83 Y51.7 E.02341
G1 X183.3 Y87.17 E1.81378
G1 X183.3 Y87.818 E.02341
M73 P1 R120
G1 X147.182 Y51.7 E1.84688
G1 X146.535 Y51.7 E.02341
G1 X183.3 Y88.465 E1.87998
G1 X183.3 Y89.112 E.02341
G1 X145.888 Y51.7 E1.91309
G1 X145.24 Y51.7 E.02341
G1 X183.3 Y89.76 E1.94619
G1 X183.3 Y90.407 E.02341
G1 X144.593 Y51.7 E1.97929
G1 X143.946 Y51.7 E.02341
G1 X183.3 Y91.054 E2.01239
G1 X183.3 Y91.702 E.02341
G1 X143.298 Y51.7 E2.04549
G1 X142.651 Y51.7 E.02341
G1 X183.3 Y92.349 E2.0786
G1 X183.3 Y92.996 E.02341
G1 X142.004 Y51.7 E2.1117
G1 X141.356 Y51.7 E.02341
G1 X183.3 Y93.644 E2.1448
G1 X183.3 Y94.291 E.02341
G1 X140.709 Y51.7 E2.1779
G1 X140.062 Y51.7 E.02341
G1 X183.3 Y94.938 E2.211
G1 X183.3 Y95.586 E.02341
G1 X139.414 Y51.7 E2.2441
G1 X138.767 Y51.7 E.02341
G1 X183.3 Y96.233 E2.27721
G1 X183.3 Y96.88 E.02341
G1 X138.12 Y51.7 E2.31031
G1 X137.472 Y51.7 E.02341
G1 X183.3 Y97.528 E2.34341
G1 X183.3 Y98.175 E.02341
G1 X136.825 Y51.7 E2.37651
G1 X136.178 Y51.7 E.02341
G1 X183.3 Y98.822 E2.40961
G1 X183.3 Y99.47 E.02341
G1 X135.53 Y51.7 E2.44271
G1 X134.883 Y51.7 E.02341
G1 X183.3 Y100.117 E2.47582
G1 X183.3 Y100.764 E.02341
G1 X134.236 Y51.7 E2.50892
G1 X133.588 Y51.7 E.02341
G1 X183.3 Y101.412 E2.54202
G1 X183.3 Y102.059 E.02341
G1 X132.941 Y51.7 E2.57512
G1 X132.294 Y51.7 E.02341
G1 X183.3 Y102.706 E2.60822
G1 X183.3 Y103.354 E.02341
G1 X131.646 Y51.7 E2.64133
G1 X130.999 Y51.7 E.02341
G1 X183.3 Y104.001 E2.67443
G1 X183.3 Y104.648 E.02341
G1 X130.352 Y51.7 E2.70753
G1 X129.704 Y51.7 E.02341
G1 X183.3 Y105.296 E2.74063
G1 X183.3 Y105.943 E.02341
G1 X129.057 Y51.7 E2.77373
G1 X128.41 Y51.7 E.02341
G1 X183.3 Y106.59 E2.80683
G1 X183.3 Y107.238 E.02341
G1 X127.762 Y51.7 E2.83994
G1 X127.115 Y51.7 E.02341
G1 X183.3 Y107.885 E2.87304
G1 X183.3 Y108.532 E.02341
G1 X126.468 Y51.7 E2.90614
G1 X125.82 Y51.7 E.02341
G1 X183.3 Y109.18 E2.93924
G1 X183.3 Y109.827 E.02341
G1 X125.173 Y51.7 E2.97234
G1 X124.526 Y51.7 E.02341
G1 X183.3 Y110.474 E3.00545
G1 X183.3 Y111.122 E.02341
G1 X123.878 Y51.7 E3.03855
G1 X123.231 Y51.7 E.02341
G1 X183.3 Y111.769 E3.07165
G1 X183.3 Y112.416 E.02341
G1 X122.584 Y51.7 E3.10475
G1 X121.936 Y51.7 E.02341
G1 X183.3 Y113.064 E3.13785
G1 X183.3 Y113.711 E.02341
G1 X121.289 Y51.7 E3.17095
G1 X120.642 Y51.7 E.02341
G1 X183.3 Y114.358 E3.20406
G1 X183.3 Y115.006 E.02341
G1 X119.994 Y51.7 E3.23716
G1 X119.347 Y51.7 E.02341
G1 X183.3 Y115.653 E3.27026
G1 X183.3 Y116.3 E.02341
G1 X118.7 Y51.7 E3.30336
G1 X118.052 Y51.7 E.02341
G1 X183.3 Y116.948 E3.33646
G1 X183.3 Y117.595 E.02341
M73 P2 R120
G1 X117.405 Y51.7 E3.36957
G1 X116.758 Y51.7 E.02341
G1 X183.3 Y118.242 E3.40267
G1 X183.3 Y118.89 E.02341
G1 X116.11 Y51.7 E3.43577
G1 X115.463 Y51.7 E.02341
G1 X183.3 Y119.537 E3.46887
G1 X183.3 Y120.185 E.02341
G1 X114.815 Y51.7 E3.50197
G1 X114.168 Y51.7 E.02341
G1 X183.3 Y120.832 E3.53507
G1 X183.3 Y121.479 E.02341
G1 X113.521 Y51.7 E3.56818
G1 X112.873 Y51.7 E.02341
G1 X183.3 Y122.127 E3.60128
G1 X183.3 Y122.774 E.02341
G1 X112.226 Y51.7 E3.63438
G1 X111.579 Y51.7 E.02341
M73 P2 R119
G1 X183.3 Y123.421 E3.66748
G1 X183.3 Y124.069 E.02341
G1 X110.931 Y51.7 E3.70058
G1 X110.284 Y51.7 E.02341
G1 X183.3 Y124.716 E3.73369
G1 X183.3 Y125.363 E.02341
G1 X109.637 Y51.7 E3.76679
G1 X108.989 Y51.7 E.02341
G1 X183.3 Y126.011 E3.79989
G1 X183.3 Y126.658 E.02341
G1 X108.342 Y51.7 E3.83299
G1 X107.695 Y51.7 E.02341
G1 X183.3 Y127.305 E3.86609
G1 X183.3 Y127.953 E.02341
G1 X107.047 Y51.7 E3.89919
G1 X106.4 Y51.7 E.02341
G1 X183.3 Y128.6 E3.9323
G1 X183.3 Y129.247 E.02341
G1 X105.753 Y51.7 E3.9654
G1 X105.105 Y51.7 E.02341
G1 X183.3 Y129.895 E3.9985
G1 X183.3 Y130.542 E.02341
G1 X104.458 Y51.7 E4.0316
G1 X103.811 Y51.7 E.02341
G1 X183.3 Y131.189 E4.0647
G1 X183.3 Y131.837 E.02341
G1 X103.163 Y51.7 E4.0978
G1 X102.516 Y51.7 E.02341
G1 X183.3 Y132.484 E4.13091
G1 X183.3 Y133.131 E.02341
G1 X101.869 Y51.7 E4.16401
G1 X101.221 Y51.7 E.02341
G1 X183.3 Y133.779 E4.19711
G1 X183.3 Y134.426 E.02341
G1 X100.574 Y51.7 E4.23021
G1 X99.927 Y51.7 E.02341
G1 X183.3 Y135.073 E4.26331
G1 X183.3 Y135.721 E.02341
G1 X99.279 Y51.7 E4.29642
G1 X98.632 Y51.7 E.02341
G1 X183.3 Y136.368 E4.32952
G1 X183.3 Y137.015 E.02341
G1 X97.985 Y51.7 E4.36262
G1 X97.337 Y51.7 E.02341
G1 X183.3 Y137.663 E4.39572
G1 X183.3 Y138.31 E.02341
G1 X96.69 Y51.7 E4.42882
G1 X96.043 Y51.7 E.02341
G1 X183.3 Y138.957 E4.46192
G1 X183.3 Y139.605 E.02341
G1 X95.395 Y51.7 E4.49503
G1 X94.748 Y51.7 E.02341
G1 X183.3 Y140.252 E4.52813
G1 X183.3 Y140.899 E.02341
G1 X94.101 Y51.7 E4.56123
G1 X93.453 Y51.7 E.02341
G1 X183.3 Y141.547 E4.59433
G1 X183.3 Y142.194 E.02341
G1 X92.806 Y51.7 E4.62743
G1 X92.159 Y51.7 E.02341
G1 X183.3 Y142.841 E4.66054
G1 X183.3 Y143.489 E.02341
G1 X91.511 Y51.7 E4.69364
G1 X90.864 Y51.7 E.02341
G1 X183.3 Y144.136 E4.72674
G1 X183.3 Y144.783 E.02341
G1 X90.217 Y51.7 E4.75984
G1 X89.569 Y51.7 E.02341
G1 X183.3 Y145.431 E4.79294
G1 X183.3 Y146.078 E.02341
G1 X88.922 Y51.7 E4.82604
G1 X88.275 Y51.7 E.02341
G1 X183.3 Y146.725 E4.85915
G1 X183.3 Y147.373 E.02341
M73 P2 R118
G1 X87.627 Y51.7 E4.89225
G1 X86.98 Y51.7 E.02341
M73 P3 R118
G1 X183.3 Y148.02 E4.92535
G1 X183.3 Y148.667 E.02341
G1 X86.333 Y51.7 E4.95845
G1 X85.685 Y51.7 E.02341
G1 X183.3 Y149.315 E4.99155
G1 X183.3 Y149.962 E.02341
G1 X85.038 Y51.7 E5.02466
G1 X84.391 Y51.7 E.02341
G1 X183.3 Y150.609 E5.05776
G1 X183.3 Y151.257 E.02341
G1 X83.743 Y51.7 E5.09086
G1 X83.096 Y51.7 E.02341
G1 X183.3 Y151.904 E5.12396
G1 X183.3 Y152.551 E.02341
G1 X82.449 Y51.7 E5.15706
G1 X81.801 Y51.7 E.02341
G1 X183.3 Y153.199 E5.19016
G1 X183.3 Y153.846 E.02341
G1 X81.154 Y51.7 E5.22327
G1 X80.507 Y51.7 E.02341
G1 X183.3 Y154.493 E5.25637
G1 X183.3 Y155.141 E.02341
G1 X79.859 Y51.7 E5.28947
G1 X79.212 Y51.7 E.02341
G1 X183.3 Y155.788 E5.32257
G1 X183.3 Y156.436 E.02341
G1 X78.564 Y51.7 E5.35567
G1 X77.917 Y51.7 E.02341
G1 X183.3 Y157.083 E5.38878
G1 X183.3 Y157.73 E.02341
G1 X77.27 Y51.7 E5.42188
G1 X76.622 Y51.7 E.02341
G1 X183.3 Y158.378 E5.45498
