;TIME:3733.49
;Filament used:10.25540m
;Layer height:0.200
; HEADER_BLOCK_START
; generated by Creality_Print V7.1.0.4414 on 2026-05-07 at 22:33:21
; total layer number: 8
; filament_density: 1.24
; filament_diameter: 1.75
; max_z_height: 1.60
; creality_uuid: 7a1b1462-55e1-4a22-a305-530aeb0c58be
; HEADER_BLOCK_END

; MINX = 35.00
; MINY = 50.00
; MINZ = 0.00
; MAXX = 185.00
; MAXY = 170.00
; MAXZ = 1.50

; multicolor_method = 0 
; THUMBNAIL_BLOCK_START

;
; THUMBNAIL_BLOCK_END

; THUMBNAIL_BLOCK_START

;
; THUMBNAIL_BLOCK_END

; external perimeters extrusion width = 0.42mm
; perimeters extrusion width = 0.45mm
; infill extrusion width = 0.45mm
; solid infill extrusion width = 0.42mm
; top infill extrusion width = 0.42mm
; first layer extrusion width = 0.50mm

; EXECUTABLE_BLOCK_START
M73 P0 R62
M201 X5000 Y5000 Z500 E5000
M203 X500 Y500 Z30 E100
M204 P5000 R2500 T5000 ; sets acceleration (P, T) and retract acceleration (R), mm/sec^2
M205 X10.00 Y10.00 Z0.40 E5.00 ; sets the jerk limits, mm/sec
; max_print_temp = 50,190
;TYPE:Custom
M220 S100 ;Reset Feedrate 
M221 S100 ;Reset Flowrate 
 
M140 S50 ;Set final bed temp 
G28 ;Home 
 
G92 E0 ;Reset Extruder 
G1 Z2.0 F3000 ;Move Z Axis up 
M104 S190 ;Set final nozzle temp 
G1 X-2.1 Y20 Z0.28 F5000.0 ;Move to start position 
M190 S50 ;Wait for bed temp to stabilize 
M109 S190 ;Wait for nozzle temp to stabilize 
G1 X-2.1 Y145.0 Z0.28 F1500.0 E15 ;Draw the first line 
G1 X-2.4 Y145.0 Z0.28 F5000.0 ;Move to side a little 
G1 X-2.4 Y20 Z0.28 F1500.0 E30 ;Draw the second line 
G92 E0  ;Reset Extruder 
G1 E-1.0000 F1800 ;Retract a bit 
G1 Z2.0 F3000 ;Move Z Axis up 
G1 E0.0000 F1800
G90
G21
M83 ; use relative distances for extrusion
;filament start gcode
G1 E-1.2 F2400
G1 Z.2 F9000
M106 S0
;LAYER_CHANGE
;:0.2
;HEIGHT:0.2
;BEFORE_LAYER_CHANGE
;0.2
G92 E0
;TIME_ELAPSED:68.713120
;_SET_FAN_SPEED_CHANGING_LAYER
M204 P500
M205 X10 Y10
; OBJECT_ID: 71
; printing object rd_front_panel_v3.stl id:1794987174912 copy 0
M204 T500
G1 X81.075 Y96.919 Z.4 F9000
G1 Z.2
G1 E1.2 F1800
;TYPE:Inner wall
;WIDTH:0.499999
G1 F1200
G1 X81.067 Y96.907 E.00051
G3 X79.826 Y94.575 I.902 J-1.976 E.10249
G1 X79.969 Y94.095 E.0181
G3 X80.809 Y93.121 I2.19 J1.039 E.04699
G3 X83.091 Y96.779 I1.141 J1.829 E.24451
;WIDTH:0.501354
G1 X82.713 Y96.967 E.01531
;WIDTH:0.523796
G1 X82.358 Y97.081 E.01416
G1 X82.881 Y97.093 E.01989
;WIDTH:0.499999
G1 X137.269 Y97.093 E1.96372
;WIDTH:0.516646
G1 X137.695 Y97.085 E.01594
M73 P0 R61
G1 X137.163 Y96.915 E.02087
;WIDTH:0.499999
G3 X138.404 Y97.076 I.885 J-1.96 E.44201
;WIDTH:0.498983
G1 X138.116 Y97.112 E.01046
G1 X138.367 Y97.219 E.00981
;WIDTH:0.499999
G1 X138.588 Y97.479 E.01234
G1 X138.657 Y97.779 E.01109
G1 X138.657 Y126.221 E1.02696
G1 X138.588 Y126.521 E.01109
;WIDTH:0.501009
G1 X138.367 Y126.782 E.01238
;WIDTH:0.503982
G1 X138.117 Y126.893 E.00996
G1 X138.536 Y126.95 E.01539
;WIDTH:0.499999
G3 X136.909 Y127.221 I-.486 J2.1 E.4279
;WIDTH:0.501353
G1 X137.287 Y127.033 E.01531
;WIDTH:0.523788
G1 X137.642 Y126.919 E.01416
G1 X137.119 Y126.907 E.01989
;WIDTH:0.499999
G1 X82.731 Y126.907 E1.96371
;WIDTH:0.516638
G1 X82.305 Y126.915 E.01594
G1 X82.837 Y127.085 E.02087
;WIDTH:0.499999
G3 X81.188 Y127.034 I-.887 J1.965 E.4279
;WIDTH:0.501009
G1 X81.596 Y126.923 E.01529
;WIDTH:0.503984
G1 X81.883 Y126.893 E.01051
G1 X81.633 Y126.782 E.00996
;WIDTH:0.501009
G1 X81.412 Y126.521 E.01238
;WIDTH:0.499999
G1 X81.343 Y126.221 E.01109
G1 X81.343 Y97.779 E1.02696
G1 X81.412 Y97.479 E.01109
G1 X81.633 Y97.219 E.01234
;WIDTH:0.498983
G1 X81.883 Y97.101 E.00994
;WIDTH:0.499999
G3 X81.465 Y97.044 I.086 J-2.171 E.01525
G1 X81.113 Y96.931 E.01337
G1 X81.608 Y96.614 F9000
;TYPE:Outer wall
G1 F1200
G1 X81.598 Y96.607 E.00046
G3 X80.25 Y94.928 I.348 J-1.66 E.08421
G1 X80.279 Y94.634 E.01066
G3 X81.928 Y96.643 I1.667 J.313 E.27785
G1 X81.648 Y96.618 E.01014
G1 E-1.2 F2400
;WIPE_START
G1 F9000
G1 X81.598 Y96.607
G1 X81.279 Y96.512
G1 X80.987 Y96.351
G1 X80.732 Y96.136
G1 X80.524 Y95.876
G1 X80.371 Y95.58
G1 X80.293 Y95.308
;WIPE_END
G1 X77.455 Y92.756 Z.4
G1 X68.549 Y84.743 Z.4
G1 Z.2
G1 E1.2 F1800
;TYPE:Inner wall
G1 F1200
G1 X68.697 Y84.829 E.0062
G3 X65.45 Y86.388 I-1.197 J1.67 E.30736
G1 X65.542 Y85.89 E.01829
G1 X65.754 Y85.414 E.0188
G1 X66.078 Y85.014 E.01858
G1 X66.414 Y84.754 E.01536
G1 X66.89 Y84.542 E.0188
G1 X67.388 Y84.45 E.0183
G1 X67.904 Y84.482 E.01868
G1 X68.348 Y84.628 E.01687
G1 X68.514 Y84.723 E.00691
G1 X67.952 Y84.973 F9000
;TYPE:Outer wall
G1 F1200
G1 X68.133 Y85.03 E.00686
G3 X65.979 Y86.022 I-.631 J1.465 E.26527
G1 X66.182 Y85.593 E.01716
G1 X66.379 Y85.358 E.01106
G1 X66.63 Y85.157 E.01159
G1 X67.022 Y84.979 E.01556
G1 X67.513 Y84.9 E.01795
G3 X67.834 Y84.934 I-.011 J1.595 E.01169
G1 X67.914 Y84.96 E.00302
G1 E-1.2 F2400
;WIPE_START
G1 F9000
G1 X68.133 Y85.03
G1 X68.407 Y85.182
G1 X68.647 Y85.385
G1 X68.843 Y85.63
G1 X68.987 Y85.909
G1 X69.073 Y86.21
G1 X69.09 Y86.411
;WIPE_END
G1 X65.526 Y85.048 Z.4
G1 X52.994 Y80.259 Z.4
G1 Z.2
G1 E1.2 F1800
;TYPE:Inner wall
G1 F1200
G1 X52.833 Y80.103 E.00808
G3 X51.315 Y74.612 I4.191 J-4.114 E.21475
G1 X51.573 Y73.8 E.03075
G3 X56.955 Y70.144 I5.465 J2.255 E.24879
G1 X57.72 Y70.188 E.02766
G1 X58.472 Y70.332 E.02766
G3 X62.442 Y78.157 I-1.497 J5.679 E.35775
G3 X55.528 Y81.668 I-5.463 J-2.194 E.30565
G3 X53.226 Y80.469 I1.497 J-5.679 E.09448
G1 X53.024 Y80.286 E.00985
G1 X53.652 Y80.218 F9000
;TYPE:Outer wall
G1 F1200
G1 X53.527 Y80.126 E.00561
G3 X53.081 Y79.705 I3.472 J-4.128 E.02214
G1 X52.725 Y79.299 E.01951
G3 X51.763 Y74.702 I4.368 J-3.313 E.17526
G1 X52.005 Y73.947 E.0286
G3 X56.28 Y70.648 I5.042 J2.114 E.20392
G3 X61.75 Y78.552 I.711 J5.352 E.42795
G3 X53.95 Y80.447 I-4.751 J-2.554 E.32686
G1 X53.684 Y80.242 E.01214
G1 E-1.2 F2400
;WIPE_START
G1 F9000
G1 X53.527 Y80.126
G1 X53.081 Y79.705
G1 X52.725 Y79.299
G1 X52.362 Y78.758
;WIPE_END
G1 X50.909 Y75.229 Z.4
G1 X47.611 Y67.218 Z.4
G1 Z.2
G1 E1.2 F1800
;TYPE:Inner wall
G1 F1200
G1 X47.224 Y67.424 E.01582
G3 X48.55 Y65.612 I-.723 J-1.92 E.37978
G1 X48.458 Y66.11 E.01829
G1 X48.246 Y66.586 E.0188
G1 X47.922 Y66.986 E.01858
G1 X47.692 Y67.175 E.01077
G1 X47.646 Y67.2 E.00187
G1 X47.639 Y66.619 F9000
;TYPE:Outer wall
G1 F1200
G1 X47.615 Y66.647 E.00135
G3 X47.406 Y66.819 I-1.12 J-1.151 E.00981
G1 X46.978 Y67.021 E.01708
G1 X46.501 Y67.101 E.01744
G3 X48.021 Y65.978 I-.004 J-1.595 E.28883
G1 X47.818 Y66.407 E.01716
G1 X47.665 Y66.588 E.00853
G1 E-1.2 F2400
;WIPE_START
G1 F9000
G1 X47.615 Y66.647
G1 X47.406 Y66.819
G1 X46.978 Y67.021
G1 X46.501 Y67.101
G1 X46.166 Y67.065
G1 X45.867 Y66.969
G1 X45.828 Y66.948
;WIPE_END
G1 X45.25 Y70.72 Z.4
G1 X43.111 Y84.679 Z.4
G1 Z.2
G1 E1.2 F1800
;TYPE:Inner wall
G1 F1200
G1 X42.923 Y84.809 E.00824
G1 X42.671 Y84.857 E.00926
G1 X38.329 Y84.857 E.15681
G3 X37.724 Y84.494 I.046 J-.762 E.02648
G1 X37.643 Y84.171 E.01201
G1 X37.643 Y73.829 E.37344
G1 X37.724 Y73.506 E.01201
G1 X37.917 Y73.28 E.01074
G3 X38.329 Y73.143 I.411 J.548 E.01593
G1 X42.671 Y73.143 E.15681
G1 X42.929 Y73.193 E.00946
G1 X43.184 Y73.373 E.0113
G1 X43.329 Y73.634 E.01078
G1 X43.357 Y74.419 E.02833
G1 X43.357 Y84.174 E.35222
G3 X43.171 Y84.625 I-.747 J-.045 E.01793
G1 X43.141 Y84.652 E.00149
G1 X42.9 Y84.172 F9000
;TYPE:Outer wall
G1 F1200
G1 X42.841 Y84.325 E.00591
G1 X42.688 Y84.399 E.00615
G1 X38.329 Y84.4 E.15739
G1 X38.191 Y84.354 E.00522
G1 X38.1 Y84.205 E.00631
G1 X38.1 Y73.829 E.37466
G1 X38.191 Y73.646 E.00738
G1 X38.329 Y73.6 E.00522
G1 X42.671 Y73.6 E.15681
G1 X42.827 Y73.661 E.00604
G1 X42.9 Y73.824 E.00645
G1 X42.9 Y84.132 E.37218
G1 E-1.2 F2400
;WIPE_START
G1 F9000
G1 X42.841 Y84.325
G1 X42.688 Y84.399
G1 X41.059 Y84.4
;WIPE_END
G1 X44.839 Y84.929 Z.4
G1 X48.238 Y85.404 Z.4
G1 Z.2
G1 E1.2 F1800
;TYPE:Inner wall
G1 F1200
G1 X48.246 Y85.414 E.00047
G1 X48.458 Y85.89 E.0188
G1 X48.55 Y86.388 E.01829
G1 X48.518 Y86.904 E.01869
G1 X48.372 Y87.348 E.01687
G3 X44.442 Y86.488 I-1.871 J-.861 E.20149
G1 X44.498 Y86.033 E.01655
G1 X44.681 Y85.552 E.01858
G1 X45 Y85.095 E.02014
G1 X45.414 Y84.754 E.01937
G3 X48 Y85.095 I1.086 J1.746 E.10202
G1 X48.213 Y85.372 E.01264
G1 X47.619 Y85.361 F9000
;TYPE:Outer wall
G1 F1200
G1 X47.643 Y85.389 E.00134
G3 X48.021 Y86.022 I-1.231 J1.165 E.02686
G1 X48.1 Y86.513 E.01795
G3 X44.899 Y86.496 I-1.601 J-.018 E.18088
G1 X44.935 Y86.166 E.01199
G1 X45.084 Y85.768 E.01535
G1 X45.353 Y85.385 E.0169
G3 X46.522 Y84.9 I1.147 J1.115 E.04699
G1 X46.978 Y84.979 E.01668
M73 P1 R61
G1 X47.407 Y85.182 E.01716
G1 X47.588 Y85.335 E.00853
G1 E-1.2 F2400
;WIPE_START
G1 F9000
G1 X47.643 Y85.389
G1 X47.843 Y85.63
G1 X48.021 Y86.022
G1 X48.1 Y86.513
G1 X48.065 Y86.834
G1 X47.969 Y87.133
G1 X47.948 Y87.172
;WIPE_END
G1 X50.448 Y84.289 Z.4
G1 X65.776 Y66.614 Z.4
G1 Z.2
G1 E1.2 F1800
;TYPE:Inner wall
G1 F1200
G1 X65.754 Y66.586 E.00128
G1 X65.542 Y66.11 E.0188
G1 X65.45 Y65.612 E.01829
G1 X65.482 Y65.096 E.01868
G1 X65.628 Y64.652 E.01687
G3 X67.388 Y67.55 I1.871 J.847 E.32194
G1 X66.89 Y67.458 E.01829
G1 X66.414 Y67.246 E.0188
G1 X66.014 Y66.922 E.01858
G1 X65.8 Y66.645 E.01264
G1 X66.381 Y66.639 F9000
;TYPE:Outer wall
G1 F1200
G1 X66.357 Y66.611 E.00134
G3 X65.979 Y65.978 I1.231 J-1.165 E.02686
G1 X65.9 Y65.487 E.01795
G1 X65.935 Y65.166 E.01166
G3 X67.022 Y67.021 I1.561 J.331 E.27681
G1 X66.593 Y66.818 E.01716
G1 X66.412 Y66.665 E.00853
G1 E-1.2 F2400
;WIPE_START
G1 F9000
G1 X66.357 Y66.611
G1 X66.157 Y66.37
G1 X65.979 Y65.978
G1 X65.9 Y65.487
G1 X65.935 Y65.166
G1 X66.031 Y64.867
G1 X66.052 Y64.828
;WIPE_END
G1 X68.95 Y67.311 Z.4
G1 X137.971 Y126.45 Z.4
G1 Z.2
G1 E1.2 F1800
G1 F1200
G1 X82.029 Y126.45 E2.01987
G1 X81.863 Y126.379 E.00651
G1 X81.8 Y126.221 E.00612
G1 X81.8 Y97.779 E1.02696
G1 X81.863 Y97.621 E.00612
G1 X82.029 Y97.55 E.00651
G1 X137.971 Y97.55 E2.01987
G1 X138.137 Y97.621 E.00651
G1 X138.2 Y97.779 E.00612
G1 X138.2 Y126.221 E1.02696
G1 X138.137 Y126.379 E.00612
G1 X138.008 Y126.434 E.00507
G1 E-1.2 F2400
;WIPE_START
G1 F9000
G1 X136.008 Y126.435
;WIPE_END
G1 X132.193 Y126.522 Z.4
G1 X82.903 Y127.644 Z.4
G1 Z.2
G1 E1.2 F1800
G1 F1200
G1 X82.91 Y127.654 E.00044
G3 X80.287 Y128.696 I-.964 J1.395 E.26433
G1 X80.388 Y128.379 E.01203
G3 X82.619 Y127.492 I1.558 J.67 E.09631
G1 X82.868 Y127.625 E.01016
G1 X82.305 Y126.915 F9000
;TYPE:Inner wall
;WIDTH:0.516638
G1 F1200
G1 X81.883 Y126.893 E.01584
G1 E-1.2 F2400
;WIPE_START
G1 F9000
G1 X82.305 Y126.915
;WIPE_END
G1 X82.257 Y123.099 Z.4
G1 X81.93 Y97.104 Z.4
G1 Z.2
G1 E1.2 F1800
;WIDTH:0.523796
G1 F1200
G1 X82.358 Y97.081 E.01627
G1 E-1.2 F2400
;WIPE_START
G1 F9000
G1 X81.93 Y97.104
;WIPE_END
G1 X79.275 Y99.845 Z.4
G1 X37.836 Y142.625 Z.4
G1 Z.2
G1 E1.2 F1800
;WIDTH:0.499999
G1 F1200
G1 X37.724 Y142.494 E.00621
G1 X37.643 Y142.171 E.01201
G1 X37.643 Y131.829 E.37344
G1 X37.724 Y131.506 E.01201
G1 X37.917 Y131.28 E.01074
G3 X38.329 Y131.143 I.411 J.548 E.01593
G1 X42.671 Y131.143 E.15681
G1 X42.95 Y131.202 E.01026
G1 X43.201 Y131.393 E.01141
G1 X43.348 Y131.719 E.01291
G1 X43.357 Y132.609 E.03213
G1 X43.357 Y142.171 E.34527
G1 X43.294 Y142.459 E.01062
G1 X43.099 Y142.707 E.01139
G1 X42.804 Y142.857 E.01197
G1 X38.329 Y142.857 E.16158
G3 X37.924 Y142.711 I.046 J-.762 E.01575
G1 X37.864 Y142.653 E.00301
G1 X38.329 Y142.4 F9000
;TYPE:Outer wall
G1 F1200
G1 X38.191 Y142.354 E.00522
G1 X38.1 Y142.205 E.00631
G1 X38.1 Y131.829 E.37466
G1 X38.191 Y131.646 E.00738
G1 X38.329 Y131.6 E.00522
G1 X42.671 Y131.6 E.15681
G1 X42.838 Y131.672 E.00653
G1 X42.9 Y131.829 E.0061
G1 X42.9 Y142.171 E.37344
G1 X42.831 Y142.335 E.00639
G1 X42.671 Y142.4 E.00624
G1 X38.369 Y142.4 E.15536
G1 E-1.2 F2400
;WIPE_START
G1 F9000
G1 X38.191 Y142.354
G1 X38.1 Y142.205
G1 X38.1 Y140.563
;WIPE_END
G1 X41.884 Y140.066 Z.4
G1 X138.392 Y127.386 Z.4
G1 Z.2
G1 E1.2 F1800
G1 F1200
G1 X138.402 Y127.395 E.00049
G3 X138.36 Y130.721 I-.352 J1.659 E.16834
G1 X138.028 Y130.75 E.01203
G3 X138.072 Y127.358 I.023 J-1.696 E.19233
G1 X138.352 Y127.383 E.01014
G1 X137.642 Y126.919 F9000
;TYPE:Inner wall
;WIDTH:0.523788
G1 F1200
G1 X138.117 Y126.893 E.01807
G1 E-1.2 F2400
;WIPE_START
G1 F9000
G1 X137.642 Y126.919
;WIPE_END
G1 X137.574 Y123.103 Z.4
G1 X137.097 Y96.356 Z.4
G1 Z.2
G1 E1.2 F1800
;TYPE:Outer wall
;WIDTH:0.499999
G1 F1200
G1 X137.09 Y96.346 E.00045
G3 X137.124 Y93.524 I.958 J-1.4 E.12034
G1 X137.42 Y93.371 E.01203
G3 X137.381 Y96.506 I.628 J1.575 E.24031
G1 X137.133 Y96.375 E.01015
G1 E-1.2 F2400
;WIPE_START
G1 F9000
G1 X137.09 Y96.346
G1 X136.832 Y96.136
G1 X136.624 Y95.876
G1 X136.471 Y95.58
G1 X136.379 Y95.26
G1 X136.35 Y94.928
G1 X136.382 Y94.646
;WIPE_END
G1 X138.07 Y97.104 Z.4
G1 Z.2
G1 E1.2 F1800
;TYPE:Inner wall
;WIDTH:0.516646
G1 F1200
G1 X137.695 Y97.085 E.01406
G1 E-1.2 F2400
;WIPE_START
G1 F9000
G1 X138.07 Y97.104
;WIPE_END
G1 X141.702 Y95.934 Z.4
G1 X176.821 Y84.62 Z.4
G1 Z.2
G1 E1.2 F1800
;WIDTH:0.499999
G1 F1200
G1 X176.676 Y84.382 E.01005
G1 X176.643 Y84.171 E.0077
G1 X176.643 Y73.829 E.37344
G1 X176.708 Y73.537 E.01079
G1 X176.883 Y73.308 E.01041
G1 X177.194 Y73.143 E.01273
G1 X181.671 Y73.143 E.16165
G3 X182.276 Y73.506 I-.046 J.762 E.02648
G1 X182.357 Y73.829 E.01201
G1 X182.357 Y84.171 E.37344
G1 X182.276 Y84.494 E.01201
G1 X182.083 Y84.72 E.01074
G3 X181.671 Y84.857 I-.411 J-.548 E.01593
G1 X177.329 Y84.857 E.15681
G1 X177.016 Y84.782 E.01159
G1 X176.842 Y84.654 E.00782
G1 X177.372 Y84.4 F9000
;TYPE:Outer wall
G1 F1200
G1 X177.329 Y84.4 E.00158
G1 X177.166 Y84.332 E.00637
G1 X177.1 Y84.171 E.00627
G1 X177.1 Y73.829 E.37344
G1 X177.17 Y73.664 E.00646
G1 X177.329 Y73.6 E.00617
G1 X181.671 Y73.6 E.15681
G1 X181.809 Y73.646 E.00522
G1 X181.9 Y73.829 E.00738
G1 X181.9 Y84.171 E.37344
G1 X181.873 Y84.279 E.004
G1 X181.724 Y84.4 E.00693
G1 X177.412 Y84.4 E.15569
G1 E-1.2 F2400
;WIPE_START
G1 F9000
G1 X177.329 Y84.4
G1 X177.166 Y84.332
G1 X177.1 Y84.171
G1 X177.1 Y82.605
;WIPE_END
G1 X177.081 Y86.421 Z.4
G1 X176.799 Y142.6 Z.4
G1 Z.2
G1 E1.2 F1800
;TYPE:Inner wall
G1 F1200
G1 X176.783 Y142.587 E.00074
G1 X176.657 Y142.311 E.01096
G1 X176.643 Y141.248 E.03839
G1 X176.643 Y131.829 E.34009
G1 X176.717 Y131.518 E.01154
G1 X176.901 Y131.292 E.0105
G1 X177.142 Y131.169 E.00976
G1 X177.329 Y131.143 E.00681
G1 X181.671 Y131.143 E.15681
G3 X182.276 Y131.506 I-.046 J.762 E.02648
G1 X182.357 Y131.829 E.01201
G1 X182.357 Y142.171 E.37344
G1 X182.276 Y142.494 E.01201
G1 X182.083 Y142.72 E.01074
G3 X181.671 Y142.857 I-.411 J-.548 E.01593
G1 X177.329 Y142.857 E.15681
G1 X177.023 Y142.785 E.01131
G1 X176.83 Y142.626 E.00907
G1 X177.329 Y142.4 F9000
;TYPE:Outer wall
G1 F1200
G1 X177.169 Y142.335 E.00624
G1 X177.1 Y142.171 E.00639
G1 X177.1 Y131.825 E.37358
G1 X177.173 Y131.661 E.00648
G1 X177.329 Y131.6 E.00603
G1 X181.671 Y131.6 E.15681
G1 X181.809 Y131.646 E.00522
G1 X181.9 Y131.829 E.00738
G1 X181.9 Y142.171 E.37344
G1 X181.873 Y142.279 E.004
G1 X181.724 Y142.4 E.00693
G1 X177.369 Y142.4 E.15727
G1 E-1.2 F2400
;WIPE_START
G1 F9000
G1 X177.169 Y142.335
G1 X177.1 Y142.171
G1 X177.1 Y140.559
;WIPE_END
G1 X177.952 Y144.279 Z.4
G1 X183.643 Y169.143 Z.4
G1 Z.2
G1 E1.2 F1800
;TYPE:Inner wall
G1 F1200
G1 X35.857 Y169.143 E5.33595
G1 X35.857 Y50.857 E4.27082
M73 P2 R60
G1 X184.143 Y50.857 E5.354
G1 X184.143 Y169.143 E4.27082
G1 X183.683 Y169.143 E.01661
G1 E-1.2 F2400
;WIPE_START
G1 F9000
G1 X181.683 Y169.143
;WIPE_END
G1 X184.6 Y169.6 Z.4
G1 Z.2
G1 E1.2 F1800
;TYPE:Outer wall
G1 F1200
G1 X35.4 Y169.6 E5.38701
G1 X35.4 Y50.4 E4.30383
G1 X184.6 Y50.4 E5.38701
G1 X184.6 Y169.56 E4.30239
M73 P3 R60
G1 E-1.2 F2400
;WIPE_START
G1 F9000
G1 X182.6 Y169.561
;WIPE_END
G1 X184.006 Y51.92 Z.4
G1 Z.2
G1 E1.2 F1800
;TYPE:Bottom surface
;WIDTH:0.500758
G1 F4200
G1 X183.286 Y51.2 E.03682
G1 X182.638 Y51.2 E.02342
G1 X183.8 Y52.362 E.05942
G1 X183.8 Y53.009 E.02342
G1 X181.991 Y51.2 E.09253
G1 X181.343 Y51.2 E.02342
G1 X183.8 Y53.657 E.12565
G1 X183.8 Y54.304 E.02342
G1 X180.696 Y51.2 E.15877
G1 X180.049 Y51.2 E.02342
G1 X183.8 Y54.951 E.19188
G1 X183.8 Y55.599 E.02342
G1 X179.401 Y51.2 E.225
G1 X178.754 Y51.2 E.02342
G1 X183.8 Y56.246 E.25811
G1 X183.8 Y56.894 E.02342
G1 X178.106 Y51.2 E.29123
G1 X177.459 Y51.2 E.02342
G1 X183.8 Y57.541 E.32435
