;TIME:957.51
;Filament used:1.74173m
;Layer height:0.200
; HEADER_BLOCK_START
; generated by Creality_Print V7.1.0.4414 on 2026-04-27 at 18:37:42
; total layer number: 12
; filament_density: 1.24
; filament_diameter: 1.75
; max_z_height: 2.40
; creality_uuid: 41989adc-4d15-4178-9b61-d58b9ac832d5
; HEADER_BLOCK_END

; MINX = 73.00
; MINY = 85.00
; MINZ = 0.00
; MAXX = 147.00
; MAXY = 135.00
; MAXZ = 2.40

; multicolor_method = 0 
; THUMBNAIL_BLOCK_START

;
; THUMBNAIL_BLOCK_END

; THUMBNAIL_BLOCK_START

;
; THUMBNAIL_BLOCK_END

; external perimeters extrusion width = 0.42mm
; perimeters extrusion width = 0.45mm
; infill extrusion width = 0.45mm
; solid infill extrusion width = 0.42mm
; top infill extrusion width = 0.42mm
; support material extrusion width = 0.40mm
; first layer extrusion width = 0.50mm

; EXECUTABLE_BLOCK_START
M73 P0 R15
M201 X5000 Y5000 Z500 E5000
M203 X500 Y500 Z30 E100
M204 P5000 R2500 T5000 ; sets acceleration (P, T) and retract acceleration (R), mm/sec^2
M205 X10.00 Y10.00 Z0.40 E5.00 ; sets the jerk limits, mm/sec
; max_print_temp = 50,190
;TYPE:Custom
M220 S100 ;Reset Feedrate 
M221 S100 ;Reset Flowrate 
 
M140 S50 ;Set final bed temp 
G28 ;Home 
 
G92 E0 ;Reset Extruder 
G1 Z2.0 F3000 ;Move Z Axis up 
M104 S190 ;Set final nozzle temp 
G1 X-2.1 Y20 Z0.28 F5000.0 ;Move to start position 
M190 S50 ;Wait for bed temp to stabilize 
M109 S190 ;Wait for nozzle temp to stabilize 
G1 X-2.1 Y145.0 Z0.28 F1500.0 E15 ;Draw the first line 
G1 X-2.4 Y145.0 Z0.28 F5000.0 ;Move to side a little 
G1 X-2.4 Y20 Z0.28 F1500.0 E30 ;Draw the second line 
G92 E0  ;Reset Extruder 
G1 E-1.0000 F1800 ;Retract a bit 
M73 P1 R15
G1 Z2.0 F3000 ;Move Z Axis up 
G1 E0.0000 F1800
G90
G21
M83 ; use relative distances for extrusion
;filament start gcode
G1 E-1.2 F2400
G1 Z.2 F9000
M106 S0
;LAYER_CHANGE
;:0.2
;HEIGHT:0.2
;BEFORE_LAYER_CHANGE
;0.2
G92 E0
;TIME_ELAPSED:55.470772
;_SET_FAN_SPEED_CHANGING_LAYER
M204 P500
M205 X10 Y10
; OBJECT_ID: 71
; printing object rd_oled_retainer_v1.stl id:2105410706416 copy 0
M204 T500
G1 X74.249 Y88.096 Z.4 F9000
G1 Z.2
G1 E1.2 F1800
;TYPE:Inner wall
;WIDTH:0.499999
G1 X74.788 Y88.24 E.02016
G1 X75.382 Y88.22 E.02146
G1 X75.944 Y88.046 E.02124
G1 X76.442 Y87.732 E.02124
G1 X76.841 Y87.299 E.02128
G1 X77.117 Y86.766 E.02163
G1 X77.236 Y86.222 E.02013
G1 X77.207 Y85.769 E.01639
G2 X77.958 Y85.849 I.789 J-3.837 E.02731
G1 X141.538 Y85.857 E2.29561
G2 X142.793 Y85.769 I-.551 J-16.892 E.04541
G1 X142.762 Y86.065 E.01077
G1 X142.853 Y86.672 E.02216
G1 X143.095 Y87.203 E.02105
G1 X143.438 Y87.628 E.01972
G1 X143.865 Y87.951 E.01935
G1 X144.331 Y88.152 E.01831
G1 X144.913 Y88.25 E.02133
G1 X145.509 Y88.187 E.02161
G1 X145.72 Y88.118 E.00801
G1 X146.179 Y87.867 E.01891
G2 X146.147 Y88.499 I7.186 J.683 E.02287
G1 X146.143 Y131.006 E1.53473
G2 X146.182 Y132.155 I13.837 J.111 E.04152
G1 X145.804 Y131.918 E.01609
G1 X145.212 Y131.76 E.02213
G1 X144.618 Y131.78 E.02144
G1 X144.056 Y131.954 E.02123
G1 X143.567 Y132.262 E.02089
G1 X143.159 Y132.701 E.02166
G1 X142.883 Y133.234 E.02163
G1 X142.764 Y133.778 E.02013
G1 X142.793 Y134.231 E.01639
G2 X142.042 Y134.151 I-.789 J3.836 E.02731
G1 X122.471 Y134.144 E.70661
G2 X120.707 Y134.19 I-.397 J18.704 E.06372
G2 X120.857 Y132.5 I-7.764 J-1.537 E.06137
G1 X120.857 Y125.829 E.24088
G1 X120.776 Y125.506 E.01201
G2 X120.171 Y125.143 I-.652 J.401 E.02648
G1 X99.829 Y125.143 E.7345
G1 X99.565 Y125.196 E.00971
G2 X99.224 Y125.506 I.264 J.633 E.01698
G1 X99.143 Y125.829 E.01201
G1 X99.143 Y132.505 E.24107
G2 X99.293 Y134.19 I8.299 J.114 E.06118
G1 X98.329 Y134.144 E.03484
G1 X78.462 Y134.143 E.71732
G2 X77.207 Y134.231 I.551 J16.89 E.04541
G1 X77.238 Y133.935 E.01077
G1 X77.147 Y133.328 E.02216
G1 X76.905 Y132.797 E.02105
G1 X76.559 Y132.369 E.01987
G1 X76.135 Y132.049 E.01919
G1 X75.669 Y131.848 E.01831
G1 X75.087 Y131.75 E.02131
G1 X74.492 Y131.813 E.02162
G1 X74.28 Y131.882 E.00802
G1 X73.821 Y132.133 E.01891
G2 X73.853 Y131.501 I-7.183 J-.683 E.02287
M73 P2 R15
G1 X73.857 Y88.994 E1.53473
G2 X73.818 Y87.846 I-13.85 J-.111 E.0415
G1 X74.196 Y88.081 E.01608
G1 X74.21 Y88.085 E.00053
G1 E-1.2 F2400
;WIPE_START
G1 F9000
G1 X74.788 Y88.24
G1 X75.382 Y88.22
G1 X75.944 Y88.046
G1 X76.13 Y87.929
;WIPE_END
G1 X73.286 Y86.418 Z.4
G1 Z.2
G1 E1.2 F1800
;TYPE:Outer wall
;WIDTH:0.608993
G1 X73.304 Y86.26 E.0071
G1 X73.367 Y86.395 E.00664
;WIDTH:0.572662
G1 X73.43 Y86.53 E.00622
;WIDTH:0.536331
G1 X73.492 Y86.664 E.00579
;WIDTH:0.499999
G1 X73.875 Y87.28 E.02617
G1 X74.27 Y87.612 E.01863
G1 X74.725 Y87.772 E.01741
G1 X75.203 Y87.787 E.01728
G1 X75.661 Y87.673 E.01701
G1 X76.071 Y87.445 E.01696
G1 X76.409 Y87.118 E.01696
G1 X76.632 Y86.746 E.01567
G1 X76.755 Y86.328 E.01574
G1 X76.784 Y86.004 E.01174
G1 X76.691 Y85.553 E.01662
G1 X76.473 Y85.273 E.01284
G1 X76.952 Y85.251 E.01733
G2 X77.962 Y85.392 I1.122 J-4.356 E.03691
G1 X140.366 Y85.4 E2.25317
G2 X142.444 Y85.355 I.586 J-21.053 E.07506
G1 X143.018 Y85.257 E.02103
G1 X143.489 Y85.271 E.01701
G1 X143.309 Y85.552 E.01203
G1 X143.221 Y85.948 E.01467
G1 X143.257 Y86.428 E.01738
G1 X143.427 Y86.872 E.01715
G1 X143.707 Y87.251 E.01702
G1 X144.066 Y87.536 E.01653
G1 X144.506 Y87.729 E.01736
G1 X144.972 Y87.797 E.01699
G1 X145.44 Y87.735 E.01705
G1 X145.871 Y87.526 E.01731
G1 X146.107 Y87.313 E.01147
G1 X146.403 Y86.866 E.01936
;WIDTH:0.538245
G1 X146.47 Y86.754 E.0051
;WIDTH:0.57649
G1 X146.538 Y86.643 E.00549
;WIDTH:0.614735
G1 X146.606 Y86.532 E.00588
;WIDTH:0.65298
G1 X146.674 Y86.421 E.00628
G1 X146.693 Y86.558 E.00668
;WIDTH:0.614735
G1 X146.712 Y86.695 E.00626
;WIDTH:0.57649
G1 X146.731 Y86.833 E.00584
;WIDTH:0.538245
G1 X146.75 Y86.97 E.00542
;WIDTH:0.499999
G2 X146.604 Y88.499 I12.696 J1.982 E.05551
G1 X146.6 Y131.002 E1.53459
G2 X146.683 Y132.534 I11.441 J.149 E.05544
G1 X146.75 Y133.267 E.0266
;WIDTH:0.54066
G1 X146.73 Y133.425 E.00624
;WIDTH:0.581321
G1 X146.709 Y133.582 E.00675
;WIDTH:0.621982
G1 X146.689 Y133.74 E.00726
G1 X146.629 Y133.605 E.00674
;WIDTH:0.581321
G1 X146.568 Y133.471 E.00627
;WIDTH:0.54066
G1 X146.508 Y133.336 E.0058
;WIDTH:0.499999
G1 X146.127 Y132.718 E.02621
G1 X145.731 Y132.388 E.01862
G1 X145.275 Y132.228 E.01743
G1 X144.797 Y132.213 E.01726
G1 X144.34 Y132.327 E.01702
G1 X143.936 Y132.55 E.01666
G1 X143.592 Y132.881 E.01722
G1 X143.368 Y133.254 E.01569
G1 X143.245 Y133.672 E.01575
G1 X143.216 Y133.996 E.01174
G1 X143.309 Y134.447 E.01662
G1 X143.527 Y134.727 E.01284
G1 X143.048 Y134.749 E.01733
G2 X142.038 Y134.608 I-1.122 J4.356 E.03691
G1 X122.471 Y134.601 E.70648
G2 X120.768 Y134.645 I-.398 J17.82 E.06151
;WIDTH:0.500435
G3 X119.681 Y134.729 I-.948 J-5.217 E.03949
;WIDTH:0.499999
G1 X99.914 Y134.729 E.71372
G2 X98.329 Y134.602 I-1.647 J10.598 E.05746
G1 X79.633 Y134.601 E.67502
G2 X77.556 Y134.645 I-.588 J21.022 E.07505
G1 X76.982 Y134.743 E.02103
G1 X76.511 Y134.729 E.01701
G1 X76.691 Y134.448 E.01203
G1 X76.779 Y134.052 E.01467
G1 X76.743 Y133.572 E.01738
G1 X76.573 Y133.128 E.01715
G1 X76.293 Y132.75 E.017
G1 X75.932 Y132.463 E.01665
G1 X75.494 Y132.271 E.01726
G1 X75.029 Y132.203 E.01698
G1 X74.56 Y132.265 E.01707
G1 X74.129 Y132.474 E.01732
G1 X73.899 Y132.681 E.01116
G1 X73.597 Y133.135 E.01969
;WIDTH:0.537749
G1 X73.529 Y133.249 E.0052
;WIDTH:0.575498
G1 X73.461 Y133.364 E.00559
;WIDTH:0.613247
G1 X73.393 Y133.478 E.00599
;WIDTH:0.650996
G1 X73.325 Y133.592 E.00639
G1 X73.307 Y133.452 E.00681
;WIDTH:0.613247
G1 X73.288 Y133.311 E.00639
;WIDTH:0.575498
G1 X73.269 Y133.171 E.00597
;WIDTH:0.537749
G1 X73.25 Y133.03 E.00554
;WIDTH:0.499999
G2 X73.396 Y131.501 I-12.696 J-1.982 E.05551
G1 X73.4 Y88.998 E1.53459
G2 X73.317 Y87.466 I-11.441 J-.149 E.05544
M73 P3 R15
G1 X73.25 Y86.734 E.02656
;WIDTH:0.536331
G1 X73.268 Y86.576 E.00619
;WIDTH:0.572662
G1 X73.282 Y86.458 E.00497
G1 E-1.2 F2400
;WIPE_START
G1 F9000
G1 X73.304 Y86.26
G1 X73.367 Y86.395
G1 X73.43 Y86.53
G1 X73.492 Y86.664
G1 X73.875 Y87.28
G1 X74.27 Y87.612
G1 X74.378 Y87.65
;WIPE_END
G1 X77.586 Y89.717 Z.4
G1 X146.692 Y134.235 Z.4
G1 Z.2
G1 E1.2 F1800
;WIDTH:0.621982
G1 X146.689 Y133.74 E.02267
G1 X146.692 Y134.235 F9000
;WIDTH:0.616426
G1 F1800
G1 X146.715 Y134.314 E.00375
;WIDTH:0.569629
G1 X146.739 Y134.394 E.00344
;WIDTH:0.522831
G1 X146.762 Y134.473 E.00313
;WIDTH:0.476034
G1 X146.785 Y134.552 E.00283
;WIDTH:0.429236
G1 X146.809 Y134.632 E.00252
;WIDTH:0.382343
G1 X146.809 Y134.809 E.00475
G1 X146.359 Y134.809 E.01207
;WIDTH:0.42916
G1 X146.425 Y134.694 E.00405
;WIDTH:0.475977
G1 X146.492 Y134.579 E.00454
;WIDTH:0.522793
G1 X146.559 Y134.465 E.00503
;WIDTH:0.56961
G1 X146.625 Y134.35 E.00552
;WIDTH:0.616426
G1 X146.672 Y134.27 E.0042
G1 E-1.2 F2400
;WIPE_START
G1 F9000
G1 X146.715 Y134.314
G1 X146.739 Y134.394
G1 X146.762 Y134.473
G1 X146.785 Y134.552
G1 X146.809 Y134.632
G1 X146.809 Y134.809
G1 X146.359 Y134.809
G1 X146.425 Y134.694
G1 X146.492 Y134.579
G1 X146.559 Y134.465
G1 X146.625 Y134.35
G1 X146.672 Y134.27
;WIPE_END
G1 X144.126 Y131.426 Z.4
G1 X136.414 Y122.811 Z.4
G1 Z.2
G1 E1.2 F1800
;TYPE:Inner wall
;WIDTH:0.499999
G1 X136.41 Y122.814 E.00021
G1 X136.171 Y122.857 E.00874
G1 X83.829 Y122.857 E1.88989
G1 X83.52 Y122.784 E.01144
G1 X83.292 Y122.598 E.01064
G1 X83.169 Y122.359 E.00969
G1 X83.143 Y122.171 E.00684
G1 X83.143 Y97.828 E.87893
G1 X83.22 Y97.513 E.01173
G1 X83.406 Y97.288 E.01054
G1 X83.707 Y97.143 E.01205
G1 X136.171 Y97.143 E1.89428
G1 X136.48 Y97.216 E.01144
G1 X136.708 Y97.402 E.01064
G1 X136.831 Y97.641 E.00969
G1 X136.857 Y97.829 E.00684
G1 X136.857 Y122.172 E.87893
G1 X136.822 Y122.389 E.00794
G1 X136.663 Y122.65 E.01104
G1 X136.448 Y122.789 E.00925
G1 X136.388 Y122.244 F9000
;TYPE:Outer wall
G1 F1800
G1 X136.254 Y122.4 E.00745
G1 X83.829 Y122.4 E1.89285
G1 X83.668 Y122.334 E.00626
M73 P4 R15
G1 X83.6 Y122.171 E.00637
G1 X83.6 Y97.829 E.87893
G1 X83.665 Y97.669 E.00621
G1 X83.829 Y97.6 E.00642
G1 X136.171 Y97.6 E1.88989
G1 X136.332 Y97.666 E.00626
G1 X136.4 Y97.829 E.00637
G1 X136.388 Y122.204 E.88009
G1 E-1.2 F2400
;WIPE_START
G1 F9000
G1 X136.254 Y122.4
G1 X134.491 Y122.4
;WIPE_END
G1 X130.783 Y123.302 Z.4
G1 X120.4 Y125.829 Z.4
G1 Z.2
G1 E1.2 F1800
G1 X120.4 Y132.503 E.24099
G3 X120.249 Y134.134 I-7.227 J.156 E.05927
G1 X120.037 Y134.271 E.00911
G1 X100.319 Y134.271 E.71195
;WIDTH:0.50214
G1 X99.908 Y134.267 E.0149
G1 X99.743 Y134.114 E.00815
;WIDTH:0.499999
G3 X99.6 Y132.503 I7.595 J-1.485 E.0585
G1 X99.6 Y125.829 E.24099
G1 X99.627 Y125.721 E.004
G1 X99.76 Y125.6 E.00649
G1 X120.171 Y125.6 E.73698
G1 X120.329 Y125.663 E.00613
G1 X120.384 Y125.792 E.00506
G1 E-1.2 F2400
;WIPE_START
G1 F9000
G1 X120.389 Y127.792
;WIPE_END
G1 X116.608 Y128.307 Z.4
G1 X73.312 Y134.206 Z.4
G1 Z.2
G1 E1.2 F1800
;WIDTH:0.650996
G1 X73.325 Y133.592 E.02948
G1 X73.312 Y134.206 F9000
;WIDTH:0.62456
G1 F1800
G1 X73.344 Y134.266 E.00312
;WIDTH:0.58073
G1 X73.376 Y134.326 E.00288
;WIDTH:0.5369
G1 X73.408 Y134.386 E.00265
;WIDTH:0.49307
G1 X73.439 Y134.446 E.00241
;WIDTH:0.44924
G1 X73.529 Y134.624 E.00642
;WIDTH:0.417994
G1 X73.619 Y134.803 E.00593
;WIDTH:0.386748
G1 X73.193 Y134.807 E.01157
G1 X73.193 Y134.635 E.00467
;WIDTH:0.434311
G1 X73.217 Y134.549 E.00275
;WIDTH:0.481873
G1 X73.241 Y134.463 E.00309
;WIDTH:0.529436
G1 X73.265 Y134.377 E.00342
;WIDTH:0.576998
G1 X73.288 Y134.292 E.00375
;WIDTH:0.62456
G1 X73.302 Y134.244 E.00225
G1 E-1.2 F2400
;WIPE_START
G1 F9000
G1 X73.344 Y134.266
G1 X73.376 Y134.326
G1 X73.408 Y134.386
G1 X73.439 Y134.446
G1 X73.529 Y134.624
G1 X73.619 Y134.803
G1 X73.193 Y134.807
G1 X73.193 Y134.635
G1 X73.217 Y134.549
G1 X73.241 Y134.463
G1 X73.265 Y134.377
G1 X73.288 Y134.292
G1 X73.302 Y134.244
;WIPE_END
G1 X73.302 Y130.428 Z.4
G1 X73.306 Y85.814 Z.4
G1 Z.2
G1 E1.2 F1800
;WIDTH:0.616428
G1 X73.308 Y86.235 E.01906
G1 X73.574 Y85.316 F9000
;WIDTH:0.474241
G1 F1800
G1 X73.507 Y85.441 E.00482
;WIDTH:0.5202
G1 X73.44 Y85.565 E.00533
;WIDTH:0.566158
G1 X73.373 Y85.69 E.00585
;WIDTH:0.612116
G1 X73.306 Y85.814 E.00636
G1 X73.282 Y85.739 E.00358
;WIDTH:0.564199
G1 X73.258 Y85.663 E.00328
;WIDTH:0.516282
G1 X73.234 Y85.587 E.00298
;WIDTH:0.468364
G1 X73.21 Y85.511 E.00267
;WIDTH:0.420447
G1 X73.186 Y85.435 E.00237
;WIDTH:0.382324
G1 X73.191 Y85.191 E.00654
G1 X73.641 Y85.191 E.01206
;WIDTH:0.428283
G1 X73.593 Y85.281 E.00309
G1 E-1.2 F2400
;WIPE_START
G1 F9000
G1 X73.507 Y85.441
G1 X73.44 Y85.565
G1 X73.373 Y85.69
G1 X73.306 Y85.814
G1 X73.282 Y85.739
G1 X73.258 Y85.663
G1 X73.234 Y85.587
G1 X73.21 Y85.511
G1 X73.186 Y85.435
G1 X73.191 Y85.191
G1 X73.641 Y85.191
G1 X73.593 Y85.281
;WIPE_END
G1 X77.409 Y85.308 Z.4
G1 X146.688 Y85.796 Z.4
M73 P5 R15
G1 Z.2
G1 E1.2 F1800
;WIDTH:0.650996
G1 X146.675 Y86.408 E.02937
;WIDTH:0.65298
G1 X146.674 Y86.421 E.00063
G1 E-1.2 F2400
;WIPE_START
G1 F9000
G1 X146.675 Y86.408
G1 X146.688 Y85.796
;WIPE_END
G1 X146.381 Y85.197 Z.4
G1 Z.2
G1 E1.2 F1800
;WIDTH:0.386749
G1 X146.807 Y85.193 E.01157
G1 X146.807 Y85.365 E.00467
;WIDTH:0.434254
G1 X146.783 Y85.451 E.00276
;WIDTH:0.481758
G1 X146.759 Y85.538 E.0031
;WIDTH:0.529262
G1 X146.735 Y85.624 E.00343
;WIDTH:0.576766
G1 X146.712 Y85.71 E.00377
;WIDTH:0.62427
G1 X146.688 Y85.796 E.00411
G1 X146.656 Y85.736 E.00314
;WIDTH:0.580082
G1 X146.624 Y85.675 E.0029
;WIDTH:0.535894
G1 X146.592 Y85.615 E.00266
;WIDTH:0.491706
G1 X146.56 Y85.555 E.00242
;WIDTH:0.447518
G1 X146.47 Y85.376 E.00639
;WIDTH:0.417134
G1 X146.399 Y85.233 E.00473
G1 E-1.2 F2400
;WIPE_START
G1 F9000
G1 X146.807 Y85.193
G1 X146.807 Y85.365
G1 X146.783 Y85.451
G1 X146.759 Y85.538
G1 X146.735 Y85.624
G1 X146.712 Y85.71
G1 X146.688 Y85.796
G1 X146.656 Y85.736
G1 X146.624 Y85.675
G1 X146.592 Y85.615
G1 X146.56 Y85.555
G1 X146.47 Y85.376
G1 X146.399 Y85.233
;WIPE_END
G1 X146.019 Y89.035 Z.4
G1 Z.2
G1 E1.2 F1800
;TYPE:Bottom surface
;WIDTH:0.500808
G1 F4800
G1 X145.517 Y88.532 E.0257
G3 X144.928 Y88.591 I-.504 J-2.071 E.02147
G1 X145.813 Y89.476 E.04529
G1 X145.813 Y90.124 E.02341
G1 X144.126 Y88.436 E.08631
G1 X143.69 Y88.247 E.01717
G1 X143.164 Y87.843 E.02401
G1 X142.818 Y87.406 E.02013
G3 X142.566 Y86.876 I1.837 J-1.202 E.0213
G1 X141.873 Y86.183 E.03545
G3 X141.241 Y86.199 I-.482 J-6.502 E.02286
G1 X145.813 Y90.771 E.23385
G1 X145.813 Y91.418 E.02341
G1 X140.594 Y86.199 E.26696
G1 X139.946 Y86.199 E.02342
G1 X145.812 Y92.066 E.30007
G1 X145.812 Y92.713 E.02341
G1 X139.299 Y86.199 E.33318
G1 X138.651 Y86.199 E.02342
G1 X145.812 Y93.36 E.3663
G1 X145.812 Y94.008 E.02341
G1 X138.004 Y86.199 E.39941
G1 X137.356 Y86.199 E.02342
G1 X145.812 Y94.655 E.43252
G1 X145.811 Y95.302 E.02341
G1 X136.708 Y86.199 E.46564
G1 X136.061 Y86.199 E.02342
G1 X145.811 Y95.95 E.49875
G1 X145.811 Y96.597 E.02341
G1 X135.413 Y86.199 E.53186
G1 X134.766 Y86.199 E.02342
G1 X145.811 Y97.244 E.56498
G1 X145.811 Y97.892 E.02341
G1 X134.118 Y86.199 E.59809
G1 X133.471 Y86.199 E.02342
G1 X145.81 Y98.539 E.6312
G1 X145.81 Y99.187 E.02341
G1 X132.823 Y86.199 E.66431
G1 X132.176 Y86.199 E.02342
G1 X145.81 Y99.834 E.69743
G1 X145.81 Y100.481 E.02341
G1 X131.528 Y86.199 E.73054
G1 X130.881 Y86.199 E.02342
G1 X145.81 Y101.129 E.76365
G1 X145.809 Y101.776 E.02341
G1 X130.233 Y86.199 E.79677
G1 X129.585 Y86.199 E.02342
G1 X145.809 Y102.423 E.82988
G1 X145.809 Y103.071 E.02341
G1 X128.938 Y86.199 E.86299
G1 X128.29 Y86.199 E.02342
G1 X145.809 Y103.718 E.89611
G1 X145.809 Y104.365 E.02341
G1 X127.643 Y86.199 E.92922
G1 X126.995 Y86.199 E.02342
M73 P6 R15
G1 X145.808 Y105.013 E.96233
G1 X145.808 Y105.66 E.02341
M73 P6 R14
G1 X126.348 Y86.199 E.99544
G1 X125.7 Y86.2 E.02342
G1 X136.317 Y96.817 E.54309
G3 X137.162 Y97.547 I-.176 J1.057 E.04248
G1 X137.18 Y97.68 E.00484
G1 X145.808 Y106.307 E.44133
G1 X145.808 Y106.955 E.02341
G1 X137.2 Y98.347 E.44031
G1 X137.2 Y98.994 E.02342
G1 X145.808 Y107.602 E.4403
G1 X145.807 Y108.249 E.02341
G1 X137.2 Y99.642 E.44029
G1 X137.2 Y100.289 E.02342
G1 X145.807 Y108.897 E.44028
G1 X145.807 Y109.544 E.02341
G1 X137.2 Y100.937 E.44027
G1 X137.2 Y101.585 E.02342
G1 X145.807 Y110.191 E.44026
G1 X145.807 Y110.839 E.02341
G1 X137.2 Y102.232 E.44025
G1 X137.2 Y102.88 E.02342
G1 X145.806 Y111.486 E.44024
G1 X145.806 Y112.134 E.02341
G1 X137.2 Y103.527 E.44023
