;TIME:2736.14
;Filament used:6.03624m
;Layer height:0.200
; HEADER_BLOCK_START
; generated by Creality_Print V7.1.0.4414 on 2026-04-27 at 18:38:58
; total layer number: 57
; filament_density: 1.24
; filament_diameter: 1.75
; max_z_height: 10.60
; creality_uuid: ed248e81-d8f5-4e1c-91d6-abef04023f3f
; HEADER_BLOCK_END

; MINX = 42.00
; MINY = 76.00
; MINZ = 0.00
; MAXX = 178.00
; MAXY = 144.00
; MAXZ = 10.50

; multicolor_method = 0 
; THUMBNAIL_BLOCK_START

;
; THUMBNAIL_BLOCK_END

; THUMBNAIL_BLOCK_START

;
; THUMBNAIL_BLOCK_END

; external perimeters extrusion width = 0.42mm
; perimeters extrusion width = 0.45mm
; infill extrusion width = 0.45mm
; solid infill extrusion width = 0.42mm
; top infill extrusion width = 0.42mm
; support material extrusion width = 0.40mm
; first layer extrusion width = 0.50mm

; EXECUTABLE_BLOCK_START
M73 P0 R45
M201 X5000 Y5000 Z500 E5000
M203 X500 Y500 Z30 E100
M204 P5000 R2500 T5000 ; sets acceleration (P, T) and retract acceleration (R), mm/sec^2
M205 X10.00 Y10.00 Z0.40 E5.00 ; sets the jerk limits, mm/sec
; max_print_temp = 50,190
;TYPE:Custom
M220 S100 ;Reset Feedrate 
M221 S100 ;Reset Flowrate 
 
M140 S50 ;Set final bed temp 
G28 ;Home 
 
G92 E0 ;Reset Extruder 
G1 Z2.0 F3000 ;Move Z Axis up 
M104 S190 ;Set final nozzle temp 
G1 X-2.1 Y20 Z0.28 F5000.0 ;Move to start position 
M190 S50 ;Wait for bed temp to stabilize 
M109 S190 ;Wait for nozzle temp to stabilize 
G1 X-2.1 Y145.0 Z0.28 F1500.0 E15 ;Draw the first line 
G1 X-2.4 Y145.0 Z0.28 F5000.0 ;Move to side a little 
G1 X-2.4 Y20 Z0.28 F1500.0 E30 ;Draw the second line 
G92 E0  ;Reset Extruder 
G1 E-1.0000 F1800 ;Retract a bit 
G1 Z2.0 F3000 ;Move Z Axis up 
G1 E0.0000 F1800
G90
G21
M83 ; use relative distances for extrusion
;filament start gcode
G1 E-1.2 F2400
G1 Z.2 F9000
M106 S0
;LAYER_CHANGE
;:0.2
;HEIGHT:0.2
;BEFORE_LAYER_CHANGE
;0.2
G92 E0
;TIME_ELAPSED:68.797623
;_SET_FAN_SPEED_CHANGING_LAYER
M204 P500
M205 X10 Y10
; OBJECT_ID: 71
; printing object rd_power_shelf_v1.stl id:2765897418240 copy 0
M204 T500
G1 X42.55 Y129.071 Z.4 F9000
G1 Z.2
G1 E1.2 F1800
;TYPE:Support
;WIDTH:0.5
G1 X39.502 Y129.071 E.11006
G1 X39.502 Y90.929 E1.37715
G1 X42.55 Y90.929 E.11006
G1 X42.55 Y129.002 E1.37467
G1 X40.194 Y91.34 F9000
G1 F1800
G1 X39.913 Y91.34 E.01014
G1 X39.913 Y128.66 E1.34744
G1 X40.422 Y128.66 E.01839
G1 X40.422 Y91.34 E1.34744
G1 X40.93 Y91.34 E.01834
G1 X40.93 Y128.66 E1.34744
G1 X41.438 Y128.66 E.01834
G1 X41.438 Y91.34 E1.34744
G1 X42.139 Y91.34 E.02529
G1 X42.139 Y128.66 E1.34744
G1 X41.667 Y128.66 E.01704
G1 E-1.2 F2400
;WIPE_START
G1 F9000
G1 X42.139 Y128.66
G1 X42.139 Y127.132
;WIPE_END
G1 X45.928 Y127.583 Z.4
G1 X176.643 Y143.143 Z.4
G1 Z.2
G1 E1.2 F1800
;TYPE:Inner wall
;WIDTH:0.499999
G1 X43.857 Y143.143 E4.79436
G1 X43.857 Y76.857 E2.39331
M73 P1 R45
G1 X177.143 Y76.857 E4.81241
G1 X177.143 Y143.143 E2.39331
G1 X176.683 Y143.143 E.01661
M73 P1 R44
G1 E-1.2 F2400
;WIPE_START
G1 F9000
G1 X174.683 Y143.143
;WIPE_END
G1 X177.6 Y143.6 Z.4
G1 Z.2
G1 E1.2 F1800
;TYPE:Outer wall
G1 X43.4 Y143.6 E4.84542
G1 X43.4 Y76.4 E2.42632
G1 X177.6 Y76.4 E4.84542
G1 X177.6 Y143.56 E2.42488
G1 E-1.2 F2400
;WIPE_START
G1 F9000
G1 X175.6 Y143.561
;WIPE_END
G1 X173.165 Y140.622 Z.4
G1 X164.248 Y129.857 Z.4
G1 Z.2
G1 E1.2 F1800
;TYPE:Inner wall
G1 X72.329 Y129.857 E3.31884
G1 X72.04 Y129.793 E.01069
G1 X71.821 Y129.633 E.00977
G1 X71.679 Y129.39 E.01016
G1 X71.643 Y129.171 E.00801
G1 X71.643 Y98.829 E1.09556
G1 X71.706 Y98.542 E.0106
M73 P2 R44
G1 X71.896 Y98.297 E.01119
G1 X72.216 Y98.143 E.01283
G1 X164.671 Y98.143 E3.33819
G1 X164.984 Y98.218 E.01161
G1 X165.194 Y98.385 E.0097
G1 X165.357 Y98.703 E.01288
G1 X165.357 Y129.171 E1.1001
G1 X165.312 Y129.416 E.00899
G1 X165.142 Y129.67 E.01101
G1 X164.898 Y129.819 E.01032
G1 X164.671 Y129.857 E.0083
G1 X164.288 Y129.857 E.01384
G1 X164.671 Y129.4 F9000
;TYPE:Outer wall
G1 F1800
G1 X72.329 Y129.4 E3.33413
G1 X72.175 Y129.341 E.00595
G1 X72.1 Y129.185 E.00624
G1 X72.1 Y98.829 E1.09604
G1 X72.164 Y98.67 E.00616
G1 X72.329 Y98.6 E.00648
G1 X164.671 Y98.6 E3.33413
G1 X164.829 Y98.663 E.00614
G1 X164.9 Y98.829 E.00649
G1 X164.9 Y129.171 E1.09556
G1 X164.828 Y129.338 E.00653
G1 X164.709 Y129.385 E.00465
G1 E-1.2 F2400
;WIPE_START
G1 F9000
G1 X162.709 Y129.386
;WIPE_END
G1 X176.082 Y76.994 Z.4
G1 Z.2
G1 E1.2 F1800
;TYPE:Bottom surface
;WIDTH:0.500047
G1 F4800
G1 X176.8 Y77.713 E.03669
G1 X176.8 Y78.359 E.02334
G1 X175.641 Y77.2 E.0592
G1 X174.994 Y77.2 E.02334
G1 X176.8 Y79.006 E.09221
G1 X176.8 Y79.652 E.02334
G1 X174.348 Y77.2 E.12522
G1 X173.702 Y77.2 E.02334
G1 X176.8 Y80.298 E.15824
G1 X176.8 Y80.945 E.02334
G1 X173.055 Y77.2 E.19125
G1 X172.409 Y77.2 E.02334
G1 X176.8 Y81.591 E.22426
G1 X176.8 Y82.238 E.02334
G1 X171.762 Y77.2 E.25728
G1 X171.116 Y77.2 E.02334
G1 X176.8 Y82.884 E.29029
G1 X176.8 Y83.531 E.02334
G1 X170.469 Y77.2 E.3233
G1 X169.823 Y77.2 E.02334
G1 X176.8 Y84.177 E.35632
G1 X176.8 Y84.824 E.02334
G1 X169.176 Y77.2 E.38933
G1 X168.53 Y77.2 E.02334
G1 X176.8 Y85.47 E.42234
G1 X176.8 Y86.117 E.02334
G1 X167.883 Y77.2 E.45536
G1 X167.237 Y77.2 E.02334
G1 X176.8 Y86.763 E.48837
G1 X176.8 Y87.41 E.02334
G1 X166.59 Y77.2 E.52138
G1 X165.944 Y77.2 E.02334
G1 X176.8 Y88.056 E.5544
G1 X176.8 Y88.703 E.02334
G1 X165.297 Y77.2 E.58741
G1 X164.651 Y77.2 E.02334
G1 X176.8 Y89.349 E.62042
G1 X176.8 Y89.996 E.02334
G1 X164.004 Y77.2 E.65344
G1 X163.358 Y77.2 E.02334
G1 X176.8 Y90.642 E.68645
G1 X176.8 Y91.289 E.02334
G1 X162.711 Y77.2 E.71947
G1 X162.065 Y77.2 E.02334
G1 X176.8 Y91.935 E.75248
G1 X176.8 Y92.582 E.02334
G1 X161.418 Y77.2 E.78549
G1 X160.772 Y77.2 E.02334
G1 X176.8 Y93.228 E.81851
G1 X176.8 Y93.874 E.02334
G1 X160.126 Y77.2 E.85152
G1 X159.479 Y77.2 E.02334
G1 X176.8 Y94.521 E.88453
G1 X176.8 Y95.167 E.02334
G1 X158.833 Y77.2 E.91755
G1 X158.186 Y77.2 E.02334
G1 X176.8 Y95.814 E.95056
G1 X176.8 Y96.46 E.02334
G1 X157.54 Y77.2 E.98357
G1 X156.893 Y77.2 E.02334
G1 X176.8 Y97.107 E1.01659
G1 X176.8 Y97.753 E.02334
G1 X156.247 Y77.2 E1.0496
G1 X155.6 Y77.2 E.02334
G1 X176.8 Y98.4 E1.08261
G1 X176.8 Y99.046 E.02334
G1 X154.954 Y77.2 E1.11563
G1 X154.307 Y77.2 E.02334
G1 X176.8 Y99.693 E1.14864
G1 X176.8 Y100.339 E.02334
G1 X153.661 Y77.2 E1.18165
G1 X153.014 Y77.2 E.02334
G1 X176.8 Y100.986 E1.21467
G1 X176.8 Y101.632 E.02334
M73 P3 R44
G1 X152.368 Y77.2 E1.24768
G1 X151.721 Y77.2 E.02334
G1 X176.8 Y102.279 E1.28069
G1 X176.8 Y102.925 E.02334
G1 X151.075 Y77.2 E1.31371
G1 X150.428 Y77.2 E.02334
G1 X176.8 Y103.572 E1.34672
G1 X176.8 Y104.218 E.02334
G1 X149.782 Y77.2 E1.37974
G1 X149.135 Y77.2 E.02334
G1 X176.8 Y104.865 E1.41275
G1 X176.8 Y105.511 E.02334
G1 X148.489 Y77.2 E1.44576
G1 X147.843 Y77.2 E.02334
G1 X176.8 Y106.157 E1.47878
G1 X176.8 Y106.804 E.02334
G1 X147.196 Y77.2 E1.51179
G1 X146.55 Y77.2 E.02334
G1 X176.8 Y107.45 E1.5448
G1 X176.8 Y108.097 E.02334
G1 X145.903 Y77.2 E1.57782
G1 X145.257 Y77.2 E.02334
G1 X176.8 Y108.743 E1.61083
G1 X176.8 Y109.39 E.02334
G1 X144.61 Y77.2 E1.64384
G1 X143.964 Y77.2 E.02334
G1 X164.564 Y97.8 E1.05199
G3 X165.524 Y98.251 I.082 J1.072 E.04004
G3 X165.7 Y98.936 I-1.021 J.628 E.02593
G1 X176.8 Y110.036 E.56686
G1 X176.8 Y110.683 E.02334
G1 X165.7 Y99.583 E.56686
G1 X165.7 Y100.229 E.02334
G1 X176.8 Y111.329 E.56686
G1 X176.8 Y111.976 E.02334
G1 X165.7 Y100.876 E.56686
G1 X165.7 Y101.522 E.02334
G1 X176.8 Y112.622 E.56686
G1 X176.8 Y113.269 E.02334
G1 X165.7 Y102.168 E.56686
G1 X165.7 Y102.815 E.02334
G1 X176.8 Y113.915 E.56686
G1 X176.8 Y114.562 E.02334
G1 X165.7 Y103.461 E.56686
G1 X165.7 Y104.108 E.02334
G1 X176.8 Y115.208 E.56686
G1 X176.8 Y115.855 E.02334
G1 X165.7 Y104.754 E.56686
G1 X165.7 Y105.401 E.02334
G1 X176.8 Y116.501 E.56686
G1 X176.8 Y117.148 E.02334
G1 X165.7 Y106.047 E.56686
G1 X165.7 Y106.694 E.02334
G1 X176.8 Y117.794 E.56686
G1 X176.8 Y118.441 E.02334
G1 X165.7 Y107.34 E.56686
G1 X165.7 Y107.987 E.02334
G1 X176.8 Y119.087 E.56686
G1 X176.8 Y119.733 E.02334
M73 P3 R43
G1 X165.7 Y108.633 E.56686
G1 X165.7 Y109.28 E.02334
G1 X176.8 Y120.38 E.56686
G1 X176.8 Y121.026 E.02334
G1 X165.7 Y109.926 E.56686
G1 X165.7 Y110.573 E.02334
G1 X176.8 Y121.673 E.56686
G1 X176.8 Y122.319 E.02334
G1 X165.7 Y111.219 E.56686
G1 X165.7 Y111.866 E.02334
G1 X176.8 Y122.966 E.56686
G1 X176.8 Y123.612 E.02334
G1 X165.7 Y112.512 E.56686
G1 X165.7 Y113.159 E.02334
G1 X176.8 Y124.259 E.56686
G1 X176.8 Y124.905 E.02334
G1 X165.7 Y113.805 E.56686
G1 X165.7 Y114.452 E.02334
G1 X176.8 Y125.552 E.56686
G1 X176.8 Y126.198 E.02334
G1 X165.7 Y115.098 E.56686
G1 X165.7 Y115.744 E.02334
G1 X176.8 Y126.845 E.56686
G1 X176.8 Y127.491 E.02334
G1 X165.7 Y116.391 E.56686
G1 X165.7 Y117.037 E.02334
G1 X176.8 Y128.138 E.56686
G1 X176.8 Y128.784 E.02334
G1 X165.7 Y117.684 E.56686
G1 X165.7 Y118.33 E.02334
G1 X176.8 Y129.431 E.56686
G1 X176.8 Y130.077 E.02334
G1 X165.7 Y118.977 E.56686
G1 X165.7 Y119.623 E.02334
G1 X176.8 Y130.724 E.56686
G1 X176.8 Y131.37 E.02334
G1 X165.7 Y120.27 E.56686
G1 X165.7 Y120.916 E.02334
G1 X176.8 Y132.016 E.56686
G1 X176.8 Y132.663 E.02334
G1 X165.7 Y121.563 E.56686
G1 X165.7 Y122.209 E.02334
G1 X176.8 Y133.309 E.56686
G1 X176.8 Y133.956 E.02334
G1 X165.7 Y122.856 E.56686
G1 X165.7 Y123.502 E.02334
G1 X176.8 Y134.602 E.56686
G1 X176.8 Y135.249 E.02334
G1 X165.7 Y124.149 E.56686
G1 X165.7 Y124.795 E.02334
G1 X176.8 Y135.895 E.56686
G1 X176.8 Y136.542 E.02334
G1 X165.7 Y125.442 E.56686
G1 X165.7 Y126.088 E.02334
G1 X176.8 Y137.188 E.56686
G1 X176.8 Y137.835 E.02334
G1 X165.7 Y126.735 E.56686
G1 X165.7 Y127.381 E.02334
G1 X176.8 Y138.481 E.56686
G1 X176.8 Y139.128 E.02334
G1 X165.7 Y128.027 E.56686
G1 X165.7 Y128.674 E.02334
G1 X176.8 Y139.774 E.56686
G1 X176.8 Y140.421 E.02334
G1 X165.688 Y129.309 E.56744
G3 X165.502 Y129.769 I-.857 J-.079 E.01818
G1 X176.8 Y141.067 E.57696
G1 X176.8 Y141.714 E.02334
G1 X165.157 Y130.071 E.59457
G3 X164.64 Y130.2 I-.543 J-1.075 E.01941
G1 X176.8 Y142.36 E.62098
G1 X176.8 Y142.8 E.01589
G1 X176.594 Y142.8 E.00746
G1 X163.993 Y130.2 E.64346
M73 P4 R43
G1 X163.347 Y130.2 E.02334
G1 X175.947 Y142.8 E.64346
G1 X175.301 Y142.8 E.02334
G1 X162.7 Y130.2 E.64346
G1 X162.054 Y130.2 E.02334
G1 X174.654 Y142.8 E.64346
G1 X174.008 Y142.8 E.02334
G1 X161.408 Y130.2 E.64346
G1 X160.761 Y130.2 E.02334
G1 X173.361 Y142.8 E.64346
G1 X172.715 Y142.8 E.02334
G1 X160.115 Y130.2 E.64346
G1 X159.468 Y130.2 E.02334
G1 X172.068 Y142.8 E.64346
G1 X171.422 Y142.8 E.02334
G1 X158.822 Y130.2 E.64346
G1 X158.175 Y130.2 E.02334
G1 X170.775 Y142.8 E.64346
G1 X170.129 Y142.8 E.02334
G1 X157.529 Y130.2 E.64346
G1 X156.882 Y130.2 E.02334
G1 X169.482 Y142.8 E.64346
G1 X168.836 Y142.8 E.02334
G1 X156.236 Y130.2 E.64346
G1 X155.589 Y130.2 E.02334
G1 X168.189 Y142.8 E.64346
G1 X167.543 Y142.8 E.02334
G1 X154.943 Y130.2 E.64346
G1 X154.296 Y130.2 E.02334
G1 X166.897 Y142.8 E.64346
G1 X166.25 Y142.8 E.02334
G1 X153.65 Y130.2 E.64346
G1 X153.003 Y130.2 E.02334
G1 X165.604 Y142.8 E.64346
G1 X164.957 Y142.8 E.02334
G1 X152.357 Y130.2 E.64346
G1 X151.71 Y130.2 E.02334
G1 X164.311 Y142.8 E.64346
G1 X163.664 Y142.8 E.02334
G1 X151.064 Y130.2 E.64346
G1 X150.417 Y130.2 E.02334
G1 X163.018 Y142.8 E.64346
G1 X162.371 Y142.8 E.02334
G1 X149.771 Y130.2 E.64346
G1 X149.124 Y130.2 E.02334
G1 X161.725 Y142.8 E.64346
G1 X161.078 Y142.8 E.02334
G1 X148.478 Y130.2 E.64346
G1 X147.832 Y130.2 E.02334
G1 X160.432 Y142.8 E.64346
G1 X159.785 Y142.8 E.02334
G1 X147.185 Y130.2 E.64346
G1 X146.539 Y130.2 E.02334
G1 X159.139 Y142.8 E.64346
G1 X158.492 Y142.8 E.02334
G1 X145.892 Y130.2 E.64346
G1 X145.246 Y130.2 E.02334
G1 X157.846 Y142.8 E.64346
G1 X157.199 Y142.8 E.02334
G1 X144.599 Y130.2 E.64346
G1 X143.953 Y130.2 E.02334
G1 X156.553 Y142.8 E.64346
G1 X155.906 Y142.8 E.02334
G1 X143.306 Y130.2 E.64346
G1 X142.66 Y130.2 E.02334
G1 X155.26 Y142.8 E.64346
G1 X154.614 Y142.8 E.02334
G1 X142.013 Y130.2 E.64346
G1 X141.367 Y130.2 E.02334
G1 X153.967 Y142.8 E.64346
G1 X153.321 Y142.8 E.02334
G1 X140.72 Y130.2 E.64346
G1 X140.074 Y130.2 E.02334
G1 X152.674 Y142.8 E.64346
G1 X152.028 Y142.8 E.02334
G1 X139.427 Y130.2 E.64346
G1 X138.781 Y130.2 E.02334
G1 X151.381 Y142.8 E.64346
G1 X150.735 Y142.8 E.02334
G1 X138.134 Y130.2 E.64346
G1 X137.488 Y130.2 E.02334
G1 X150.088 Y142.8 E.64346
G1 X149.442 Y142.8 E.02334
G1 X136.841 Y130.2 E.64346
G1 X136.195 Y130.2 E.02334
G1 X148.795 Y142.8 E.64346
G1 X148.149 Y142.8 E.02334
G1 X135.549 Y130.2 E.64346
G1 X134.902 Y130.2 E.02334
G1 X147.502 Y142.8 E.64346
G1 X146.856 Y142.8 E.02334
G1 X134.256 Y130.2 E.64346
G1 X133.609 Y130.2 E.02334
G1 X146.209 Y142.8 E.64346
G1 X145.563 Y142.8 E.02334
G1 X132.963 Y130.2 E.64346
G1 X132.316 Y130.2 E.02334
G1 X144.916 Y142.8 E.64346
G1 X144.27 Y142.8 E.02334
G1 X131.67 Y130.2 E.64346
G1 X131.023 Y130.2 E.02334
G1 X143.623 Y142.8 E.64346
G1 X142.977 Y142.8 E.02334
G1 X130.377 Y130.2 E.64346
G1 X129.73 Y130.2 E.02334
G1 X142.33 Y142.8 E.64346
G1 X141.684 Y142.8 E.02334
G1 X129.084 Y130.2 E.64346
G1 X128.437 Y130.2 E.02334
G1 X141.038 Y142.8 E.64346
G1 X140.391 Y142.8 E.02334
G1 X127.791 Y130.2 E.64346
G1 X127.144 Y130.2 E.02334
G1 X139.745 Y142.8 E.64346
G1 X139.098 Y142.8 E.02334
G1 X126.498 Y130.2 E.64346
G1 X125.851 Y130.2 E.02334
G1 X138.452 Y142.8 E.64346
G1 X137.805 Y142.8 E.02334
G1 X125.205 Y130.2 E.64346
G1 X124.558 Y130.2 E.02334
G1 X137.159 Y142.8 E.64346
G1 X136.512 Y142.8 E.02334
G1 X123.912 Y130.2 E.64346
G1 X123.265 Y130.2 E.02334
G1 X135.866 Y142.8 E.64346
G1 X135.219 Y142.8 E.02334
G1 X122.619 Y130.2 E.64346
G1 X121.973 Y130.2 E.02334
G1 X134.573 Y142.8 E.64346
G1 X133.926 Y142.8 E.02334
G1 X121.326 Y130.2 E.64346
G1 X120.68 Y130.2 E.02334
G1 X133.28 Y142.8 E.64346
G1 X132.633 Y142.8 E.02334
G1 X120.033 Y130.2 E.64346
G1 X119.387 Y130.2 E.02334
G1 X131.987 Y142.8 E.64346
G1 X131.34 Y142.8 E.02334
G1 X118.74 Y130.2 E.64346
G1 X118.094 Y130.2 E.02334
G1 X130.694 Y142.8 E.64346
G1 X130.047 Y142.8 E.02334
G1 X117.447 Y130.2 E.64346
G1 X116.801 Y130.2 E.02334
M73 P5 R43
G1 X129.401 Y142.8 E.64346
G1 X128.755 Y142.8 E.02334
G1 X116.154 Y130.2 E.64346
G1 X115.508 Y130.2 E.02334
G1 X128.108 Y142.8 E.64346
G1 X127.462 Y142.8 E.02334
G1 X114.861 Y130.2 E.64346
G1 X114.215 Y130.2 E.02334
G1 X126.815 Y142.8 E.64346
G1 X126.169 Y142.8 E.02334
G1 X113.568 Y130.2 E.64346
G1 X112.922 Y130.2 E.02334
G1 X125.522 Y142.8 E.64346
G1 X124.876 Y142.8 E.02334
G1 X112.275 Y130.2 E.64346
G1 X111.629 Y130.2 E.02334
G1 X124.229 Y142.8 E.64346
G1 X123.583 Y142.8 E.02334
G1 X110.982 Y130.2 E.64346
G1 X110.336 Y130.2 E.02334
G1 X122.936 Y142.8 E.64346
G1 X122.29 Y142.8 E.02334
G1 X109.69 Y130.2 E.64346
G1 X109.043 Y130.2 E.02334
G1 X121.643 Y142.8 E.64346
G1 X120.997 Y142.8 E.02334
G1 X108.397 Y130.2 E.64346
G1 X107.75 Y130.2 E.02334
G1 X120.35 Y142.8 E.64346
G1 X119.704 Y142.8 E.02334
G1 X107.104 Y130.2 E.64346
G1 X106.457 Y130.2 E.02334
G1 X119.057 Y142.8 E.64346
G1 X118.411 Y142.8 E.02334
G1 X105.811 Y130.2 E.64346
G1 X105.164 Y130.2 E.02334
G1 X117.764 Y142.8 E.64346
G1 X117.118 Y142.8 E.02334
G1 X104.518 Y130.2 E.64346
G1 X103.871 Y130.2 E.02334
G1 X116.471 Y142.8 E.64346
G1 X115.825 Y142.8 E.02334
G1 X103.225 Y130.2 E.64346
G1 X102.578 Y130.2 E.02334
G1 X115.179 Y142.8 E.64346
G1 X114.532 Y142.8 E.02334
G1 X101.932 Y130.2 E.64346
G1 X101.285 Y130.2 E.02334
G1 X113.886 Y142.8 E.64346
G1 X113.239 Y142.8 E.02334
G1 X100.639 Y130.2 E.64346
G1 X99.992 Y130.2 E.02334
G1 X112.593 Y142.8 E.64346
G1 X111.946 Y142.8 E.02334
G1 X99.346 Y130.2 E.64346
G1 X98.699 Y130.2 E.02334
G1 X111.3 Y142.8 E.64346
G1 X110.653 Y142.8 E.02334
G1 X98.053 Y130.2 E.64346
G1 X97.406 Y130.2 E.02334
G1 X110.007 Y142.8 E.64346
G1 X109.36 Y142.8 E.02334
G1 X96.76 Y130.2 E.64346
G1 X96.114 Y130.2 E.02334
G1 X108.714 Y142.8 E.64346
G1 X108.067 Y142.8 E.02334
G1 X95.467 Y130.2 E.64346
G1 X94.821 Y130.2 E.02334
G1 X107.421 Y142.8 E.64346
G1 X106.774 Y142.8 E.02334
G1 X94.174 Y130.2 E.64346
G1 X93.528 Y130.2 E.02334
G1 X106.128 Y142.8 E.64346
G1 X105.481 Y142.8 E.02334
G1 X92.881 Y130.2 E.64346
G1 X92.235 Y130.2 E.02334
G1 X104.835 Y142.8 E.64346
G1 X104.188 Y142.8 E.02334
G1 X91.588 Y130.2 E.64346
G1 X90.942 Y130.2 E.02334
