;TIME:2304.72
;Filament used:4.99431m
;Layer height:0.200
; HEADER_BLOCK_START
; generated by Creality_Print V7.1.0.4414 on 2026-04-27 at 18:40:09
; total layer number: 42
; filament_density: 1.24
; filament_diameter: 1.75
; max_z_height: 8.40
; creality_uuid: 309f0964-7cd5-443c-b3c3-82ea3f8a8630
; HEADER_BLOCK_END

; MINX = 42.50
; MINY = 76.00
; MINZ = 0.00
; MAXX = 177.50
; MAXY = 144.00
; MAXZ = 8.50

; multicolor_method = 0 
; THUMBNAIL_BLOCK_START

;
; THUMBNAIL_BLOCK_END

; THUMBNAIL_BLOCK_START

;
; THUMBNAIL_BLOCK_END

; external perimeters extrusion width = 0.42mm
; perimeters extrusion width = 0.45mm
; infill extrusion width = 0.45mm
; solid infill extrusion width = 0.42mm
; top infill extrusion width = 0.42mm
; support material extrusion width = 0.40mm
; first layer extrusion width = 0.50mm

; EXECUTABLE_BLOCK_START
M73 P0 R38
M201 X5000 Y5000 Z500 E5000
M203 X500 Y500 Z30 E100
M204 P5000 R2500 T5000 ; sets acceleration (P, T) and retract acceleration (R), mm/sec^2
M205 X10.00 Y10.00 Z0.40 E5.00 ; sets the jerk limits, mm/sec
; max_print_temp = 50,190
;TYPE:Custom
M220 S100 ;Reset Feedrate 
M221 S100 ;Reset Flowrate 
 
M140 S50 ;Set final bed temp 
G28 ;Home 
 
G92 E0 ;Reset Extruder 
G1 Z2.0 F3000 ;Move Z Axis up 
M104 S190 ;Set final nozzle temp 
G1 X-2.1 Y20 Z0.28 F5000.0 ;Move to start position 
M190 S50 ;Wait for bed temp to stabilize 
M109 S190 ;Wait for nozzle temp to stabilize 
G1 X-2.1 Y145.0 Z0.28 F1500.0 E15 ;Draw the first line 
G1 X-2.4 Y145.0 Z0.28 F5000.0 ;Move to side a little 
G1 X-2.4 Y20 Z0.28 F1500.0 E30 ;Draw the second line 
G92 E0  ;Reset Extruder 
G1 E-1.0000 F1800 ;Retract a bit 
G1 Z2.0 F3000 ;Move Z Axis up 
G1 E0.0000 F1800
G90
G21
M83 ; use relative distances for extrusion
;filament start gcode
G1 E-1.2 F2400
G1 Z.2 F9000
M106 S0
;LAYER_CHANGE
;:0.2
;HEIGHT:0.2
;BEFORE_LAYER_CHANGE
;0.2
G92 E0
;TIME_ELAPSED:60.776077
;_SET_FAN_SPEED_CHANGING_LAYER
M204 P500
M205 X10 Y10
; OBJECT_ID: 71
; printing object rd_rpi_support_v1.stl id:2314861394662531104 copy 0
M204 T500
G1 X94.143 Y132.647 Z.4 F9000
G1 Z.2
G1 E1.2 F1800
;TYPE:Inner wall
;WIDTH:0.499999
G1 X94.143 Y143.143 E.37895
G1 X43.357 Y143.143 E1.83367
G1 X43.357 Y76.857 E2.39331
G1 X176.643 Y76.857 E4.81241
G1 X176.643 Y143.143 E2.39331
G1 X125.857 Y143.143 E1.83367
M73 P1 R38
G1 X125.857 Y131.829 E.40852
G1 X125.82 Y131.606 E.00814
M73 P1 R37
G1 X125.668 Y131.356 E.01058
G1 X125.363 Y131.17 E.01287
G1 X125.171 Y131.143 E.007
G1 X94.829 Y131.143 E1.09556
G1 X94.637 Y131.17 E.007
G1 X94.332 Y131.356 E.01287
G1 X94.18 Y131.606 E.01058
G1 X94.143 Y131.829 E.00814
G1 X94.143 Y132.607 E.02812
G1 X94.6 Y131.829 F9000
;TYPE:Outer wall
G1 F1800
G1 X94.6 Y143.6 E.42502
G1 X42.9 Y143.6 E1.86668
G1 X42.9 Y76.4 E2.42632
G1 X177.1 Y76.4 E4.84542
G1 X177.1 Y143.6 E2.42632
G1 X125.4 Y143.6 E1.86668
G1 X125.4 Y131.829 E.42502
G1 X125.337 Y131.671 E.00613
G1 X125.171 Y131.6 E.0065
G1 X94.829 Y131.6 E1.09556
G1 X94.663 Y131.671 E.0065
G1 X94.615 Y131.791 E.00468
G1 E-1.2 F2400
;WIPE_START
G1 F9000
G1 X94.612 Y133.791
;WIPE_END
G1 X98.426 Y133.663 Z.4
G1 X138.885 Y132.307 Z.4
G1 Z.2
G1 E1.2 F1800
;TYPE:Inner wall
G1 X139 Y132.293 E.00419
G1 X139.656 Y132.397 E.02399
G1 X140.178 Y132.638 E.02077
G1 X140.62 Y133.007 E.02077
G1 X140.951 Y133.477 E.02077
G1 X141.15 Y134.017 E.02077
G1 X141.206 Y134.539 E.01897
G1 X141.133 Y135.067 E.01925
G1 X140.913 Y135.601 E.02085
G1 X140.563 Y136.059 E.02084
G1 X140.023 Y136.451 E.02408
G1 X139.512 Y136.645 E.01973
G1 X139 Y136.707 E.01863
G1 X138.344 Y136.603 E.02399
G1 X137.822 Y136.362 E.02077
G1 X137.38 Y135.993 E.02077
G1 X137.049 Y135.523 E.02077
G1 X136.855 Y135.012 E.01973
G1 X136.793 Y134.5 E.01863
G1 X136.868 Y133.927 E.02088
G1 X137.087 Y133.399 E.02061
G1 X137.507 Y132.88 E.02411
G1 X137.977 Y132.549 E.02077
G1 X138.488 Y132.355 E.01973
G1 X138.845 Y132.311 E.013
G1 X138.552 Y132.813 F9000
;TYPE:Outer wall
G1 F1800
G1 X138.576 Y132.803 E.00093
G1 X139.03 Y132.752 E.01648
G1 X139.481 Y132.819 E.01648
G1 X139.9 Y133.001 E.01648
G1 X140.257 Y133.285 E.01648
G1 X140.529 Y133.652 E.01648
G1 X140.697 Y134.076 E.01648
G1 X140.748 Y134.53 E.01648
G1 X140.681 Y134.981 E.01648
G1 X140.516 Y135.374 E.01538
G1 X140.215 Y135.757 E.0176
G1 X139.848 Y136.029 E.01648
G1 X139.424 Y136.197 E.01648
G1 X138.97 Y136.248 E.01648
G1 X138.519 Y136.181 E.01648
G1 X138.1 Y135.999 E.01648
G1 X137.743 Y135.715 E.01648
G1 X137.471 Y135.348 E.01648
G1 X137.303 Y134.924 E.01648
G1 X137.252 Y134.47 E.01648
G1 X137.319 Y134.019 E.01648
G1 X137.501 Y133.6 E.01648
G1 X137.785 Y133.243 E.01648
G1 X138.152 Y132.971 E.01648
G1 X138.515 Y132.828 E.01411
G1 E-1.2 F2400
;WIPE_START
G1 F9000
G1 X138.576 Y132.803
G1 X139.03 Y132.752
G1 X139.481 Y132.819
G1 X139.9 Y133.001
G1 X140.257 Y133.285
G1 X140.322 Y133.372
;WIPE_END
G1 X140.221 Y129.557 Z.4
G1 X139.002 Y83.307 Z.4
G1 Z.2
G1 E1.2 F1800
;TYPE:Inner wall
G1 X139.483 Y83.35 E.01744
G1 X140.023 Y83.549 E.02077
G1 X140.493 Y83.88 E.02077
G1 X140.862 Y84.322 E.02077
G1 X141.103 Y84.844 E.02077
G1 X141.202 Y85.411 E.02077
G1 X141.15 Y85.983 E.02077
G1 X140.951 Y86.523 E.02077
G1 X140.62 Y86.993 E.02077
G1 X140.178 Y87.362 E.02077
G1 X139.656 Y87.603 E.02077
G1 X139.089 Y87.702 E.02077
G1 X138.517 Y87.65 E.02077
G1 X137.977 Y87.451 E.02077
G1 X137.507 Y87.12 E.02077
G1 X137.138 Y86.678 E.02077
G1 X136.897 Y86.156 E.02077
G1 X136.798 Y85.589 E.02077
G1 X136.85 Y85.017 E.02077
G1 X137.049 Y84.477 E.02077
G1 X137.38 Y84.007 E.02077
G1 X137.822 Y83.638 E.02077
G1 X138.344 Y83.397 E.02077
G1 X138.911 Y83.298 E.02077
G1 X138.962 Y83.303 E.00188
G1 X138.551 Y83.813 F9000
;TYPE:Outer wall
G1 F1800
G1 X138.576 Y83.803 E.00098
G1 X139.03 Y83.752 E.01648
G1 X139.481 Y83.819 E.01648
G1 X139.9 Y84.001 E.01648
G1 X140.257 Y84.285 E.01648
G1 X140.529 Y84.652 E.01648
G1 X140.697 Y85.076 E.01648
G1 X140.737 Y85.616 E.01955
G1 X140.681 Y85.981 E.01333
G1 X140.499 Y86.4 E.01648
G1 X140.215 Y86.757 E.01648
G1 X139.848 Y87.029 E.01648
G1 X139.424 Y87.197 E.01648
G1 X138.97 Y87.248 E.01648
G1 X138.519 Y87.181 E.01648
G1 X138.1 Y86.999 E.01648
G1 X137.743 Y86.715 E.01648
G1 X137.489 Y86.383 E.0151
G1 X137.303 Y85.924 E.01788
G1 X137.252 Y85.47 E.01648
G1 X137.319 Y85.019 E.01648
G1 X137.501 Y84.6 E.01648
G1 X137.785 Y84.243 E.01648
G1 X138.152 Y83.971 E.01648
G1 X138.514 Y83.828 E.01406
G1 E-1.2 F2400
;WIPE_START
G1 F9000
G1 X138.576 Y83.803
G1 X139.03 Y83.752
G1 X139.481 Y83.819
G1 X139.9 Y84.001
G1 X140.257 Y84.285
G1 X140.321 Y84.371
;WIPE_END
G1 X136.505 Y84.436 Z.4
G1 X78.814 Y85.417 Z.4
G1 Z.2
G1 E1.2 F1800
;TYPE:Inner wall
G1 X78.85 Y85.017 E.0145
G1 X79.049 Y84.477 E.02077
G1 X79.38 Y84.007 E.02077
G1 X79.822 Y83.638 E.02077
G1 X80.488 Y83.355 E.02613
G1 X81 Y83.293 E.01863
G1 X81.656 Y83.397 E.02399
G1 X82.178 Y83.638 E.02077
G1 X82.62 Y84.007 E.02077
G1 X82.951 Y84.477 E.02077
G1 X83.15 Y85.017 E.02077
G1 X83.207 Y85.535 E.01883
G1 X83.14 Y86.038 E.01833
G1 X82.951 Y86.523 E.01879
G1 X82.62 Y86.993 E.02077
G1 X82.178 Y87.362 E.02077
G1 X81.656 Y87.603 E.02077
G1 X81.089 Y87.702 E.02077
G1 X80.517 Y87.65 E.02077
G1 X79.977 Y87.451 E.02077
G1 X79.507 Y87.12 E.02077
M73 P2 R37
G1 X79.138 Y86.678 E.02077
G1 X78.897 Y86.156 E.02077
G1 X78.798 Y85.589 E.02077
G1 X78.81 Y85.456 E.00482
G1 X79.292 Y85.827 F9000
;TYPE:Outer wall
G1 F1800
G1 X79.252 Y85.47 E.01295
G1 X79.319 Y85.019 E.01648
G1 X79.501 Y84.6 E.01648
G1 X79.785 Y84.243 E.01648
G1 X80.152 Y83.971 E.01648
G1 X80.576 Y83.803 E.01648
G1 X81.03 Y83.752 E.01648
G1 X81.481 Y83.819 E.01648
G1 X81.9 Y84.001 E.01648
G1 X82.257 Y84.285 E.01648
G1 X82.529 Y84.652 E.01648
G1 X82.697 Y85.076 E.01648
G1 X82.737 Y85.616 E.01955
G1 X82.681 Y85.981 E.01333
G1 X82.499 Y86.4 E.01648
G1 X82.215 Y86.757 E.01648
G1 X81.848 Y87.029 E.01648
G1 X81.424 Y87.197 E.01648
G1 X80.97 Y87.248 E.01648
G1 X80.519 Y87.181 E.01648
G1 X80.1 Y86.999 E.01648
G1 X79.743 Y86.715 E.01648
G1 X79.471 Y86.348 E.01648
G1 X79.303 Y85.924 E.01648
G1 X79.297 Y85.866 E.00209
G1 E-1.2 F2400
;WIPE_START
G1 F9000
G1 X79.252 Y85.47
G1 X79.319 Y85.019
G1 X79.501 Y84.6
G1 X79.785 Y84.243
G1 X79.971 Y84.105
;WIPE_END
G1 X78.802 Y87.737 Z.4
G1 X66.298 Y126.603 Z.4
G1 Z.2
G1 E1.2 F1800
;TYPE:Inner wall
G1 X66.169 Y126.359 E.00997
G1 X66.143 Y126.171 E.00683
G1 X66.143 Y97.829 E1.02335
G1 X66.216 Y97.52 E.01143
G1 X66.409 Y97.286 E.01095
G1 X66.711 Y97.143 E.01209
G1 X153.171 Y97.143 E3.12172
G1 X153.468 Y97.211 E.011
G1 X153.716 Y97.412 E.01151
G1 X153.857 Y97.721 E.01229
G1 X153.857 Y126.171 E1.02722
G1 X153.8 Y126.446 E.01013
G1 X153.621 Y126.689 E.01088
G1 X153.36 Y126.831 E.01073
G1 X153.171 Y126.857 E.00687
G1 X66.829 Y126.857 E3.11749
G1 X66.525 Y126.786 E.01126
G1 X66.327 Y126.63 E.0091
G1 X66.829 Y126.4 F9000
;TYPE:Outer wall
G1 F1800
G1 X66.665 Y126.331 E.0064
G1 X66.6 Y126.171 E.00623
G1 X66.6 Y97.829 E1.02335
G1 X66.666 Y97.668 E.00627
G1 X66.829 Y97.6 E.00636
G1 X153.171 Y97.6 E3.11749
G1 X153.334 Y97.668 E.00636
G1 X153.4 Y97.829 E.00627
G1 X153.4 Y126.171 E1.02335
G1 X153.335 Y126.331 E.00623
G1 X153.171 Y126.4 E.0064
G1 X66.869 Y126.4 E3.11605
G1 E-1.2 F2400
;WIPE_START
G1 F9000
G1 X66.665 Y126.331
G1 X66.6 Y126.171
G1 X66.6 Y124.559
;WIPE_END
G1 X69.739 Y126.729 Z.4
G1 X82.797 Y135.756 Z.4
G1 Z.2
G1 E1.2 F1800
;TYPE:Inner wall
G1 X82.493 Y136.12 E.01712
G1 X82.023 Y136.451 E.02077
G1 X81.512 Y136.645 E.01973
G1 X81 Y136.707 E.01863
G1 X80.344 Y136.603 E.02399
G1 X79.822 Y136.362 E.02077
G1 X79.38 Y135.993 E.02077
G1 X79.049 Y135.523 E.02077
G1 X78.85 Y134.983 E.02077
G1 X78.793 Y134.477 E.01838
G1 X78.867 Y133.933 E.01984
G1 X79.087 Y133.399 E.02085
G1 X79.507 Y132.88 E.02411
G1 X79.977 Y132.549 E.02077
G1 X80.488 Y132.355 E.01973
G1 X81 Y132.293 E.01863
G1 X81.656 Y132.397 E.02399
G1 X82.178 Y132.638 E.02077
G1 X82.62 Y133.007 E.02077
G1 X82.951 Y133.477 E.02077
G1 X83.15 Y134.017 E.02077
G1 X83.202 Y134.589 E.02077
G1 X83.103 Y135.156 E.02077
G1 X82.862 Y135.678 E.02077
G1 X82.823 Y135.725 E.00221
G1 X82.62 Y135.123 F9000
;TYPE:Outer wall
G1 F1800
G1 X82.499 Y135.4 E.0109
G1 X82.215 Y135.757 E.01648
G1 X81.848 Y136.029 E.01648
G1 X81.424 Y136.197 E.01648
G1 X80.97 Y136.248 E.01648
G1 X80.519 Y136.181 E.01648
G1 X80.1 Y135.999 E.01648
G1 X79.743 Y135.715 E.01648
G1 X79.471 Y135.348 E.01648
G1 X79.303 Y134.924 E.01648
G1 X79.252 Y134.47 E.01648
G1 X79.319 Y134.019 E.01648
G1 X79.501 Y133.6 E.01648
G1 X79.785 Y133.243 E.01648
G1 X80.152 Y132.971 E.01648
G1 X80.576 Y132.803 E.01648
G1 X81.03 Y132.752 E.01648
G1 X81.481 Y132.819 E.01648
G1 X81.9 Y133.001 E.01648
G1 X82.257 Y133.285 E.01648
G1 X82.529 Y133.652 E.01648
G1 X82.697 Y134.076 E.01648
G1 X82.748 Y134.53 E.01648
G1 X82.664 Y135.022 E.01802
G1 X82.636 Y135.087 E.00256
G1 E-1.2 F2400
;WIPE_START
G1 F9000
G1 X82.499 Y135.4
G1 X82.215 Y135.757
G1 X81.848 Y136.029
G1 X81.424 Y136.197
G1 X81.137 Y136.229
;WIPE_END
G1 X176.506 Y77.918 Z.4
G1 Z.2
G1 E1.2 F1800
;TYPE:Bottom surface
;WIDTH:0.500047
G1 F4800
G1 X175.787 Y77.2 E.03669
G1 X175.141 Y77.2 E.02334
G1 X176.3 Y78.359 E.0592
G1 X176.3 Y79.006 E.02334
G1 X174.494 Y77.2 E.09221
G1 X173.848 Y77.2 E.02334
G1 X176.3 Y79.652 E.12522
G1 X176.3 Y80.298 E.02334
G1 X173.202 Y77.2 E.15824
G1 X172.555 Y77.2 E.02334
G1 X176.3 Y80.945 E.19125
G1 X176.3 Y81.591 E.02334
G1 X171.909 Y77.2 E.22426
G1 X171.262 Y77.2 E.02334
G1 X176.3 Y82.238 E.25728
G1 X176.3 Y82.884 E.02334
G1 X170.616 Y77.2 E.29029
G1 X169.969 Y77.2 E.02334
G1 X176.3 Y83.531 E.3233
G1 X176.3 Y84.177 E.02334
G1 X169.323 Y77.2 E.35632
G1 X168.676 Y77.2 E.02334
G1 X176.3 Y84.824 E.38933
G1 X176.3 Y85.47 E.02334
G1 X168.03 Y77.2 E.42234
G1 X167.383 Y77.2 E.02334
G1 X176.3 Y86.117 E.45536
G1 X176.3 Y86.763 E.02334
M73 P3 R37
G1 X166.737 Y77.2 E.48837
G1 X166.09 Y77.2 E.02334
G1 X176.3 Y87.41 E.52138
G1 X176.3 Y88.056 E.02334
G1 X165.444 Y77.2 E.5544
G1 X164.797 Y77.2 E.02334
G1 X176.3 Y88.703 E.58741
G1 X176.3 Y89.349 E.02334
G1 X164.151 Y77.2 E.62042
G1 X163.504 Y77.2 E.02334
G1 X176.3 Y89.996 E.65344
G1 X176.3 Y90.642 E.02334
G1 X162.858 Y77.2 E.68645
G1 X162.211 Y77.2 E.02334
G1 X176.3 Y91.289 E.71947
G1 X176.3 Y91.935 E.02334
G1 X161.565 Y77.2 E.75248
G1 X160.918 Y77.2 E.02334
G1 X176.3 Y92.582 E.78549
G1 X176.3 Y93.228 E.02334
G1 X160.272 Y77.2 E.81851
G1 X159.626 Y77.2 E.02334
G1 X176.3 Y93.874 E.85152
G1 X176.3 Y94.521 E.02334
G1 X158.979 Y77.2 E.88453
G1 X158.333 Y77.2 E.02334
G1 X176.3 Y95.167 E.91755
G1 X176.3 Y95.814 E.02334
G1 X157.686 Y77.2 E.95056
G1 X157.04 Y77.2 E.02334
G1 X176.3 Y96.46 E.98357
G1 X176.3 Y97.107 E.02334
G1 X156.393 Y77.2 E1.01659
G1 X155.747 Y77.2 E.02334
G1 X176.3 Y97.753 E1.0496
G1 X176.3 Y98.4 E.02334
G1 X155.1 Y77.2 E1.08261
G1 X154.454 Y77.2 E.02334
G1 X176.3 Y99.046 E1.11563
G1 X176.3 Y99.693 E.02334
G1 X153.807 Y77.2 E1.14864
G1 X153.161 Y77.2 E.02334
G1 X176.3 Y100.339 E1.18165
G1 X176.3 Y100.986 E.02334
G1 X152.514 Y77.2 E1.21467
G1 X151.868 Y77.2 E.02334
G1 X176.3 Y101.632 E1.24768
G1 X176.3 Y102.279 E.02334
G1 X151.221 Y77.2 E1.28069
G1 X150.575 Y77.2 E.02334
G1 X176.3 Y102.925 E1.31371
G1 X176.3 Y103.572 E.02334
G1 X149.928 Y77.2 E1.34672
G1 X149.282 Y77.2 E.02334
G1 X176.3 Y104.218 E1.37973
G1 X176.3 Y104.865 E.02334
G1 X148.635 Y77.2 E1.41275
G1 X147.989 Y77.2 E.02334
G1 X176.3 Y105.511 E1.44576
G1 X176.3 Y106.157 E.02334
G1 X147.343 Y77.2 E1.47878
G1 X146.696 Y77.2 E.02334
G1 X176.3 Y106.804 E1.51179
G1 X176.3 Y107.45 E.02334
M73 P3 R36
G1 X146.05 Y77.2 E1.5448
G1 X145.403 Y77.2 E.02334
G1 X176.3 Y108.097 E1.57782
G1 X176.3 Y108.743 E.02334
G1 X144.757 Y77.2 E1.61083
G1 X144.11 Y77.2 E.02334
G1 X176.3 Y109.39 E1.64384
G1 X176.3 Y110.036 E.02334
G1 X143.464 Y77.2 E1.67686
G1 X142.817 Y77.2 E.02334
G1 X176.3 Y110.683 E1.70987
G1 X176.3 Y111.329 E.02334
G1 X142.171 Y77.2 E1.74288
G1 X141.524 Y77.2 E.02334
G1 X176.3 Y111.976 E1.7759
G1 X176.3 Y112.622 E.02334
G1 X140.878 Y77.2 E1.80891
G1 X140.231 Y77.2 E.02334
G1 X176.3 Y113.269 E1.84192
G1 X176.3 Y113.915 E.02334
M73 P4 R36
G1 X139.585 Y77.2 E1.87494
G1 X138.938 Y77.2 E.02334
G1 X176.3 Y114.562 E1.90795
G1 X176.3 Y115.208 E.02334
G1 X138.292 Y77.2 E1.94096
G1 X137.645 Y77.2 E.02334
G1 X176.3 Y115.855 E1.97398
G1 X176.3 Y116.501 E.02334
G1 X136.999 Y77.2 E2.00699
G1 X136.352 Y77.2 E.02334
G1 X176.3 Y117.148 E2.04
G1 X176.3 Y117.794 E.02334
G1 X135.706 Y77.2 E2.07302
G1 X135.059 Y77.2 E.02334
G1 X176.3 Y118.441 E2.10603
G1 X176.3 Y119.087 E.02334
G1 X134.413 Y77.2 E2.13905
G1 X133.767 Y77.2 E.02334
G1 X139.594 Y83.027 E.29757
G3 X140.382 Y83.362 I-.833 J3.054 E.03102
G1 X140.806 Y83.699 E.01956
G1 X141.138 Y84.118 E.01932
G1 X141.266 Y84.339 E.00922
G1 X141.466 Y84.846 E.01968
G1 X141.474 Y84.908 E.00224
G1 X176.3 Y119.733 E1.77845
G1 X176.3 Y120.38 E.02334
G1 X154.2 Y98.28 E1.12859
G1 X154.2 Y98.926 E.02334
G1 X176.3 Y121.026 E1.12859
G1 X176.3 Y121.673 E.02334
G1 X154.2 Y99.573 E1.12859
G1 X154.2 Y100.219 E.02334
G1 X176.3 Y122.319 E1.12859
G1 X176.3 Y122.966 E.02334
G1 X154.2 Y100.866 E1.12859
G1 X154.2 Y101.512 E.02334
G1 X176.3 Y123.612 E1.12859
G1 X176.3 Y124.259 E.02334
G1 X154.2 Y102.159 E1.12859
G1 X154.2 Y102.805 E.02334
G1 X176.3 Y124.905 E1.12859
G1 X176.3 Y125.552 E.02334
G1 X154.2 Y103.452 E1.12859
G1 X154.2 Y104.098 E.02334
G1 X176.3 Y126.198 E1.12859
G1 X176.3 Y126.845 E.02334
G1 X154.2 Y104.744 E1.12859
G1 X154.2 Y105.391 E.02334
G1 X176.3 Y127.491 E1.12859
G1 X176.3 Y128.138 E.02334
G1 X154.2 Y106.037 E1.12859
G1 X154.2 Y106.684 E.02334
G1 X176.3 Y128.784 E1.12859
G1 X176.3 Y129.431 E.02334
G1 X154.2 Y107.33 E1.12859
G1 X154.2 Y107.977 E.02334
G1 X176.3 Y130.077 E1.12859
G1 X176.3 Y130.724 E.02334
G1 X154.2 Y108.623 E1.12859
G1 X154.2 Y109.27 E.02334
G1 X176.3 Y131.37 E1.12859
G1 X176.3 Y132.016 E.02334
G1 X154.2 Y109.916 E1.12859
G1 X154.2 Y110.563 E.02334
G1 X176.3 Y132.663 E1.12859
G1 X176.3 Y133.309 E.02334
G1 X154.2 Y111.209 E1.12859
G1 X154.2 Y111.856 E.02334
G1 X176.3 Y133.956 E1.12859
G1 X176.3 Y134.602 E.02334
G1 X154.2 Y112.502 E1.12859
G1 X154.2 Y113.149 E.02334
G1 X176.3 Y135.249 E1.12859
G1 X176.3 Y135.895 E.02334
G1 X154.2 Y113.795 E1.12859
G1 X154.2 Y114.442 E.02334
G1 X176.3 Y136.542 E1.12859
