;TIME:2065.15
;Filament used:3.48223m
;Layer height:0.200
; HEADER_BLOCK_START
; generated by Creality_Print V7.1.0.4414 on 2026-05-06 at 23:57:13
; total layer number: 11
; filament_density: 1.24
; filament_diameter: 1.75
; max_z_height: 2.20
; creality_uuid: 312f6a59-d756-42b3-b826-a4e7d99366c9
; HEADER_BLOCK_END

; MINX = 40.42
; MINY = 61.04
; MINZ = 0.00
; MAXX = 183.42
; MAXY = 150.04
; MAXZ = 2.13

; multicolor_method = 0 
; THUMBNAIL_BLOCK_START

;
; THUMBNAIL_BLOCK_END

; THUMBNAIL_BLOCK_START

;
; THUMBNAIL_BLOCK_END

; external perimeters extrusion width = 0.42mm
; perimeters extrusion width = 0.45mm
; infill extrusion width = 0.45mm
; solid infill extrusion width = 0.42mm
; top infill extrusion width = 0.42mm
; first layer extrusion width = 0.50mm

; EXECUTABLE_BLOCK_START
M73 P0 R34
M201 X5000 Y5000 Z500 E5000
M203 X500 Y500 Z30 E100
M204 P5000 R2500 T5000 ; sets acceleration (P, T) and retract acceleration (R), mm/sec^2
M205 X10.00 Y10.00 Z0.40 E5.00 ; sets the jerk limits, mm/sec
; max_print_temp = 50,190
;TYPE:Custom
M220 S100 ;Reset Feedrate 
M221 S100 ;Reset Flowrate 
 
M140 S50 ;Set final bed temp 
G28 ;Home 
 
G92 E0 ;Reset Extruder 
G1 Z2.0 F3000 ;Move Z Axis up 
M104 S190 ;Set final nozzle temp 
G1 X-2.1 Y20 Z0.28 F5000.0 ;Move to start position 
M190 S50 ;Wait for bed temp to stabilize 
M109 S190 ;Wait for nozzle temp to stabilize 
G1 X-2.1 Y145.0 Z0.28 F1500.0 E15 ;Draw the first line 
G1 X-2.4 Y145.0 Z0.28 F5000.0 ;Move to side a little 
G1 X-2.4 Y20 Z0.28 F1500.0 E30 ;Draw the second line 
G92 E0  ;Reset Extruder 
G1 E-1.0000 F1800 ;Retract a bit 
G1 Z2.0 F3000 ;Move Z Axis up 
G1 E0.0000 F1800
G90
G21
M83 ; use relative distances for extrusion
;filament start gcode
G1 E-1.2 F2400
G1 Z.2 F9000
M106 S0
;LAYER_CHANGE
;:0.2
;HEIGHT:0.2
;BEFORE_LAYER_CHANGE
;0.2
G92 E0
;TIME_ELAPSED:68.418961
;_SET_FAN_SPEED_CHANGING_LAYER
M204 P500
M205 X10 Y10
; OBJECT_ID: 444
; printing object rd_support_slat_base_v1.stl id:4534051526378569728 copy 0
M204 T500
G1 X182.06 Y68.178 Z.4 F9000
G1 Z.2
G1 E1.2 F1800
;TYPE:Inner wall
;WIDTH:0.499999
G1 F1200
G1 X41.274 Y68.178 E5.08321
G1 X41.274 Y61.892 E.22696
G1 X182.56 Y61.892 E5.10126
G1 X182.56 Y68.178 E.22696
M73 P1 R33
G1 X182.1 Y68.178 E.01661
G1 E-1.2 F2400
;WIPE_START
G1 F9000
G1 X180.1 Y68.178
;WIPE_END
G1 X183.017 Y68.635 Z.4
G1 Z.2
G1 E1.2 F1800
;TYPE:Outer wall
G1 F1200
G1 X40.817 Y68.635 E5.13427
G1 X40.817 Y61.435 E.25996
G1 X183.017 Y61.435 E5.13427
G1 X183.017 Y68.595 E.25852
M73 P2 R33
G1 E-1.2 F2400
;WIPE_START
G1 F9000
G1 X181.017 Y68.596
;WIPE_END
G1 X182.423 Y62.956 Z.4
G1 Z.2
G1 E1.2 F1800
;TYPE:Bottom surface
;WIDTH:0.501183
G1 F4200
G1 X181.702 Y62.235 E.0369
G1 X181.054 Y62.235 E.02346
G1 X182.217 Y63.398 E.05955
G1 X182.217 Y64.046 E.02346
G1 X180.406 Y62.235 E.09273
G1 X179.758 Y62.235 E.02346
G1 X182.217 Y64.694 E.1259
G1 X182.217 Y65.343 E.02346
G1 X179.11 Y62.235 E.15908
G1 X178.462 Y62.235 E.02346
G1 X182.217 Y65.991 E.19226
G1 X182.217 Y66.639 E.02346
G1 X177.814 Y62.235 E.22544
G1 X177.165 Y62.235 E.02346
G1 X182.217 Y67.287 E.25861
G1 X182.217 Y67.835 E.01986
G1 X182.118 Y67.835 E.0036
G1 X176.517 Y62.235 E.2867
G1 X175.869 Y62.235 E.02346
G1 X181.47 Y67.835 E.2867
G1 X180.821 Y67.835 E.02346
G1 X175.221 Y62.235 E.2867
G1 X174.573 Y62.235 E.02346
G1 X180.173 Y67.835 E.2867
G1 X179.525 Y67.835 E.02346
G1 X173.925 Y62.235 E.2867
G1 X173.277 Y62.235 E.02346
G1 X178.877 Y67.835 E.2867
G1 X178.229 Y67.835 E.02346
G1 X172.629 Y62.235 E.2867
G1 X171.981 Y62.235 E.02346
G1 X177.581 Y67.835 E.2867
G1 X176.933 Y67.835 E.02346
G1 X171.333 Y62.235 E.2867
G1 X170.685 Y62.235 E.02346
G1 X176.285 Y67.835 E.2867
G1 X175.637 Y67.835 E.02346
G1 X170.037 Y62.235 E.2867
G1 X169.388 Y62.235 E.02346
G1 X174.989 Y67.835 E.2867
G1 X174.341 Y67.835 E.02346
G1 X168.74 Y62.235 E.2867
G1 X168.092 Y62.235 E.02346
G1 X173.693 Y67.835 E.2867
G1 X173.045 Y67.835 E.02346
G1 X167.444 Y62.235 E.2867
G1 X166.796 Y62.235 E.02346
G1 X172.396 Y67.835 E.2867
G1 X171.748 Y67.835 E.02346
G1 X166.148 Y62.235 E.2867
G1 X165.5 Y62.235 E.02346
G1 X171.1 Y67.835 E.2867
G1 X170.452 Y67.835 E.02346
G1 X164.852 Y62.235 E.2867
G1 X164.204 Y62.235 E.02346
G1 X169.804 Y67.835 E.2867
G1 X169.156 Y67.835 E.02346
G1 X163.556 Y62.235 E.2867
G1 X162.908 Y62.235 E.02346
G1 X168.508 Y67.835 E.2867
G1 X167.86 Y67.835 E.02346
G1 X162.26 Y62.235 E.2867
G1 X161.612 Y62.235 E.02346
G1 X167.212 Y67.835 E.2867
G1 X166.564 Y67.835 E.02346
G1 X160.963 Y62.235 E.2867
G1 X160.315 Y62.235 E.02346
G1 X165.916 Y67.835 E.2867
G1 X165.268 Y67.835 E.02346
G1 X159.667 Y62.235 E.2867
G1 X159.019 Y62.235 E.02346
G1 X164.619 Y67.835 E.2867
G1 X163.971 Y67.835 E.02346
G1 X158.371 Y62.235 E.2867
G1 X157.723 Y62.235 E.02346
G1 X163.323 Y67.835 E.2867
G1 X162.675 Y67.835 E.02346
G1 X157.075 Y62.235 E.2867
G1 X156.427 Y62.235 E.02346
G1 X162.027 Y67.835 E.2867
G1 X161.379 Y67.835 E.02346
G1 X155.779 Y62.235 E.2867
G1 X155.131 Y62.235 E.02346
G1 X160.731 Y67.835 E.2867
G1 X160.083 Y67.835 E.02346
G1 X154.483 Y62.235 E.2867
G1 X153.835 Y62.235 E.02346
G1 X159.435 Y67.835 E.2867
G1 X158.787 Y67.835 E.02346
G1 X153.186 Y62.235 E.2867
G1 X152.538 Y62.235 E.02346
G1 X158.139 Y67.835 E.2867
G1 X157.491 Y67.835 E.02346
G1 X151.89 Y62.235 E.2867
G1 X151.242 Y62.235 E.02346
G1 X156.842 Y67.835 E.2867
G1 X156.194 Y67.835 E.02346
G1 X150.594 Y62.235 E.2867
G1 X149.946 Y62.235 E.02346
G1 X155.546 Y67.835 E.2867
G1 X154.898 Y67.835 E.02346
G1 X149.298 Y62.235 E.2867
G1 X148.65 Y62.235 E.02346
G1 X154.25 Y67.835 E.2867
G1 X153.602 Y67.835 E.02346
G1 X148.002 Y62.235 E.2867
G1 X147.354 Y62.235 E.02346
G1 X152.954 Y67.835 E.2867
G1 X152.306 Y67.835 E.02346
G1 X146.706 Y62.235 E.2867
G1 X146.058 Y62.235 E.02346
G1 X151.658 Y67.835 E.2867
G1 X151.01 Y67.835 E.02346
G1 X145.409 Y62.235 E.2867
G1 X144.761 Y62.235 E.02346
G1 X150.362 Y67.835 E.2867
G1 X149.714 Y67.835 E.02346
G1 X144.113 Y62.235 E.2867
G1 X143.465 Y62.235 E.02346
G1 X149.065 Y67.835 E.2867
G1 X148.417 Y67.835 E.02346
G1 X142.817 Y62.235 E.2867
G1 X142.169 Y62.235 E.02346
G1 X147.769 Y67.835 E.2867
G1 X147.121 Y67.835 E.02346
G1 X141.521 Y62.235 E.2867
G1 X140.873 Y62.235 E.02346
G1 X146.473 Y67.835 E.2867
G1 X145.825 Y67.835 E.02346
G1 X140.225 Y62.235 E.2867
G1 X139.577 Y62.235 E.02346
G1 X145.177 Y67.835 E.2867
G1 X144.529 Y67.835 E.02346
G1 X138.929 Y62.235 E.2867
G1 X138.281 Y62.235 E.02346
G1 X143.881 Y67.835 E.2867
G1 X143.233 Y67.835 E.02346
G1 X137.632 Y62.235 E.2867
G1 X136.984 Y62.235 E.02346
G1 X142.585 Y67.835 E.2867
G1 X141.937 Y67.835 E.02346
G1 X136.336 Y62.235 E.2867
G1 X135.688 Y62.235 E.02346
G1 X141.289 Y67.835 E.2867
G1 X140.64 Y67.835 E.02346
G1 X135.04 Y62.235 E.2867
G1 X134.392 Y62.235 E.02346
G1 X139.992 Y67.835 E.2867
G1 X139.344 Y67.835 E.02346
G1 X133.744 Y62.235 E.2867
G1 X133.096 Y62.235 E.02346
G1 X138.696 Y67.835 E.2867
G1 X138.048 Y67.835 E.02346
G1 X132.448 Y62.235 E.2867
G1 X131.8 Y62.235 E.02346
G1 X137.4 Y67.835 E.2867
G1 X136.752 Y67.835 E.02346
G1 X131.152 Y62.235 E.2867
G1 X130.504 Y62.235 E.02346
G1 X136.104 Y67.835 E.2867
G1 X135.456 Y67.835 E.02346
M73 P3 R33
G1 X129.856 Y62.235 E.2867
G1 X129.207 Y62.235 E.02346
G1 X134.808 Y67.835 E.2867
G1 X134.16 Y67.835 E.02346
G1 X128.559 Y62.235 E.2867
G1 X127.911 Y62.235 E.02346
G1 X133.512 Y67.835 E.2867
G1 X132.863 Y67.835 E.02346
G1 X127.263 Y62.235 E.2867
G1 X126.615 Y62.235 E.02346
G1 X132.215 Y67.835 E.2867
G1 X131.567 Y67.835 E.02346
G1 X125.967 Y62.235 E.2867
G1 X125.319 Y62.235 E.02346
G1 X130.919 Y67.835 E.2867
G1 X130.271 Y67.835 E.02346
G1 X124.671 Y62.235 E.2867
G1 X124.023 Y62.235 E.02346
G1 X129.623 Y67.835 E.2867
G1 X128.975 Y67.835 E.02346
G1 X123.375 Y62.235 E.2867
G1 X122.727 Y62.235 E.02346
G1 X128.327 Y67.835 E.2867
G1 X127.679 Y67.835 E.02346
G1 X122.079 Y62.235 E.2867
G1 X121.43 Y62.235 E.02346
G1 X127.031 Y67.835 E.2867
G1 X126.383 Y67.835 E.02346
G1 X120.782 Y62.235 E.2867
G1 X120.134 Y62.235 E.02346
G1 X125.735 Y67.835 E.2867
G1 X125.086 Y67.835 E.02346
G1 X119.486 Y62.235 E.2867
G1 X118.838 Y62.235 E.02346
G1 X124.438 Y67.835 E.2867
G1 X123.79 Y67.835 E.02346
G1 X118.19 Y62.235 E.2867
G1 X117.542 Y62.235 E.02346
G1 X123.142 Y67.835 E.2867
G1 X122.494 Y67.835 E.02346
G1 X116.894 Y62.235 E.2867
G1 X116.246 Y62.235 E.02346
G1 X121.846 Y67.835 E.2867
G1 X121.198 Y67.835 E.02346
G1 X115.598 Y62.235 E.2867
G1 X114.95 Y62.235 E.02346
G1 X120.55 Y67.835 E.2867
G1 X119.902 Y67.835 E.02346
G1 X114.302 Y62.235 E.2867
G1 X113.653 Y62.235 E.02346
G1 X119.254 Y67.835 E.2867
G1 X118.606 Y67.835 E.02346
G1 X113.005 Y62.235 E.2867
G1 X112.357 Y62.235 E.02346
G1 X117.958 Y67.835 E.2867
G1 X117.309 Y67.835 E.02346
G1 X111.709 Y62.235 E.2867
G1 X111.061 Y62.235 E.02346
G1 X116.661 Y67.835 E.2867
G1 X116.013 Y67.835 E.02346
G1 X110.413 Y62.235 E.2867
G1 X109.765 Y62.235 E.02346
G1 X115.365 Y67.835 E.2867
G1 X114.717 Y67.835 E.02346
G1 X109.117 Y62.235 E.2867
G1 X108.469 Y62.235 E.02346
G1 X114.069 Y67.835 E.2867
G1 X113.421 Y67.835 E.02346
G1 X107.821 Y62.235 E.2867
G1 X107.173 Y62.235 E.02346
G1 X112.773 Y67.835 E.2867
G1 X112.125 Y67.835 E.02346
G1 X106.525 Y62.235 E.2867
G1 X105.876 Y62.235 E.02346
G1 X111.477 Y67.835 E.2867
G1 X110.829 Y67.835 E.02346
G1 X105.228 Y62.235 E.2867
G1 X104.58 Y62.235 E.02346
G1 X110.181 Y67.835 E.2867
G1 X109.532 Y67.835 E.02346
G1 X103.932 Y62.235 E.2867
G1 X103.284 Y62.235 E.02346
G1 X108.884 Y67.835 E.2867
G1 X108.236 Y67.835 E.02346
G1 X102.636 Y62.235 E.2867
G1 X101.988 Y62.235 E.02346
G1 X107.588 Y67.835 E.2867
G1 X106.94 Y67.835 E.02346
G1 X101.34 Y62.235 E.2867
G1 X100.692 Y62.235 E.02346
G1 X106.292 Y67.835 E.2867
G1 X105.644 Y67.835 E.02346
G1 X100.044 Y62.235 E.2867
G1 X99.396 Y62.235 E.02346
G1 X104.996 Y67.835 E.2867
G1 X104.348 Y67.835 E.02346
G1 X98.748 Y62.235 E.2867
G1 X98.1 Y62.235 E.02346
G1 X103.7 Y67.835 E.2867
G1 X103.052 Y67.835 E.02346
G1 X97.451 Y62.235 E.2867
G1 X96.803 Y62.235 E.02346
G1 X102.404 Y67.835 E.2867
G1 X101.756 Y67.835 E.02346
G1 X96.155 Y62.235 E.2867
G1 X95.507 Y62.235 E.02346
G1 X101.107 Y67.835 E.2867
G1 X100.459 Y67.835 E.02346
G1 X94.859 Y62.235 E.2867
G1 X94.211 Y62.235 E.02346
G1 X99.811 Y67.835 E.2867
G1 X99.163 Y67.835 E.02346
G1 X93.563 Y62.235 E.2867
G1 X92.915 Y62.235 E.02346
G1 X98.515 Y67.835 E.2867
G1 X97.867 Y67.835 E.02346
G1 X92.267 Y62.235 E.2867
G1 X91.619 Y62.235 E.02346
G1 X97.219 Y67.835 E.2867
G1 X96.571 Y67.835 E.02346
G1 X90.971 Y62.235 E.2867
G1 X90.323 Y62.235 E.02346
G1 X95.923 Y67.835 E.2867
G1 X95.275 Y67.835 E.02346
G1 X89.674 Y62.235 E.2867
G1 X89.026 Y62.235 E.02346
G1 X94.627 Y67.835 E.2867
G1 X93.979 Y67.835 E.02346
G1 X88.378 Y62.235 E.2867
G1 X87.73 Y62.235 E.02346
G1 X93.33 Y67.835 E.2867
G1 X92.682 Y67.835 E.02346
G1 X87.082 Y62.235 E.2867
G1 X86.434 Y62.235 E.02346
G1 X92.034 Y67.835 E.2867
G1 X91.386 Y67.835 E.02346
G1 X85.786 Y62.235 E.2867
G1 X85.138 Y62.235 E.02346
G1 X90.738 Y67.835 E.2867
G1 X90.09 Y67.835 E.02346
G1 X84.49 Y62.235 E.2867
G1 X83.842 Y62.235 E.02346
G1 X89.442 Y67.835 E.2867
G1 X88.794 Y67.835 E.02346
G1 X83.194 Y62.235 E.2867
G1 X82.546 Y62.235 E.02346
G1 X88.146 Y67.835 E.2867
G1 X87.498 Y67.835 E.02346
G1 X81.897 Y62.235 E.2867
G1 X81.249 Y62.235 E.02346
G1 X86.85 Y67.835 E.2867
G1 X86.202 Y67.835 E.02346
G1 X80.601 Y62.235 E.2867
G1 X79.953 Y62.235 E.02346
G1 X85.553 Y67.835 E.2867
G1 X84.905 Y67.835 E.02346
G1 X79.305 Y62.235 E.2867
G1 X78.657 Y62.235 E.02346
G1 X84.257 Y67.835 E.2867
G1 X83.609 Y67.835 E.02346
G1 X78.009 Y62.235 E.2867
G1 X77.361 Y62.235 E.02346
G1 X82.961 Y67.835 E.2867
G1 X82.313 Y67.835 E.02346
G1 X76.713 Y62.235 E.2867
G1 X76.065 Y62.235 E.02346
G1 X81.665 Y67.835 E.2867
M73 P4 R33
G1 X81.017 Y67.835 E.02346
G1 X75.417 Y62.235 E.2867
G1 X74.769 Y62.235 E.02346
G1 X80.369 Y67.835 E.2867
G1 X79.721 Y67.835 E.02346
G1 X74.12 Y62.235 E.2867
G1 X73.472 Y62.235 E.02346
G1 X79.073 Y67.835 E.2867
G1 X78.425 Y67.835 E.02346
G1 X72.824 Y62.235 E.2867
G1 X72.176 Y62.235 E.02346
G1 X77.776 Y67.835 E.2867
G1 X77.128 Y67.835 E.02346
G1 X71.528 Y62.235 E.2867
G1 X70.88 Y62.235 E.02346
G1 X76.48 Y67.835 E.2867
G1 X75.832 Y67.835 E.02346
G1 X70.232 Y62.235 E.2867
G1 X69.584 Y62.235 E.02346
G1 X75.184 Y67.835 E.2867
G1 X74.536 Y67.835 E.02346
G1 X68.936 Y62.235 E.2867
G1 X68.288 Y62.235 E.02346
G1 X73.888 Y67.835 E.2867
G1 X73.24 Y67.835 E.02346
M73 P4 R32
G1 X67.64 Y62.235 E.2867
G1 X66.992 Y62.235 E.02346
G1 X72.592 Y67.835 E.2867
G1 X71.944 Y67.835 E.02346
G1 X66.343 Y62.235 E.2867
G1 X65.695 Y62.235 E.02346
G1 X71.296 Y67.835 E.2867
G1 X70.648 Y67.835 E.02346
G1 X65.047 Y62.235 E.2867
G1 X64.399 Y62.235 E.02346
G1 X70 Y67.835 E.2867
G1 X69.351 Y67.835 E.02346
G1 X63.751 Y62.235 E.2867
G1 X63.103 Y62.235 E.02346
G1 X68.703 Y67.835 E.2867
G1 X68.055 Y67.835 E.02346
G1 X62.455 Y62.235 E.2867
G1 X61.807 Y62.235 E.02346
G1 X67.407 Y67.835 E.2867
G1 X66.759 Y67.835 E.02346
G1 X61.159 Y62.235 E.2867
G1 X60.511 Y62.235 E.02346
G1 X66.111 Y67.835 E.2867
G1 X65.463 Y67.835 E.02346
G1 X59.863 Y62.235 E.2867
G1 X59.215 Y62.235 E.02346
G1 X64.815 Y67.835 E.2867
G1 X64.167 Y67.835 E.02346
G1 X58.567 Y62.235 E.2867
G1 X57.918 Y62.235 E.02346
G1 X63.519 Y67.835 E.2867
G1 X62.871 Y67.835 E.02346
G1 X57.27 Y62.235 E.2867
G1 X56.622 Y62.235 E.02346
G1 X62.223 Y67.835 E.2867
G1 X61.574 Y67.835 E.02346
G1 X55.974 Y62.235 E.2867
G1 X55.326 Y62.235 E.02346
G1 X60.926 Y67.835 E.2867
G1 X60.278 Y67.835 E.02346
G1 X54.678 Y62.235 E.2867
G1 X54.03 Y62.235 E.02346
G1 X59.63 Y67.835 E.2867
G1 X58.982 Y67.835 E.02346
G1 X53.382 Y62.235 E.2867
G1 X52.734 Y62.235 E.02346
G1 X58.334 Y67.835 E.2867
G1 X57.686 Y67.835 E.02346
G1 X52.086 Y62.235 E.2867
G1 X51.438 Y62.235 E.02346
G1 X57.038 Y67.835 E.2867
G1 X56.39 Y67.835 E.02346
G1 X50.79 Y62.235 E.2867
G1 X50.141 Y62.235 E.02346
G1 X55.742 Y67.835 E.2867
G1 X55.094 Y67.835 E.02346
G1 X49.493 Y62.235 E.2867
G1 X48.845 Y62.235 E.02346
G1 X54.446 Y67.835 E.2867
G1 X53.797 Y67.835 E.02346
G1 X48.197 Y62.235 E.2867
G1 X47.549 Y62.235 E.02346
G1 X53.149 Y67.835 E.2867
G1 X52.501 Y67.835 E.02346
G1 X46.901 Y62.235 E.2867
G1 X46.253 Y62.235 E.02346
G1 X51.853 Y67.835 E.2867
G1 X51.205 Y67.835 E.02346
G1 X45.605 Y62.235 E.2867
G1 X44.957 Y62.235 E.02346
G1 X50.557 Y67.835 E.2867
G1 X49.909 Y67.835 E.02346
G1 X44.309 Y62.235 E.2867
G1 X43.661 Y62.235 E.02346
G1 X49.261 Y67.835 E.2867
G1 X48.613 Y67.835 E.02346
G1 X43.013 Y62.235 E.2867
G1 X42.364 Y62.235 E.02346
G1 X47.965 Y67.835 E.2867
G1 X47.317 Y67.835 E.02346
G1 X41.716 Y62.235 E.2867
G1 X41.617 Y62.235 E.0036
G1 X41.617 Y62.784 E.01986
G1 X46.669 Y67.835 E.25861
G1 X46.02 Y67.835 E.02346
G1 X41.617 Y63.432 E.22544
G1 X41.617 Y64.08 E.02346
G1 X45.372 Y67.835 E.19226
G1 X44.724 Y67.835 E.02346
G1 X41.617 Y64.728 E.15908
G1 X41.617 Y65.376 E.02346
G1 X44.076 Y67.835 E.1259
G1 X43.428 Y67.835 E.02346
G1 X41.617 Y66.024 E.09273
G1 X41.617 Y66.672 E.02346
G1 X42.78 Y67.835 E.05955
G1 X42.132 Y67.835 E.02346
G1 X41.411 Y67.115 E.0369
G1 E-1.2 F2400
;WIPE_START
G1 F9000
G1 X42.132 Y67.835
G1 X42.78 Y67.835
G1 X42.545 Y67.6
;WIPE_END
G1 X46.289 Y68.34 Z.4
G1 X182.06 Y95.178 Z.4
G1 Z.2
G1 E1.2 F1800
;TYPE:Inner wall
;WIDTH:0.499999
G1 F1200
G1 X41.274 Y95.178 E5.08321
G1 X41.274 Y88.892 E.22696
M73 P5 R32
G1 X182.56 Y88.892 E5.10126
G1 X182.56 Y95.178 E.22696
G1 X182.1 Y95.178 E.01661
G1 E-1.2 F2400
;WIPE_START
G1 F9000
G1 X180.1 Y95.178
;WIPE_END
G1 X183.017 Y95.635 Z.4
G1 Z.2
G1 E1.2 F1800
;TYPE:Outer wall
G1 F1200
G1 X40.817 Y95.635 E5.13427
G1 X40.817 Y88.435 E.25996
G1 X183.017 Y88.435 E5.13427
G1 X183.017 Y95.595 E.25852
M73 P6 R32
G1 E-1.2 F2400
;WIPE_START
G1 F9000
G1 X181.017 Y95.596
;WIPE_END
G1 X181.94 Y91.893 Z.4
G1 X182.423 Y89.956 Z.4
G1 Z.2
G1 E1.2 F1800
;TYPE:Bottom surface
;WIDTH:0.501183
G1 F4200
G1 X181.702 Y89.235 E.0369
G1 X181.054 Y89.235 E.02346
G1 X182.217 Y90.398 E.05955
G1 X182.217 Y91.046 E.02346
G1 X180.406 Y89.235 E.09273
G1 X179.758 Y89.235 E.02346
G1 X182.217 Y91.694 E.1259
G1 X182.217 Y92.343 E.02346
G1 X179.11 Y89.235 E.15908
G1 X178.462 Y89.235 E.02346
G1 X182.217 Y92.991 E.19226
G1 X182.217 Y93.639 E.02346
