;TIME:16615.87
;Filament used:31.18188m
;Layer height:0.200
; HEADER_BLOCK_START
; generated by Creality_Print V6.3.0.3420 on 2026-04-05 at 21:26:53
; total layer number: 734
; filament_density: 1.24
; filament_diameter: 1.75
; max_z_height: 100.00
; creality_uuid: 06296e6d-bfba-4965-a1c8-0724982658c4
; HEADER_BLOCK_END

; MINX = 50.00
; MINY = 70.00
; MINZ = 0.00
; MAXX = 170.00
; MAXY = 150.00
; MAXZ = 100.00

; multicolor_method = 0 
; THUMBNAIL_BLOCK_START

;
; THUMBNAIL_BLOCK_END

; THUMBNAIL_BLOCK_START

;
; THUMBNAIL_BLOCK_END

; external perimeters extrusion width = 0.42mm
; perimeters extrusion width = 0.45mm
; infill extrusion width = 0.45mm
; solid infill extrusion width = 0.42mm
; top infill extrusion width = 0.42mm
; support material extrusion width = 0.40mm
; first layer extrusion width = 0.50mm

; EXECUTABLE_BLOCK_START
M73 P0 R276
M201 X5000 Y5000 Z500 E5000
M203 X500 Y500 Z30 E100
M204 P5000 R2500 T5000 ; sets acceleration (P, T) and retract acceleration (R), mm/sec^2
M205 X10.00 Y10.00 Z0.40 E5.00 ; sets the jerk limits, mm/sec
; max_print_temp = 50,190
;TYPE:Custom
M220 S100 ;Reset Feedrate 
M221 S100 ;Reset Flowrate 
 
M140 S50 ;Set final bed temp 
G28 ;Home 
 
G92 E0 ;Reset Extruder 
G1 Z2.0 F3000 ;Move Z Axis up 
M104 S190 ;Set final nozzle temp 
G1 X-2.1 Y20 Z0.28 F5000.0 ;Move to start position 
M190 S50 ;Wait for bed temp to stabilize 
M109 S190 ;Wait for nozzle temp to stabilize 
G1 X-2.1 Y145.0 Z0.28 F1500.0 E15 ;Draw the first line 
G1 X-2.4 Y145.0 Z0.28 F5000.0 ;Move to side a little 
G1 X-2.4 Y20 Z0.28 F1500.0 E30 ;Draw the second line 
G92 E0  ;Reset Extruder 
G1 E-1.0000 F1800 ;Retract a bit 
G1 Z2.0 F3000 ;Move Z Axis up 
G1 E0.0000 F1800
G90
G21
M83 ; use relative distances for extrusion
;filament start gcode
G1 E-1.2 F2400
G1 Z.2 F9000
M106 S0
;LAYER_CHANGE
;Z:0.2
;HEIGHT:0.2
;BEFORE_LAYER_CHANGE
;0.2
G92 E0

;_SET_FAN_SPEED_CHANGING_LAYER
M204 P500
M205 X10 Y10
; printing object 01_shell.stl id:0 copy 0
M204 T500
G1 X49.55 Y126.214 Z.4 F9000
G1 Z.2
G1 E1.2 F1800
;TYPE:Support
;WIDTH:0.5
G1 X45.216 Y126.214 E.15649
G1 X45.216 Y93.786 E1.17083
G1 X49.55 Y93.786 E.15649
G1 X49.55 Y126.145 E1.16836
G1 X49.056 Y126.008 F9000
G1 F1800
G1 X49.056 Y94.198 E1.14855
G1 X48.548 Y94.198 E.01834
G1 X48.548 Y125.802 E1.14113
G1 X48.04 Y125.802 E.01834
G1 X48.04 Y94.198 E1.14113
G1 X47.532 Y94.198 E.01834
G1 X47.532 Y125.802 E1.14113
G1 X47.025 Y125.802 E.01834
G1 X47.025 Y94.198 E1.14113
G1 X46.517 Y94.198 E.01834
G1 X46.517 Y125.802 E1.14113
G1 X46.009 Y125.802 E.01834
G1 X46.009 Y93.992 E1.14855
G1 E-1.2 F2400
;WIPE_START
G1 F1800
G1 X46.009 Y95.992
;WIPE_END
G1 X49.684 Y94.963 Z.4 F9000
G1 X140.499 Y69.55 Z.4
G1 Z.2
G1 E1.2 F1800
G1 X79.501 Y69.55 E2.20241
G1 X79.501 Y65.215 E.15651
G1 X140.499 Y65.215 E2.20241
G1 X140.499 Y69.481 E.15403
G1 X139.964 Y69.344 F9000
G1 F1800
G1 X139.964 Y65.627 E.13423
G1 X139.456 Y65.627 E.01834
G1 X139.456 Y69.139 E.1268
G1 X138.948 Y69.139 E.01834
G1 X138.948 Y65.627 E.1268
G1 X138.441 Y65.627 E.01834
G1 X138.441 Y69.139 E.1268
G1 X137.933 Y69.139 E.01834
G1 X137.933 Y65.627 E.1268
G1 X137.425 Y65.627 E.01834
G1 X137.425 Y69.139 E.1268
G1 X136.917 Y69.139 E.01834
G1 X136.917 Y65.627 E.1268
G1 X136.409 Y65.627 E.01834
G1 X136.409 Y69.139 E.1268
G1 X135.901 Y69.139 E.01834
G1 X135.901 Y65.627 E.1268
G1 X135.393 Y65.627 E.01834
G1 X135.393 Y69.139 E.1268
G1 X134.885 Y69.139 E.01834
G1 X134.885 Y65.627 E.1268
G1 X134.378 Y65.627 E.01834
G1 X134.378 Y69.139 E.1268
G1 X133.87 Y69.139 E.01834
G1 X133.87 Y65.627 E.1268
G1 X133.362 Y65.627 E.01834
G1 X133.362 Y69.139 E.1268
G1 X132.854 Y69.139 E.01834
G1 X132.854 Y65.627 E.1268
G1 X132.346 Y65.627 E.01834
G1 X132.346 Y69.139 E.1268
G1 X131.838 Y69.139 E.01834
G1 X131.838 Y65.627 E.1268
G1 X131.33 Y65.627 E.01834
G1 X131.33 Y69.139 E.1268
G1 X130.823 Y69.139 E.01834
G1 X130.823 Y65.627 E.1268
G1 X130.315 Y65.627 E.01834
G1 X130.315 Y69.139 E.1268
G1 X129.807 Y69.139 E.01834
G1 X129.807 Y65.627 E.1268
G1 X129.299 Y65.627 E.01834
G1 X129.299 Y69.139 E.1268
G1 X128.791 Y69.139 E.01834
G1 X128.791 Y65.627 E.1268
G1 X128.283 Y65.627 E.01834
G1 X128.283 Y69.139 E.1268
G1 X127.775 Y69.139 E.01834
G1 X127.775 Y65.627 E.1268
G1 X127.267 Y65.627 E.01834
G1 X127.267 Y69.139 E.1268
G1 X126.76 Y69.139 E.01834
G1 X126.76 Y65.627 E.1268
G1 X126.252 Y65.627 E.01834
G1 X126.252 Y69.139 E.1268
G1 X125.744 Y69.139 E.01834
G1 X125.744 Y65.627 E.1268
G1 X125.236 Y65.627 E.01834
G1 X125.236 Y69.139 E.1268
G1 X124.728 Y69.139 E.01834
G1 X124.728 Y65.627 E.1268
G1 X124.22 Y65.627 E.01834
G1 X124.22 Y69.139 E.1268
G1 X123.712 Y69.139 E.01834
G1 X123.712 Y65.627 E.1268
G1 X123.205 Y65.627 E.01834
G1 X123.205 Y69.139 E.1268
G1 X122.697 Y69.139 E.01834
G1 X122.697 Y65.627 E.1268
G1 X122.189 Y65.627 E.01834
G1 X122.189 Y69.139 E.1268
G1 X121.681 Y69.139 E.01834
G1 X121.681 Y65.627 E.1268
G1 X121.173 Y65.627 E.01834
G1 X121.173 Y69.139 E.1268
G1 X120.665 Y69.139 E.01834
G1 X120.665 Y65.627 E.1268
G1 X120.157 Y65.627 E.01834
G1 X120.157 Y69.139 E.1268
G1 X119.649 Y69.139 E.01834
G1 X119.649 Y65.627 E.1268
G1 X119.142 Y65.627 E.01834
G1 X119.142 Y69.139 E.1268
G1 X118.634 Y69.139 E.01834
G1 X118.634 Y65.627 E.1268
G1 X118.126 Y65.627 E.01834
G1 X118.126 Y69.139 E.1268
G1 X117.618 Y69.139 E.01834
G1 X117.618 Y65.627 E.1268
G1 X117.11 Y65.627 E.01834
G1 X117.11 Y69.139 E.1268
G1 X116.602 Y69.139 E.01834
G1 X116.602 Y65.627 E.1268
G1 X116.094 Y65.627 E.01834
G1 X116.094 Y69.139 E.1268
G1 X115.587 Y69.139 E.01834
G1 X115.587 Y65.627 E.1268
G1 X115.079 Y65.627 E.01834
G1 X115.079 Y69.139 E.1268
G1 X114.571 Y69.139 E.01834
G1 X114.571 Y65.627 E.1268
G1 X114.063 Y65.627 E.01834
G1 X114.063 Y69.139 E.1268
G1 X113.555 Y69.139 E.01834
G1 X113.555 Y65.627 E.1268
G1 X113.047 Y65.627 E.01834
G1 X113.047 Y69.139 E.1268
G1 X112.539 Y69.139 E.01834
G1 X112.539 Y65.627 E.1268
G1 X112.031 Y65.627 E.01834
G1 X112.031 Y69.139 E.1268
G1 X111.524 Y69.139 E.01834
G1 X111.524 Y65.627 E.1268
G1 X111.016 Y65.627 E.01834
G1 X111.016 Y69.139 E.1268
G1 X110.508 Y69.139 E.01834
G1 X110.508 Y65.627 E.1268
G1 X110 Y65.627 E.01834
G1 X110 Y69.139 E.1268
G1 X109.492 Y69.139 E.01834
G1 X109.492 Y65.627 E.1268
G1 X108.984 Y65.627 E.01834
G1 X108.984 Y69.139 E.1268
G1 X108.476 Y69.139 E.01834
G1 X108.476 Y65.627 E.1268
G1 X107.969 Y65.627 E.01834
G1 X107.969 Y69.139 E.1268
G1 X107.461 Y69.139 E.01834
G1 X107.461 Y65.627 E.1268
G1 X106.953 Y65.627 E.01834
G1 X106.953 Y69.139 E.1268
G1 X106.445 Y69.139 E.01834
G1 X106.445 Y65.627 E.1268
G1 X105.937 Y65.627 E.01834
G1 X105.937 Y69.139 E.1268
G1 X105.429 Y69.139 E.01834
G1 X105.429 Y65.627 E.1268
G1 X104.921 Y65.627 E.01834
G1 X104.921 Y69.139 E.1268
G1 X104.413 Y69.139 E.01834
G1 X104.413 Y65.627 E.1268
G1 X103.906 Y65.627 E.01834
G1 X103.906 Y69.139 E.1268
G1 X103.398 Y69.139 E.01834
G1 X103.398 Y65.627 E.1268
G1 X102.89 Y65.627 E.01834
G1 X102.89 Y69.139 E.1268
G1 X102.382 Y69.139 E.01834
G1 X102.382 Y65.627 E.1268
G1 X101.874 Y65.627 E.01834
G1 X101.874 Y69.139 E.1268
G1 X101.366 Y69.139 E.01834
G1 X101.366 Y65.627 E.1268
G1 X100.858 Y65.627 E.01834
G1 X100.858 Y69.139 E.1268
G1 X100.351 Y69.139 E.01834
G1 X100.351 Y65.627 E.1268
G1 X99.843 Y65.627 E.01834
G1 X99.843 Y69.139 E.1268
G1 X99.335 Y69.139 E.01834
G1 X99.335 Y65.627 E.1268
G1 X98.827 Y65.627 E.01834
G1 X98.827 Y69.139 E.1268
G1 X98.319 Y69.139 E.01834
G1 X98.319 Y65.627 E.1268
G1 X97.811 Y65.627 E.01834
G1 X97.811 Y69.139 E.1268
G1 X97.303 Y69.139 E.01834
G1 X97.303 Y65.627 E.1268
G1 X96.795 Y65.627 E.01834
G1 X96.795 Y69.139 E.1268
G1 X96.288 Y69.139 E.01834
G1 X96.288 Y65.627 E.1268
G1 X95.78 Y65.627 E.01834
G1 X95.78 Y69.139 E.1268
G1 X95.272 Y69.139 E.01834
G1 X95.272 Y65.627 E.1268
G1 X94.764 Y65.627 E.01834
G1 X94.764 Y69.139 E.1268
G1 X94.256 Y69.139 E.01834
G1 X94.256 Y65.627 E.1268
G1 X93.748 Y65.627 E.01834
G1 X93.748 Y69.139 E.1268
G1 X93.24 Y69.139 E.01834
G1 X93.24 Y65.627 E.1268
G1 X92.733 Y65.627 E.01834
G1 X92.733 Y69.139 E.1268
G1 X92.225 Y69.139 E.01834
G1 X92.225 Y65.627 E.1268
G1 X91.717 Y65.627 E.01834
G1 X91.717 Y69.139 E.1268
G1 X91.209 Y69.139 E.01834
G1 X91.209 Y65.627 E.1268
G1 X90.701 Y65.627 E.01834
G1 X90.701 Y69.139 E.1268
G1 X90.193 Y69.139 E.01834
G1 X90.193 Y65.627 E.1268
G1 X89.685 Y65.627 E.01834
G1 X89.685 Y69.139 E.1268
G1 X89.177 Y69.139 E.01834
G1 X89.177 Y65.627 E.1268
G1 X88.67 Y65.627 E.01834
G1 X88.67 Y69.139 E.1268
G1 X88.162 Y69.139 E.01834
G1 X88.162 Y65.627 E.1268
G1 X87.654 Y65.627 E.01834
G1 X87.654 Y69.139 E.1268
G1 X87.146 Y69.139 E.01834
G1 X87.146 Y65.627 E.1268
G1 X86.638 Y65.627 E.01834
G1 X86.638 Y69.139 E.1268
G1 X86.13 Y69.139 E.01834
G1 X86.13 Y65.627 E.1268
G1 X85.622 Y65.627 E.01834
G1 X85.622 Y69.139 E.1268
G1 X85.115 Y69.139 E.01834
G1 X85.115 Y65.627 E.1268
G1 X84.607 Y65.627 E.01834
G1 X84.607 Y69.139 E.1268
G1 X84.099 Y69.139 E.01834
G1 X84.099 Y65.627 E.1268
G1 X83.591 Y65.627 E.01834
G1 X83.591 Y69.139 E.1268
G1 X83.083 Y69.139 E.01834
G1 X83.083 Y65.627 E.1268
G1 X82.575 Y65.627 E.01834
G1 X82.575 Y69.139 E.1268
G1 X82.067 Y69.139 E.01834
G1 X82.067 Y65.627 E.1268
G1 X81.56 Y65.627 E.01834
G1 X81.56 Y69.139 E.1268
G1 X81.052 Y69.139 E.01834
G1 X81.052 Y65.627 E.1268
G1 X80.544 Y65.627 E.01834
G1 X80.544 Y69.139 E.1268
G1 X80.036 Y69.139 E.01834
G1 X80.036 Y65.421 E.13423
G1 E-1.2 F2400
;WIPE_START
G1 F1800
G1 X80.036 Y67.421
;WIPE_END
G1 X83.279 Y69.433 Z.4 F9000
G1 X174.784 Y126.214 Z.4
G1 Z.2
G1 E1.2 F1800
G1 X170.45 Y126.214 E.15649
G1 X170.45 Y93.786 E1.17083
G1 X174.784 Y93.786 E.15649
G1 X174.784 Y126.145 E1.16836
G1 X173.991 Y126.008 F9000
G1 F1800
G1 X173.991 Y94.198 E1.14855
G1 X173.483 Y94.198 E.01834
G1 X173.483 Y125.802 E1.14113
G1 X172.975 Y125.802 E.01834
G1 X172.975 Y94.198 E1.14113
G1 X172.468 Y94.198 E.01834
G1 X172.468 Y125.802 E1.14113
G1 X171.96 Y125.802 E.01834
M73 P0 R275
G1 X171.96 Y94.198 E1.14113
G1 X171.452 Y94.198 E.01834
G1 X171.452 Y125.802 E1.14113
G1 X170.944 Y125.802 E.01834
G1 X170.944 Y93.992 E1.14855
G1 E-1.2 F2400
;WIPE_START
G1 F9000
G1 X170.944 Y95.992
;WIPE_END
G1 X167.209 Y95.207 Z.4
G1 X51.357 Y70.857 Z.4
G1 Z.2
G1 E1.2 F1800
;TYPE:Inner wall
;WIDTH:0.499999
G1 X169.143 Y70.857 E4.25277
G1 X169.143 Y149.143 E2.82659
G1 X50.857 Y149.143 E4.27082
G1 X50.857 Y70.857 E2.82659
G1 X51.317 Y70.857 E.01661
G1 E-1.2 F2400
;WIPE_START
G1 F9000
G1 X53.317 Y70.857
;WIPE_END
G1 X50.4 Y70.4 Z.4
G1 Z.2
G1 E1.2 F1800
;TYPE:Outer wall
G1 X169.6 Y70.4 E4.30383
G1 X169.6 Y149.6 E2.85959
G1 X50.4 Y149.6 E4.30383
G1 X50.4 Y70.44 E2.85815
G1 E-1.2 F2400
;WIPE_START
G1 F9000
G1 X52.4 Y70.439
;WIPE_END
G1 X168.081 Y70.994 Z.4
G1 Z.4
G1 Z.2
G1 E1.2 F1800
;TYPE:Bottom surface
;WIDTH:0.500589
G1 F4800
G1 X168.8 Y71.714 E.03679
G1 X168.8 Y72.361 E.0234
G1 X167.639 Y71.2 E.05936
G1 X166.992 Y71.2 E.0234
G1 X168.8 Y73.008 E.09246
G1 X168.8 Y73.655 E.0234
G1 X166.345 Y71.2 E.12555
G1 X165.697 Y71.2 E.0234
G1 X168.8 Y74.303 E.15864
G1 X168.8 Y74.95 E.0234
G1 X165.05 Y71.2 E.19173
G1 X164.403 Y71.2 E.0234
G1 X168.8 Y75.597 E.22482
G1 X168.8 Y76.244 E.0234
G1 X163.756 Y71.2 E.25791
G1 X163.108 Y71.2 E.0234
G1 X168.8 Y76.892 E.29101
G1 X168.8 Y77.539 E.0234
G1 X162.461 Y71.2 E.3241
G1 X161.814 Y71.2 E.0234
G1 X168.8 Y78.186 E.35719
G1 X168.8 Y78.833 E.0234
G1 X161.167 Y71.2 E.39028
G1 X160.519 Y71.2 E.0234
G1 X168.8 Y79.481 E.42337
G1 X168.8 Y80.128 E.0234
G1 X159.872 Y71.2 E.45647
G1 X159.225 Y71.2 E.0234
G1 X168.8 Y80.775 E.48956
G1 X168.8 Y81.422 E.0234
G1 X158.578 Y71.2 E.52265
G1 X157.93 Y71.2 E.0234
G1 X168.8 Y82.07 E.55574
G1 X168.8 Y82.717 E.0234
G1 X157.283 Y71.2 E.58883
G1 X156.636 Y71.2 E.0234
G1 X168.8 Y83.364 E.62192
G1 X168.8 Y84.011 E.0234
G1 X155.989 Y71.2 E.65502
G1 X155.341 Y71.2 E.0234
G1 X168.8 Y84.659 E.68811
G1 X168.8 Y85.306 E.0234
G1 X154.694 Y71.2 E.7212
G1 X154.047 Y71.2 E.0234
G1 X168.8 Y85.953 E.75429
G1 X168.8 Y86.6 E.0234
G1 X153.4 Y71.2 E.78738
G1 X152.752 Y71.2 E.0234
G1 X168.8 Y87.248 E.82048
G1 X168.8 Y87.895 E.0234
G1 X152.105 Y71.2 E.85357
G1 X151.458 Y71.2 E.0234
G1 X168.8 Y88.542 E.88666
G1 X168.8 Y89.189 E.0234
G1 X150.811 Y71.2 E.91975
G1 X150.164 Y71.2 E.0234
G1 X168.8 Y89.836 E.95284
G1 X168.8 Y90.484 E.0234
G1 X149.516 Y71.2 E.98593
G1 X148.869 Y71.2 E.0234
G1 X168.8 Y91.131 E1.01903
G1 X168.8 Y91.778 E.0234
G1 X148.222 Y71.2 E1.05212
G1 X147.575 Y71.2 E.0234
G1 X168.8 Y92.425 E1.08521
G1 X168.8 Y93.073 E.0234
G1 X146.927 Y71.2 E1.1183
G1 X146.28 Y71.2 E.0234
G1 X168.8 Y93.72 E1.15139
G1 X168.8 Y94.367 E.0234
G1 X145.633 Y71.2 E1.18449
G1 X144.986 Y71.2 E.0234
G1 X168.8 Y95.014 E1.21758
G1 X168.8 Y95.662 E.0234
G1 X144.338 Y71.2 E1.25067
G1 X143.691 Y71.2 E.0234
G1 X168.8 Y96.309 E1.28376
G1 X168.8 Y96.956 E.0234
G1 X143.044 Y71.2 E1.31685
G1 X142.397 Y71.2 E.0234
G1 X168.8 Y97.603 E1.34994
G1 X168.8 Y98.251 E.0234
G1 X141.749 Y71.2 E1.38304
G1 X141.102 Y71.2 E.0234
G1 X168.8 Y98.898 E1.41613
G1 X168.8 Y99.545 E.0234
G1 X140.455 Y71.2 E1.44922
G1 X139.808 Y71.2 E.0234
G1 X168.8 Y100.192 E1.48231
G1 X168.8 Y100.84 E.0234
G1 X139.16 Y71.2 E1.5154
G1 X138.513 Y71.2 E.0234
G1 X168.8 Y101.487 E1.5485
G1 X168.8 Y102.134 E.0234
G1 X137.866 Y71.2 E1.58159
G1 X137.219 Y71.2 E.0234
G1 X168.8 Y102.781 E1.61468
G1 X168.8 Y103.429 E.0234
G1 X136.571 Y71.2 E1.64777
G1 X135.924 Y71.2 E.0234
G1 X168.8 Y104.076 E1.68086
G1 X168.8 Y104.723 E.0234
G1 X135.277 Y71.2 E1.71395
G1 X134.63 Y71.2 E.0234
G1 X168.8 Y105.37 E1.74705
G1 X168.8 Y106.018 E.0234
G1 X133.982 Y71.2 E1.78014
G1 X133.335 Y71.2 E.0234
G1 X168.8 Y106.665 E1.81323
G1 X168.8 Y107.312 E.0234
G1 X132.688 Y71.2 E1.84632
G1 X132.041 Y71.2 E.0234
G1 X168.8 Y107.959 E1.87941
G1 X168.8 Y108.607 E.0234
G1 X131.393 Y71.2 E1.91251
G1 X130.746 Y71.2 E.0234
M73 P0 R274
G1 X168.8 Y109.254 E1.9456
G1 X168.8 Y109.901 E.0234
G1 X130.099 Y71.2 E1.97869
G1 X129.452 Y71.2 E.0234
G1 X168.8 Y110.548 E2.01178
G1 X168.8 Y111.195 E.0234
G1 X128.805 Y71.2 E2.04487
G1 X128.157 Y71.2 E.0234
G1 X168.8 Y111.843 E2.07796
G1 X168.8 Y112.49 E.0234
G1 X127.51 Y71.2 E2.11106
G1 X126.863 Y71.2 E.0234
G1 X168.8 Y113.137 E2.14415
G1 X168.8 Y113.784 E.0234
G1 X126.216 Y71.2 E2.17724
G1 X125.568 Y71.2 E.0234
G1 X168.8 Y114.432 E2.21033
G1 X168.8 Y115.079 E.0234
G1 X124.921 Y71.2 E2.24342
G1 X124.274 Y71.2 E.0234
G1 X168.8 Y115.726 E2.27652
G1 X168.8 Y116.373 E.0234
G1 X123.627 Y71.2 E2.30961
G1 X122.979 Y71.2 E.0234
G1 X168.8 Y117.021 E2.3427
G1 X168.8 Y117.668 E.0234
G1 X122.332 Y71.2 E2.37579
G1 X121.685 Y71.2 E.0234
G1 X168.8 Y118.315 E2.40888
G1 X168.8 Y118.962 E.0234
G1 X121.038 Y71.2 E2.44197
G1 X120.39 Y71.2 E.0234
G1 X168.8 Y119.61 E2.47507
G1 X168.8 Y120.257 E.0234
G1 X119.743 Y71.2 E2.50816
G1 X119.096 Y71.2 E.0234
G1 X168.8 Y120.904 E2.54125
G1 X168.8 Y121.551 E.0234
G1 X118.449 Y71.2 E2.57434
G1 X117.801 Y71.2 E.0234
G1 X168.8 Y122.199 E2.60743
G1 X168.8 Y122.846 E.0234
G1 X117.154 Y71.2 E2.64053
G1 X116.507 Y71.2 E.0234
G1 X168.8 Y123.493 E2.67362
G1 X168.8 Y124.14 E.0234
G1 X115.86 Y71.2 E2.70671
G1 X115.212 Y71.2 E.0234
G1 X168.8 Y124.788 E2.7398
G1 X168.8 Y125.435 E.0234
G1 X114.565 Y71.2 E2.77289
G1 X113.918 Y71.2 E.0234
G1 X168.8 Y126.082 E2.80598
G1 X168.8 Y126.729 E.0234
G1 X113.271 Y71.2 E2.83908
G1 X112.623 Y71.2 E.0234
G1 X168.8 Y127.377 E2.87217
G1 X168.8 Y128.024 E.0234
G1 X111.976 Y71.2 E2.90526
G1 X111.329 Y71.2 E.0234
G1 X168.8 Y128.671 E2.93835
G1 X168.8 Y129.318 E.0234
G1 X110.682 Y71.2 E2.97144
G1 X110.035 Y71.2 E.0234
G1 X168.8 Y129.965 E3.00454
G1 X168.8 Y130.613 E.0234
G1 X109.387 Y71.2 E3.03763
G1 X108.74 Y71.2 E.0234
G1 X168.8 Y131.26 E3.07072
G1 X168.8 Y131.907 E.0234
G1 X108.093 Y71.2 E3.10381
G1 X107.446 Y71.2 E.0234
G1 X168.8 Y132.554 E3.1369
G1 X168.8 Y133.202 E.0234
G1 X106.798 Y71.2 E3.16999
G1 X106.151 Y71.2 E.0234
G1 X168.8 Y133.849 E3.20309
G1 X168.8 Y134.496 E.0234
G1 X105.504 Y71.2 E3.23618
G1 X104.857 Y71.2 E.0234
G1 X168.8 Y135.143 E3.26927
G1 X168.8 Y135.791 E.0234
G1 X104.209 Y71.2 E3.30236
G1 X103.562 Y71.2 E.0234
G1 X168.8 Y136.438 E3.33545
G1 X168.8 Y137.085 E.0234
G1 X102.915 Y71.2 E3.36855
G1 X102.268 Y71.2 E.0234
G1 X168.8 Y137.732 E3.40164
G1 X168.8 Y138.38 E.0234
