;TIME:18645.06
;Filament used:40.48132m
;Layer height:0.200
; HEADER_BLOCK_START
; generated by Creality_Print V6.3.0.3420 on 2026-04-05 at 14:01:22
; total layer number: 575
; filament_density: 1.24
; filament_diameter: 1.75
; max_z_height: 96.40
; creality_uuid: f2e3a391-bbc7-41b9-b58d-e0bcc83dcae7
; HEADER_BLOCK_END

; MINX = 53.00
; MINY = 73.00
; MINZ = 0.00
; MAXX = 167.00
; MAXY = 147.00
; MAXZ = 96.50

; multicolor_method = 0 
; THUMBNAIL_BLOCK_START

;
; THUMBNAIL_BLOCK_END

; THUMBNAIL_BLOCK_START

;
; THUMBNAIL_BLOCK_END

; external perimeters extrusion width = 0.42mm
; perimeters extrusion width = 0.45mm
; infill extrusion width = 0.45mm
; solid infill extrusion width = 0.42mm
; top infill extrusion width = 0.42mm
; support material extrusion width = 0.40mm
; first layer extrusion width = 0.50mm

; EXECUTABLE_BLOCK_START
M73 P0 R310
M201 X5000 Y5000 Z500 E5000
M203 X500 Y500 Z30 E100
M204 P5000 R2500 T5000 ; sets acceleration (P, T) and retract acceleration (R), mm/sec^2
M205 X10.00 Y10.00 Z0.40 E5.00 ; sets the jerk limits, mm/sec
; max_print_temp = 50,190
;TYPE:Custom
M220 S100 ;Reset Feedrate 
M221 S100 ;Reset Flowrate 
 
M140 S50 ;Set final bed temp 
G28 ;Home 
 
G92 E0 ;Reset Extruder 
G1 Z2.0 F3000 ;Move Z Axis up 
M104 S190 ;Set final nozzle temp 
G1 X-2.1 Y20 Z0.28 F5000.0 ;Move to start position 
M190 S50 ;Wait for bed temp to stabilize 
M109 S190 ;Wait for nozzle temp to stabilize 
G1 X-2.1 Y145.0 Z0.28 F1500.0 E15 ;Draw the first line 
G1 X-2.4 Y145.0 Z0.28 F5000.0 ;Move to side a little 
G1 X-2.4 Y20 Z0.28 F1500.0 E30 ;Draw the second line 
G92 E0  ;Reset Extruder 
G1 E-1.0000 F1800 ;Retract a bit 
G1 Z2.0 F3000 ;Move Z Axis up 
G1 E0.0000 F1800
G90
G21
M83 ; use relative distances for extrusion
;filament start gcode
G1 E-1.2 F2400
G1 Z.2 F9000
M106 S0
;LAYER_CHANGE
;Z:0.2
;HEIGHT:0.2
;BEFORE_LAYER_CHANGE
;0.2
G92 E0

;_SET_FAN_SPEED_CHANGING_LAYER
M204 P500
M205 X10 Y10
; printing object 02_internal_chassis.stl id:0 copy 0
M204 T500
G1 X165.643 Y146.143 Z.4 F9000
G1 Z.2
G1 E1.2 F1800
;TYPE:Inner wall
;WIDTH:0.499999
G1 X53.857 Y146.143 E4.03613
G1 X53.857 Y73.857 E2.60995
G1 X166.142 Y73.857 E4.05414
G1 X166.143 Y146.143 E2.60995
G1 X165.683 Y146.143 E.01661
G1 E-1.2 F2400
;WIPE_START
G1 F9000
G1 X163.683 Y146.143
;WIPE_END
G1 X166.6 Y146.6 Z.4
G1 Z.2
G1 E1.2 F1800
;TYPE:Outer wall
G1 X53.4 Y146.6 E4.08719
G1 X53.4 Y73.4 E2.64296
G1 X166.599 Y73.4 E4.08714
G1 X166.6 Y146.56 E2.64151
G1 E-1.2 F2400
;WIPE_START
G1 F9000
G1 X164.6 Y146.561
;WIPE_END
G1 X166.004 Y74.921 Z.4
G1 Z.4
G1 Z.2
G1 E1.2 F1800
;TYPE:Bottom surface
;WIDTH:0.501327
G1 F4800
G1 X165.283 Y74.2 E.03693
G1 X164.635 Y74.2 E.02347
G1 X165.799 Y75.364 E.05959
G1 X165.799 Y76.012 E.02348
G1 X163.987 Y74.2 E.09279
G1 X163.338 Y74.2 E.02347
G1 X165.799 Y76.66 E.12599
G1 X165.799 Y77.309 E.02348
G1 X162.69 Y74.2 E.15919
G1 X162.042 Y74.2 E.02347
G1 X165.799 Y77.957 E.19239
G1 X165.799 Y78.605 E.02348
G1 X161.394 Y74.2 E.22559
G1 X160.745 Y74.2 E.02347
G1 X165.799 Y79.253 E.25879
G1 X165.799 Y79.902 E.02348
G1 X160.097 Y74.2 E.29199
G1 X159.449 Y74.2 E.02347
G1 X165.799 Y80.55 E.32519
G1 X165.799 Y81.198 E.02348
G1 X158.8 Y74.2 E.35839
G1 X158.152 Y74.2 E.02347
G1 X165.799 Y81.847 E.39159
G1 X165.799 Y82.495 E.02348
G1 X157.504 Y74.2 E.42479
G1 X156.856 Y74.2 E.02347
G1 X165.799 Y83.143 E.45799
G1 X165.799 Y83.791 E.02348
G1 X156.207 Y74.2 E.49119
G1 X155.559 Y74.2 E.02347
G1 X165.799 Y84.44 E.52438
G1 X165.799 Y85.088 E.02348
G1 X154.911 Y74.2 E.55758
G1 X154.262 Y74.2 E.02347
G1 X165.799 Y85.736 E.59078
G1 X165.799 Y86.385 E.02348
G1 X153.614 Y74.2 E.62398
G1 X152.966 Y74.2 E.02347
G1 X165.799 Y87.033 E.65718
G1 X165.799 Y87.681 E.02348
G1 X152.318 Y74.2 E.69038
G1 X151.669 Y74.2 E.02347
G1 X165.799 Y88.33 E.72358
G1 X165.799 Y88.978 E.02348
G1 X151.021 Y74.2 E.75678
G1 X150.373 Y74.2 E.02347
G1 X165.799 Y89.626 E.78998
G1 X165.799 Y90.274 E.02348
G1 X149.724 Y74.2 E.82318
G1 X149.076 Y74.2 E.02347
G1 X165.799 Y90.923 E.85638
G1 X165.799 Y91.571 E.02348
M73 P0 R309
G1 X148.428 Y74.2 E.88958
G1 X147.78 Y74.2 E.02347
G1 X165.799 Y92.219 E.92278
G1 X165.799 Y92.868 E.02348
G1 X147.131 Y74.2 E.95597
G1 X146.483 Y74.2 E.02347
G1 X165.799 Y93.516 E.98917
G1 X165.799 Y94.164 E.02348
G1 X145.835 Y74.2 E1.02237
G1 X145.186 Y74.2 E.02347
G1 X165.799 Y94.813 E1.05557
G1 X165.799 Y95.461 E.02348
G1 X144.538 Y74.2 E1.08877
G1 X143.89 Y74.2 E.02347
G1 X165.799 Y96.109 E1.12197
G1 X165.799 Y96.757 E.02348
G1 X143.242 Y74.2 E1.15517
G1 X142.593 Y74.2 E.02347
G1 X165.799 Y97.406 E1.18837
G1 X165.799 Y98.054 E.02348
G1 X141.945 Y74.2 E1.22157
G1 X141.297 Y74.2 E.02347
G1 X165.799 Y98.702 E1.25477
G1 X165.799 Y99.351 E.02348
G1 X140.648 Y74.2 E1.28797
G1 X140 Y74.2 E.02347
G1 X165.799 Y99.999 E1.32117
G1 X165.799 Y100.647 E.02348
G1 X139.352 Y74.2 E1.35437
G1 X138.704 Y74.2 E.02347
G1 X165.799 Y101.296 E1.38757
G1 X165.799 Y101.944 E.02348
G1 X138.055 Y74.2 E1.42076
G1 X137.407 Y74.2 E.02347
G1 X165.799 Y102.592 E1.45396
G1 X165.799 Y103.24 E.02348
G1 X136.759 Y74.2 E1.48716
G1 X136.11 Y74.2 E.02347
G1 X165.799 Y103.889 E1.52036
G1 X165.799 Y104.537 E.02348
G1 X135.462 Y74.2 E1.55356
G1 X134.814 Y74.2 E.02347
G1 X165.799 Y105.185 E1.58676
G1 X165.799 Y105.834 E.02348
G1 X134.166 Y74.2 E1.61996
G1 X133.517 Y74.2 E.02347
G1 X165.799 Y106.482 E1.65316
G1 X165.799 Y107.13 E.02348
G1 X132.869 Y74.2 E1.68636
G1 X132.221 Y74.2 E.02347
G1 X165.799 Y107.779 E1.71956
G1 X165.799 Y108.427 E.02348
G1 X131.572 Y74.2 E1.75276
G1 X130.924 Y74.2 E.02347
G1 X165.799 Y109.075 E1.78596
G1 X165.799 Y109.723 E.02348
G1 X130.276 Y74.2 E1.81916
G1 X129.628 Y74.2 E.02347
G1 X165.799 Y110.372 E1.85236
G1 X165.799 Y111.02 E.02348
G1 X128.979 Y74.2 E1.88555
G1 X128.331 Y74.2 E.02347
G1 X165.799 Y111.668 E1.91875
G1 X165.799 Y112.317 E.02348
G1 X127.683 Y74.2 E1.95195
G1 X127.034 Y74.2 E.02347
G1 X165.799 Y112.965 E1.98515
G1 X165.799 Y113.613 E.02348
G1 X126.386 Y74.2 E2.01835
G1 X125.738 Y74.2 E.02347
G1 X165.799 Y114.261 E2.05155
G1 X165.8 Y114.91 E.02348
G1 X125.09 Y74.2 E2.08475
G1 X124.441 Y74.2 E.02347
G1 X165.8 Y115.558 E2.11795
G1 X165.8 Y116.206 E.02348
G1 X123.793 Y74.2 E2.15115
G1 X123.145 Y74.2 E.02347
G1 X165.8 Y116.855 E2.18435
G1 X165.8 Y117.503 E.02348
G1 X122.496 Y74.2 E2.21755
G1 X121.848 Y74.2 E.02347
G1 X165.8 Y118.151 E2.25075
G1 X165.8 Y118.8 E.02348
G1 X121.2 Y74.2 E2.28395
G1 X120.552 Y74.2 E.02347
G1 X165.8 Y119.448 E2.31714
G1 X165.8 Y120.096 E.02348
G1 X119.903 Y74.2 E2.35034
G1 X119.255 Y74.2 E.02347
G1 X165.8 Y120.744 E2.38354
G1 X165.8 Y121.393 E.02348
G1 X118.607 Y74.2 E2.41674
G1 X117.958 Y74.2 E.02347
G1 X165.8 Y122.041 E2.44994
G1 X165.8 Y122.689 E.02348
G1 X117.31 Y74.2 E2.48314
G1 X116.662 Y74.2 E.02347
G1 X165.8 Y123.338 E2.51634
G1 X165.8 Y123.986 E.02348
G1 X116.014 Y74.2 E2.54954
G1 X115.365 Y74.2 E.02347
G1 X165.8 Y124.634 E2.58274
G1 X165.8 Y125.283 E.02348
G1 X114.717 Y74.2 E2.61594
G1 X114.069 Y74.2 E.02347
G1 X165.8 Y125.931 E2.64914
G1 X165.8 Y126.579 E.02348
G1 X113.42 Y74.2 E2.68234
G1 X112.772 Y74.2 E.02347
G1 X165.8 Y127.227 E2.71554
G1 X165.8 Y127.876 E.02348
G1 X112.124 Y74.2 E2.74874
G1 X111.476 Y74.2 E.02347
G1 X165.8 Y128.524 E2.78193
G1 X165.8 Y129.172 E.02348
G1 X110.827 Y74.2 E2.81513
G1 X110.179 Y74.2 E.02347
G1 X165.8 Y129.821 E2.84833
G1 X165.8 Y130.469 E.02348
G1 X109.531 Y74.2 E2.88153
G1 X108.882 Y74.2 E.02347
G1 X165.8 Y131.117 E2.91473
G1 X165.8 Y131.766 E.02348
G1 X108.234 Y74.2 E2.94793
G1 X107.586 Y74.2 E.02347
G1 X165.8 Y132.414 E2.98113
G1 X165.8 Y133.062 E.02348
G1 X106.938 Y74.2 E3.01433
G1 X106.289 Y74.2 E.02347
G1 X165.8 Y133.71 E3.04753
G1 X165.8 Y134.359 E.02348
G1 X105.641 Y74.2 E3.08073
G1 X104.993 Y74.2 E.02347
G1 X165.8 Y135.007 E3.11393
G1 X165.8 Y135.655 E.02348
G1 X104.344 Y74.2 E3.14713
G1 X103.696 Y74.2 E.02347
G1 X165.8 Y136.304 E3.18033
G1 X165.8 Y136.952 E.02348
M73 P0 R308
G1 X103.048 Y74.2 E3.21353
G1 X102.4 Y74.2 E.02347
G1 X165.8 Y137.6 E3.24672
G1 X165.8 Y138.249 E.02348
G1 X101.751 Y74.2 E3.27992
G1 X101.103 Y74.2 E.02347
G1 X165.8 Y138.897 E3.31312
G1 X165.8 Y139.545 E.02348
G1 X100.455 Y74.2 E3.34632
G1 X99.806 Y74.2 E.02347
G1 X165.8 Y140.193 E3.37952
G1 X165.8 Y140.842 E.02348
G1 X99.158 Y74.2 E3.41272
G1 X98.51 Y74.2 E.02347
G1 X165.8 Y141.49 E3.44592
G1 X165.8 Y142.138 E.02348
G1 X97.862 Y74.2 E3.47912
G1 X97.213 Y74.2 E.02347
G1 X165.8 Y142.787 E3.51232
G1 X165.8 Y143.435 E.02348
G1 X96.565 Y74.2 E3.54552
G1 X95.917 Y74.2 E.02347
G1 X165.8 Y144.083 E3.57872
G1 X165.8 Y144.731 E.02348
G1 X95.268 Y74.2 E3.61192
G1 X94.62 Y74.2 E.02347
G1 X165.8 Y145.38 E3.64512
G1 X165.8 Y145.8 E.01522
G1 X165.572 Y145.8 E.00825
G1 X93.972 Y74.2 E3.66664
G1 X93.324 Y74.2 E.02347
G1 X164.924 Y145.8 E3.66664
G1 X164.276 Y145.8 E.02347
G1 X92.675 Y74.2 E3.66664
G1 X92.027 Y74.2 E.02347
G1 X163.627 Y145.8 E3.66664
G1 X162.979 Y145.8 E.02347
G1 X91.379 Y74.2 E3.66664
G1 X90.73 Y74.2 E.02347
G1 X162.331 Y145.8 E3.66664
G1 X161.682 Y145.8 E.02347
G1 X90.082 Y74.2 E3.66664
G1 X89.434 Y74.2 E.02347
G1 X161.034 Y145.8 E3.66664
G1 X160.386 Y145.8 E.02347
G1 X88.786 Y74.2 E3.66664
G1 X88.137 Y74.2 E.02347
G1 X159.738 Y145.8 E3.66664
G1 X159.089 Y145.8 E.02347
G1 X87.489 Y74.2 E3.66664
G1 X86.841 Y74.2 E.02347
G1 X158.441 Y145.8 E3.66664
G1 X157.793 Y145.8 E.02347
G1 X86.192 Y74.2 E3.66664
G1 X85.544 Y74.2 E.02347
G1 X157.144 Y145.8 E3.66664
G1 X156.496 Y145.8 E.02347
G1 X84.896 Y74.2 E3.66664
G1 X84.248 Y74.2 E.02347
G1 X155.848 Y145.8 E3.66664
G1 X155.2 Y145.8 E.02347
G1 X83.599 Y74.2 E3.66664
G1 X82.951 Y74.2 E.02347
G1 X154.551 Y145.8 E3.66664
G1 X153.903 Y145.8 E.02347
G1 X82.303 Y74.2 E3.66664
G1 X81.654 Y74.2 E.02347
G1 X153.255 Y145.8 E3.66664
G1 X152.606 Y145.8 E.02347
G1 X81.006 Y74.2 E3.66664
G1 X80.358 Y74.2 E.02347
G1 X151.958 Y145.8 E3.66664
G1 X151.31 Y145.8 E.02347
G1 X79.71 Y74.2 E3.66664
G1 X79.061 Y74.2 E.02347
G1 X150.662 Y145.8 E3.66664
G1 X150.013 Y145.8 E.02347
G1 X78.413 Y74.2 E3.66664
G1 X77.765 Y74.2 E.02347
G1 X149.365 Y145.8 E3.66664
G1 X148.717 Y145.8 E.02347
G1 X77.116 Y74.2 E3.66664
G1 X76.468 Y74.2 E.02347
G1 X148.068 Y145.8 E3.66664
G1 X147.42 Y145.8 E.02347
G1 X75.82 Y74.2 E3.66664
G1 X75.172 Y74.2 E.02347
M73 P0 R307
G1 X146.772 Y145.8 E3.66664
G1 X146.124 Y145.8 E.02347
G1 X74.523 Y74.2 E3.66664
G1 X73.875 Y74.2 E.02347
G1 X145.475 Y145.8 E3.66664
G1 X144.827 Y145.8 E.02347
G1 X73.227 Y74.2 E3.66664
G1 X72.578 Y74.2 E.02347
G1 X144.179 Y145.8 E3.66664
G1 X143.53 Y145.8 E.02347
G1 X71.93 Y74.2 E3.66664
G1 X71.282 Y74.2 E.02347
G1 X142.882 Y145.8 E3.66664
G1 X142.234 Y145.8 E.02347
G1 X70.634 Y74.2 E3.66664
G1 X69.985 Y74.2 E.02347
G1 X141.586 Y145.8 E3.66664
G1 X140.937 Y145.8 E.02347
G1 X69.337 Y74.2 E3.66664
G1 X68.689 Y74.2 E.02347
G1 X140.289 Y145.8 E3.66664
G1 X139.641 Y145.8 E.02347
G1 X68.04 Y74.2 E3.66664
G1 X67.392 Y74.2 E.02347
G1 X138.992 Y145.8 E3.66664
G1 X138.344 Y145.8 E.02347
G1 X66.744 Y74.2 E3.66664
G1 X66.096 Y74.2 E.02347
G1 X137.696 Y145.8 E3.66664
G1 X137.048 Y145.8 E.02347
M73 P1 R307
G1 X65.447 Y74.2 E3.66664
G1 X64.799 Y74.2 E.02347
G1 X136.399 Y145.8 E3.66664
G1 X135.751 Y145.8 E.02347
G1 X64.151 Y74.2 E3.66664
G1 X63.502 Y74.2 E.02347
G1 X135.103 Y145.8 E3.66664
G1 X134.454 Y145.8 E.02347
G1 X62.854 Y74.2 E3.66664
G1 X62.206 Y74.2 E.02347
G1 X133.806 Y145.8 E3.66664
G1 X133.158 Y145.8 E.02347
G1 X61.558 Y74.2 E3.66664
G1 X60.909 Y74.2 E.02347
G1 X132.51 Y145.8 E3.66664
G1 X131.861 Y145.8 E.02347
G1 X60.261 Y74.2 E3.66664
G1 X59.613 Y74.2 E.02347
G1 X131.213 Y145.8 E3.66664
G1 X130.565 Y145.8 E.02347
G1 X58.964 Y74.2 E3.66664
G1 X58.316 Y74.2 E.02347
G1 X129.916 Y145.8 E3.66664
G1 X129.268 Y145.8 E.02347
G1 X57.668 Y74.2 E3.66664
G1 X57.02 Y74.2 E.02347
G1 X128.62 Y145.8 E3.66664
G1 X127.972 Y145.8 E.02347
G1 X56.371 Y74.2 E3.66664
G1 X55.723 Y74.2 E.02347
G1 X127.323 Y145.8 E3.66664
G1 X126.675 Y145.8 E.02347
G1 X55.075 Y74.2 E3.66664
G1 X54.426 Y74.2 E.02347
G1 X126.027 Y145.8 E3.66664
G1 X125.378 Y145.8 E.02347
G1 X54.2 Y74.622 E3.64505
G1 X54.2 Y75.27 E.02347
G1 X124.73 Y145.8 E3.61185
G1 X124.082 Y145.8 E.02347
G1 X54.2 Y75.918 E3.57865
G1 X54.2 Y76.566 E.02347
G1 X123.434 Y145.8 E3.54545
G1 X122.785 Y145.8 E.02347
G1 X54.2 Y77.215 E3.51225
G1 X54.2 Y77.863 E.02347
G1 X122.137 Y145.8 E3.47905
G1 X121.489 Y145.8 E.02347
G1 X54.2 Y78.511 E3.44586
G1 X54.2 Y79.16 E.02347
G1 X120.84 Y145.8 E3.41266
G1 X120.192 Y145.8 E.02347
G1 X54.2 Y79.808 E3.37946
G1 X54.2 Y80.456 E.02347
G1 X119.544 Y145.8 E3.34626
G1 X118.896 Y145.8 E.02347
M73 P1 R306
G1 X54.2 Y81.104 E3.31306
G1 X54.2 Y81.753 E.02347
G1 X118.247 Y145.8 E3.27986
G1 X117.599 Y145.8 E.02347
G1 X54.2 Y82.401 E3.24666
G1 X54.2 Y83.049 E.02347
G1 X116.951 Y145.8 E3.21347
G1 X116.302 Y145.8 E.02347
G1 X54.2 Y83.698 E3.18027
G1 X54.2 Y84.346 E.02347
G1 X115.654 Y145.8 E3.14707
G1 X115.006 Y145.8 E.02347
G1 X54.2 Y84.994 E3.11387
G1 X54.2 Y85.642 E.02347
G1 X114.358 Y145.8 E3.08067
G1 X113.709 Y145.8 E.02347
G1 X54.2 Y86.291 E3.04747
G1 X54.2 Y86.939 E.02347
G1 X113.061 Y145.8 E3.01427
G1 X112.413 Y145.8 E.02347
G1 X54.2 Y87.587 E2.98107
G1 X54.2 Y88.236 E.02347
G1 X111.764 Y145.8 E2.94788
G1 X111.116 Y145.8 E.02347
G1 X54.2 Y88.884 E2.91468
G1 X54.2 Y89.532 E.02347
G1 X110.468 Y145.8 E2.88148
G1 X109.82 Y145.8 E.02347
G1 X54.2 Y90.18 E2.84828
G1 X54.2 Y90.829 E.02347
G1 X109.171 Y145.8 E2.81508
G1 X108.523 Y145.8 E.02347
G1 X54.2 Y91.477 E2.78188
G1 X54.2 Y92.125 E.02347
G1 X107.875 Y145.8 E2.74868
G1 X107.226 Y145.8 E.02347
G1 X54.2 Y92.774 E2.71549
G1 X54.2 Y93.422 E.02347
G1 X106.578 Y145.8 E2.68229
G1 X105.93 Y145.8 E.02347
G1 X54.2 Y94.07 E2.64909
G1 X54.2 Y94.718 E.02347
G1 X105.282 Y145.8 E2.61589
G1 X104.633 Y145.8 E.02347
G1 X54.2 Y95.367 E2.58269
G1 X54.2 Y96.015 E.02347
G1 X103.985 Y145.8 E2.54949
G1 X103.337 Y145.8 E.02347
G1 X54.2 Y96.663 E2.51629
G1 X54.2 Y97.312 E.02347
G1 X102.688 Y145.8 E2.4831
G1 X102.04 Y145.8 E.02347
G1 X54.2 Y97.96 E2.4499
G1 X54.2 Y98.608 E.02347
G1 X101.392 Y145.8 E2.4167
G1 X100.744 Y145.8 E.02347
G1 X54.2 Y99.256 E2.3835
G1 X54.2 Y99.905 E.02347
G1 X100.095 Y145.8 E2.3503
G1 X99.447 Y145.8 E.02347
G1 X54.2 Y100.553 E2.3171
G1 X54.2 Y101.201 E.02347
G1 X98.799 Y145.8 E2.2839
G1 X98.15 Y145.8 E.02347
G1 X54.2 Y101.85 E2.2507
G1 X54.2 Y102.498 E.02347
G1 X97.502 Y145.8 E2.21751
G1 X96.854 Y145.8 E.02347
G1 X54.2 Y103.146 E2.18431
G1 X54.2 Y103.794 E.02347
G1 X96.206 Y145.8 E2.15111
G1 X95.557 Y145.8 E.02347
G1 X54.2 Y104.443 E2.11791
G1 X54.2 Y105.091 E.02347
G1 X94.909 Y145.8 E2.08471
G1 X94.261 Y145.8 E.02347
G1 X54.2 Y105.739 E2.05151
G1 X54.2 Y106.388 E.02347
G1 X93.612 Y145.8 E2.01831
G1 X92.964 Y145.8 E.02347
G1 X54.2 Y107.036 E1.98512
G1 X54.2 Y107.684 E.02347
G1 X92.316 Y145.8 E1.95192
G1 X91.668 Y145.8 E.02347
G1 X54.2 Y108.332 E1.91872
G1 X54.2 Y108.981 E.02347
G1 X91.019 Y145.8 E1.88552
G1 X90.371 Y145.8 E.02347
G1 X54.2 Y109.629 E1.85232
G1 X54.2 Y110.277 E.02347
G1 X89.723 Y145.8 E1.81912
G1 X89.074 Y145.8 E.02347
G1 X54.2 Y110.926 E1.78592
G1 X54.2 Y111.574 E.02347
G1 X88.426 Y145.8 E1.75273
G1 X87.778 Y145.8 E.02347
G1 X54.2 Y112.222 E1.71953
G1 X54.2 Y112.87 E.02347
G1 X87.13 Y145.8 E1.68633
G1 X86.481 Y145.8 E.02347
G1 X54.2 Y113.519 E1.65313
G1 X54.2 Y114.167 E.02347
G1 X85.833 Y145.8 E1.61993
G1 X85.185 Y145.8 E.02347
G1 X54.2 Y114.815 E1.58673
G1 X54.2 Y115.464 E.02347
G1 X84.536 Y145.8 E1.55353
G1 X83.888 Y145.8 E.02347
G1 X54.2 Y116.112 E1.52034
G1 X54.2 Y116.76 E.02347
G1 X83.24 Y145.8 E1.48714
G1 X82.592 Y145.8 E.02347
G1 X54.2 Y117.408 E1.45394
G1 X54.2 Y118.057 E.02347
G1 X81.943 Y145.8 E1.42074
G1 X81.295 Y145.8 E.02347
G1 X54.2 Y118.705 E1.38754
G1 X54.2 Y119.353 E.02347
G1 X80.647 Y145.8 E1.35434
G1 X79.998 Y145.8 E.02347
G1 X54.2 Y120.002 E1.32114
G1 X54.2 Y120.65 E.02347
G1 X79.35 Y145.8 E1.28794
G1 X78.702 Y145.8 E.02347
G1 X54.2 Y121.298 E1.25475
G1 X54.2 Y121.946 E.02347
M73 P1 R305
G1 X78.054 Y145.8 E1.22155
G1 X77.405 Y145.8 E.02347
G1 X54.2 Y122.595 E1.18835
G1 X54.2 Y123.243 E.02347
G1 X76.757 Y145.8 E1.15515
G1 X76.109 Y145.8 E.02347
G1 X54.2 Y123.891 E1.12195
G1 X54.2 Y124.54 E.02347
