;TIME:1792.02
;Filament used:4.14580m
;Layer height:0.200
; HEADER_BLOCK_START
; generated by Creality_Print V6.3.0.3420 on 2026-04-04 at 20:14:39
; total layer number: 68
; filament_density: 1.24
; filament_diameter: 1.75
; max_z_height: 10.00
; creality_uuid: f3dfd2e1-7ae1-47ad-ac47-cfbbd94d2400
; HEADER_BLOCK_END

; MINX = 65.50
; MINY = 80.00
; MINZ = 0.00
; MAXX = 154.50
; MAXY = 140.00
; MAXZ = 10.00

; multicolor_method = 0 
; THUMBNAIL_BLOCK_START

;
; THUMBNAIL_BLOCK_END

; THUMBNAIL_BLOCK_START

;
; THUMBNAIL_BLOCK_END

; external perimeters extrusion width = 0.42mm
; perimeters extrusion width = 0.45mm
; infill extrusion width = 0.45mm
; solid infill extrusion width = 0.42mm
; top infill extrusion width = 0.42mm
; support material extrusion width = 0.40mm
; first layer extrusion width = 0.50mm

; EXECUTABLE_BLOCK_START
M73 P0 R29
M201 X5000 Y5000 Z500 E5000
M203 X500 Y500 Z30 E100
M204 P5000 R2500 T5000 ; sets acceleration (P, T) and retract acceleration (R), mm/sec^2
M205 X10.00 Y10.00 Z0.40 E5.00 ; sets the jerk limits, mm/sec
; max_print_temp = 50,190
;TYPE:Custom
M220 S100 ;Reset Feedrate 
M221 S100 ;Reset Flowrate 
 
M140 S50 ;Set final bed temp 
G28 ;Home 
 
G92 E0 ;Reset Extruder 
G1 Z2.0 F3000 ;Move Z Axis up 
M104 S190 ;Set final nozzle temp 
G1 X-2.1 Y20 Z0.28 F5000.0 ;Move to start position 
M190 S50 ;Wait for bed temp to stabilize 
M109 S190 ;Wait for nozzle temp to stabilize 
G1 X-2.1 Y145.0 Z0.28 F1500.0 E15 ;Draw the first line 
G1 X-2.4 Y145.0 Z0.28 F5000.0 ;Move to side a little 
G1 X-2.4 Y20 Z0.28 F1500.0 E30 ;Draw the second line 
G92 E0  ;Reset Extruder 
G1 E-1.0000 F1800 ;Retract a bit 
G1 Z2.0 F3000 ;Move Z Axis up 
G1 E0.0000 F1800
G90
G21
M83 ; use relative distances for extrusion
;filament start gcode
G1 E-1.2 F2400
G1 Z.2 F9000
M106 S0
;LAYER_CHANGE
;Z:0.2
;HEIGHT:0.2
;BEFORE_LAYER_CHANGE
;0.2
G92 E0

;_SET_FAN_SPEED_CHANGING_LAYER
M204 P500
M205 X10 Y10
; printing object 03_raspberry_mount.stl id:15 copy 0
M204 T500
G1 X65.05 Y123.357 Z.4 F9000
G1 Z.2
G1 E1.2 F1800
;TYPE:Support
;WIDTH:0.5
G1 X62.358 Y123.357 E.09719
G1 X62.358 Y96.643 E.96452
G1 X65.05 Y96.643 E.09719
G1 X65.05 Y123.288 E.96204
G1 X64.292 Y123.151 F9000
G1 F1800
G1 X64.292 Y97.055 E.94224
G1 X63.784 Y97.055 E.01834
G1 X63.784 Y122.945 E.93481
G1 X63.276 Y122.945 E.01834
G1 X63.276 Y96.849 E.94224
G1 E-1.2 F2400
;WIPE_START
G1 F1800
G1 X63.276 Y98.849
;WIPE_END
G1 X66.97 Y99.808 Z.4 F9000
G1 X157.642 Y123.357 Z.4
G1 Z.2
G1 E1.2 F1800
G1 X154.95 Y123.357 E.09719
G1 X154.95 Y96.643 E.96452
G1 X157.642 Y96.643 E.09719
M73 P1 R29
G1 X157.642 Y123.288 E.96204
G1 X156.724 Y123.151 F9000
G1 F1800
G1 X156.724 Y97.055 E.94224
G1 X156.216 Y97.055 E.01834
G1 X156.216 Y122.945 E.93481
G1 X155.708 Y122.945 E.01834
G1 X155.708 Y96.849 E.94224
G1 E-1.2 F2400
;WIPE_START
G1 F9000
G1 X155.708 Y98.849
;WIPE_END
G1 X151.968 Y98.092 Z.4
G1 X66.857 Y80.857 Z.4
G1 Z.2
G1 E1.2 F1800
;TYPE:Inner wall
;WIDTH:0.499999
G1 X153.643 Y80.857 E3.13349
G1 X153.643 Y139.143 E2.10447
G1 X66.357 Y139.143 E3.15154
G1 X66.357 Y80.857 E2.10447
G1 X66.817 Y80.857 E.01661
G1 E-1.2 F2400
;WIPE_START
G1 F9000
G1 X68.817 Y80.857
;WIPE_END
G1 X65.9 Y80.4 Z.4
G1 Z.2
G1 E1.2 F1800
;TYPE:Outer wall
G1 X154.1 Y80.4 E3.18455
G1 X154.1 Y139.6 E2.13747
M73 P2 R29
G1 X65.9 Y139.6 E3.18455
G1 X65.9 Y80.44 E2.13603
G1 E-1.2 F2400
;WIPE_START
G1 F9000
G1 X67.9 Y80.439
;WIPE_END
G1 X70.993 Y82.674 Z.4
G1 X140.101 Y132.602 Z.4
G1 Z.2
G1 E1.2 F1800
;TYPE:Inner wall
G1 X140.494 Y132.879 E.01738
G1 X140.863 Y133.321 E.02078
G1 X141.104 Y133.843 E.02078
G1 X141.203 Y134.411 E.02078
G1 X141.151 Y134.984 E.02078
G1 X140.952 Y135.524 E.02078
G1 X140.621 Y135.994 E.02078
G1 X140.179 Y136.363 E.02078
G1 X139.657 Y136.604 E.02078
G1 X139.089 Y136.703 E.02078
G1 X138.516 Y136.651 E.02078
G1 X137.976 Y136.452 E.02078
G1 X137.506 Y136.121 E.02078
G1 X137.137 Y135.679 E.02078
G1 X136.896 Y135.157 E.02078
G1 X136.797 Y134.589 E.02078
G1 X136.849 Y134.016 E.02078
G1 X137.048 Y133.476 E.02078
G1 X137.379 Y133.006 E.02078
G1 X137.86 Y132.609 E.02251
G1 X138.343 Y132.396 E.01907
G1 X138.911 Y132.297 E.02078
G1 X139.484 Y132.349 E.02078
G1 X140.024 Y132.548 E.02078
G1 X140.068 Y132.579 E.00195
G1 X139.457 Y132.814 F9000
;TYPE:Outer wall
G1 F1800
G1 X139.482 Y132.818 E.00089
G1 X139.901 Y133 E.01649
G1 X140.258 Y133.284 E.01649
G1 X140.53 Y133.651 E.01649
G1 X140.698 Y134.076 E.01649
G1 X140.75 Y134.53 E.01649
G1 X140.682 Y134.982 E.01649
G1 X140.5 Y135.401 E.01649
G1 X140.216 Y135.758 E.01649
G1 X139.849 Y136.03 E.01649
G1 X139.424 Y136.198 E.01649
G1 X138.97 Y136.25 E.01649
G1 X138.518 Y136.182 E.01649
G1 X138.099 Y136 E.01649
G1 X137.742 Y135.716 E.01649
G1 X137.47 Y135.349 E.01649
G1 X137.302 Y134.924 E.01649
G1 X137.25 Y134.47 E.01649
G1 X137.318 Y134.018 E.01649
G1 X137.5 Y133.599 E.01649
G1 X137.766 Y133.257 E.01567
G1 X138.151 Y132.97 E.01733
G1 X138.576 Y132.802 E.01649
G1 X139.03 Y132.75 E.01649
G1 X139.418 Y132.808 E.01415
G1 E-1.2 F2400
;WIPE_START
G1 F9000
G1 X139.482 Y132.818
G1 X139.901 Y133
G1 X140.258 Y133.284
G1 X140.53 Y133.651
G1 X140.698 Y134.076
G1 X140.71 Y134.183
;WIPE_END
G1 X140.421 Y130.378 Z.4
G1 X137.099 Y86.597 Z.4
G1 Z.2
G1 E1.2 F1800
;TYPE:Inner wall
G1 X136.896 Y86.157 E.01752
G1 X136.797 Y85.589 E.02078
G1 X136.849 Y85.016 E.02078
G1 X137.048 Y84.476 E.02078
G1 X137.379 Y84.006 E.02078
G1 X137.821 Y83.637 E.02078
G1 X138.343 Y83.396 E.02078
G1 X138.911 Y83.297 E.02078
G1 X139.484 Y83.349 E.02078
G1 X140.024 Y83.548 E.02078
G1 X140.494 Y83.879 E.02078
G1 X140.863 Y84.321 E.02078
G1 X141.104 Y84.843 E.02078
G1 X141.203 Y85.411 E.02078
G1 X141.151 Y85.984 E.02078
G1 X140.952 Y86.524 E.02078
G1 X140.621 Y86.994 E.02078
G1 X140.179 Y87.363 E.02078
G1 X139.657 Y87.604 E.02078
G1 X139.089 Y87.703 E.02078
G1 X138.516 Y87.651 E.02078
G1 X137.976 Y87.452 E.02078
G1 X137.506 Y87.121 E.02078
G1 X137.137 Y86.679 E.02078
G1 X137.116 Y86.633 E.00181
G1 X137.766 Y86.735 F9000
;TYPE:Outer wall
G1 F1800
G1 X137.742 Y86.716 E.0011
G1 X137.47 Y86.349 E.01649
G1 X137.302 Y85.924 E.01649
G1 X137.25 Y85.47 E.01649
G1 X137.318 Y85.018 E.01649
G1 X137.5 Y84.599 E.01649
G1 X137.784 Y84.242 E.01649
G1 X138.151 Y83.97 E.01649
G1 X138.576 Y83.802 E.01649
G1 X139.03 Y83.75 E.01649
G1 X139.482 Y83.818 E.01649
G1 X139.901 Y84 E.01649
G1 X140.258 Y84.284 E.01649
G1 X140.53 Y84.651 E.01649
G1 X140.698 Y85.076 E.01649
G1 X140.75 Y85.53 E.01649
G1 X140.682 Y85.982 E.01649
G1 X140.5 Y86.401 E.01649
G1 X140.216 Y86.758 E.01649
G1 X139.849 Y87.03 E.01649
G1 X139.424 Y87.198 E.01649
G1 X138.97 Y87.25 E.01649
G1 X138.518 Y87.182 E.01649
G1 X138.139 Y87.025 E.01484
G1 X137.797 Y86.759 E.01561
G1 E-1.2 F2400
;WIPE_START
G1 F9000
G1 X137.742 Y86.716
G1 X137.47 Y86.349
G1 X137.302 Y85.924
G1 X137.25 Y85.47
G1 X137.318 Y85.018
G1 X137.359 Y84.924
;WIPE_END
G1 X133.542 Y84.927 Z.4
G1 X78.867 Y84.967 Z.4
G1 Z.2
G1 E1.2 F1800
;TYPE:Inner wall
G1 X79.048 Y84.476 E.01887
G1 X79.379 Y84.006 E.02078
G1 X79.821 Y83.637 E.02078
G1 X80.343 Y83.396 E.02078
G1 X80.911 Y83.297 E.02078
G1 X81.484 Y83.349 E.02078
G1 X82.024 Y83.548 E.02078
G1 X82.494 Y83.879 E.02078
G1 X82.863 Y84.321 E.02078
G1 X83.104 Y84.843 E.02078
G1 X83.203 Y85.411 E.02078
G1 X83.151 Y85.984 E.02078
G1 X82.952 Y86.524 E.02078
G1 X82.621 Y86.994 E.02078
G1 X82.179 Y87.363 E.02078
G1 X81.657 Y87.604 E.02078
G1 X81.089 Y87.703 E.02078
G1 X80.516 Y87.651 E.02078
G1 X79.976 Y87.452 E.02078
G1 X79.506 Y87.121 E.02078
G1 X79.137 Y86.679 E.02078
G1 X78.896 Y86.157 E.02078
G1 X78.797 Y85.589 E.02078
G1 X78.849 Y85.016 E.02078
G1 X78.854 Y85.004 E.00046
G1 X79.255 Y85.496 F9000
;TYPE:Outer wall
G1 F1800
G1 X79.318 Y85.018 E.01738
G1 X79.5 Y84.599 E.01649
G1 X79.784 Y84.242 E.01649
G1 X80.151 Y83.97 E.01649
G1 X80.576 Y83.802 E.01649
G1 X81.03 Y83.75 E.01649
G1 X81.482 Y83.818 E.01649
G1 X81.901 Y84 E.01649
G1 X82.258 Y84.284 E.01649
G1 X82.53 Y84.651 E.01649
G1 X82.698 Y85.076 E.01649
G1 X82.75 Y85.53 E.01649
G1 X82.682 Y85.982 E.01649
G1 X82.5 Y86.401 E.01649
G1 X82.216 Y86.758 E.01649
G1 X81.849 Y87.03 E.01649
G1 X81.424 Y87.198 E.01649
G1 X80.97 Y87.25 E.01649
G1 X80.518 Y87.182 E.01649
G1 X80.099 Y87 E.01649
G1 X79.742 Y86.716 E.01649
G1 X79.47 Y86.349 E.01649
G1 X79.302 Y85.924 E.01649
G1 X79.251 Y85.535 E.01416
G1 E-1.2 F2400
;WIPE_START
G1 F9000
G1 X79.318 Y85.018
G1 X79.5 Y84.599
G1 X79.784 Y84.242
G1 X80.151 Y83.97
G1 X80.252 Y83.93
;WIPE_END
G1 X80.228 Y87.746 Z.4
G1 X79.921 Y136.413 Z.4
G1 Z.2
G1 E1.2 F1800
;TYPE:Inner wall
G1 X79.506 Y136.121 E.01834
G1 X79.137 Y135.679 E.02078
G1 X78.896 Y135.157 E.02078
G1 X78.797 Y134.589 E.02078
G1 X78.849 Y134.016 E.02078
G1 X79.048 Y133.476 E.02078
G1 X79.379 Y133.006 E.02078
G1 X79.821 Y132.637 E.02078
G1 X80.343 Y132.396 E.02078
G1 X80.911 Y132.297 E.02078
G1 X81.484 Y132.349 E.02078
G1 X82.024 Y132.548 E.02078
G1 X82.494 Y132.879 E.02078
G1 X82.863 Y133.321 E.02078
G1 X83.104 Y133.843 E.02078
G1 X83.203 Y134.411 E.02078
G1 X83.151 Y134.984 E.02078
G1 X82.952 Y135.524 E.02078
G1 X82.621 Y135.994 E.02078
G1 X82.179 Y136.363 E.02078
G1 X81.657 Y136.604 E.02078
G1 X81.089 Y136.703 E.02078
G1 X80.516 Y136.651 E.02078
G1 X79.976 Y136.452 E.02078
G1 X79.954 Y136.436 E.00099
G1 X80.531 Y136.179 F9000
;TYPE:Outer wall
G1 F1800
G1 X80.099 Y136 E.01685
G1 X79.742 Y135.716 E.01649
G1 X79.47 Y135.349 E.01649
G1 X79.302 Y134.924 E.01649
G1 X79.25 Y134.47 E.01649
G1 X79.318 Y134.018 E.01649
G1 X79.5 Y133.599 E.01649
G1 X79.784 Y133.242 E.01649
G1 X80.151 Y132.97 E.01649
G1 X80.576 Y132.802 E.01649
G1 X81.03 Y132.75 E.01649
G1 X81.482 Y132.818 E.01649
G1 X81.901 Y133 E.01649
G1 X82.258 Y133.284 E.01649
G1 X82.53 Y133.651 E.01649
G1 X82.698 Y134.076 E.01649
G1 X82.75 Y134.53 E.01649
G1 X82.682 Y134.982 E.01649
G1 X82.5 Y135.401 E.01649
G1 X82.216 Y135.758 E.01649
G1 X81.849 Y136.03 E.01649
G1 X81.424 Y136.198 E.01649
G1 X80.97 Y136.25 E.01649
G1 X80.576 Y136.198 E.01435
G1 X80.568 Y136.194 E.00033
G1 E-1.2 F2400
;WIPE_START
G1 F9000
G1 X80.099 Y136
G1 X79.742 Y135.716
G1 X79.47 Y135.349
G1 X79.302 Y134.924
G1 X79.288 Y134.802
;WIPE_END
G1 X152.58 Y80.994 Z.4
G1 Z.4
G1 Z.2
G1 E1.2 F1800
;TYPE:Bottom surface
;WIDTH:0.501007
G1 F4800
G1 X153.3 Y81.715 E.03687
G1 X153.3 Y82.362 E.02344
G1 X152.138 Y81.2 E.05949
G1 X151.49 Y81.2 E.02344
G1 X153.3 Y83.01 E.09265
G1 X153.3 Y83.658 E.02344
G1 X150.842 Y81.2 E.1258
G1 X150.194 Y81.2 E.02344
G1 X153.3 Y84.306 E.15895
G1 X153.3 Y84.954 E.02344
G1 X149.546 Y81.2 E.1921
G1 X148.898 Y81.2 E.02344
G1 X153.3 Y85.602 E.22526
G1 X153.3 Y86.249 E.02344
G1 X148.251 Y81.2 E.25841
G1 X147.603 Y81.2 E.02344
G1 X153.3 Y86.897 E.29156
G1 X153.3 Y87.545 E.02344
G1 X146.955 Y81.2 E.32471
G1 X146.307 Y81.2 E.02344
G1 X153.3 Y88.193 E.35786
G1 X153.3 Y88.841 E.02344
G1 X145.659 Y81.2 E.39102
G1 X145.011 Y81.2 E.02344
G1 X153.3 Y89.489 E.42417
G1 X153.3 Y90.136 E.02344
M73 P2 R28
G1 X144.364 Y81.2 E.45732
G1 X143.716 Y81.2 E.02344
G1 X153.3 Y90.784 E.49047
G1 X153.3 Y91.432 E.02344
G1 X143.068 Y81.2 E.52363
G1 X142.42 Y81.2 E.02344
G1 X153.3 Y92.08 E.55678
G1 X153.3 Y92.728 E.02344
M73 P3 R28
G1 X141.772 Y81.2 E.58993
G1 X141.124 Y81.2 E.02344
G1 X153.3 Y93.376 E.62308
G1 X153.3 Y94.023 E.02344
G1 X140.477 Y81.2 E.65623
G1 X139.829 Y81.2 E.02344
G1 X153.3 Y94.671 E.68939
G1 X153.3 Y95.319 E.02344
G1 X139.181 Y81.2 E.72254
G1 X138.533 Y81.2 E.02344
G1 X153.3 Y95.967 E.75569
G1 X153.3 Y96.615 E.02344
G1 X141.431 Y84.746 E.60738
G1 X141.424 Y84.719 E.001
G2 X139.754 Y83.069 I-2.421 J.78 E.08831
G1 X137.885 Y81.2 E.09564
G1 X137.237 Y81.2 E.02344
G1 X138.994 Y82.956 E.08989
G2 X138.41 Y83.021 I.287 J5.306 E.02126
G1 X136.59 Y81.2 E.09317
G1 X135.942 Y81.2 E.02344
G1 X137.935 Y83.194 E.10202
G2 X137.526 Y83.432 I.766 J1.788 E.01719
G1 X135.294 Y81.2 E.11421
G1 X134.646 Y81.2 E.02344
G1 X137.175 Y83.728 E.12939
G2 X136.885 Y84.087 I1.216 J1.279 E.01672
G1 X133.998 Y81.2 E.14773
G1 X133.35 Y81.2 E.02344
G1 X136.662 Y84.511 E.16947
G2 X136.506 Y85.003 I2.001 J.907 E.01871
G1 X132.703 Y81.2 E.19462
G1 X132.055 Y81.2 E.02344
G1 X136.698 Y85.843 E.2376
G1 E-1.2 F2400
;WIPE_START
G1 F9000
G1 X135.284 Y84.429
;WIPE_END
G1 X139.062 Y84.963 Z.4
G1 X141.319 Y85.282 Z.4
G1 Z.2
G1 E1.2 F1800
G1 F4800
G1 X153.3 Y97.263 E.61312
G1 X153.3 Y97.91 E.02344
G1 X141.48 Y86.09 E.60488
G3 X141.303 Y86.561 I-2.023 J-.493 E.01824
G1 X153.3 Y98.558 E.61395
G1 X153.3 Y99.206 E.02344
G1 X141.064 Y86.97 E.62618
G1 X140.832 Y87.277 E.01393
G1 X140.771 Y87.325 E.0028
G1 X153.3 Y99.854 E.64115
G1 X153.3 Y100.502 E.02344
G1 X140.413 Y87.614 E.6595
G3 X139.986 Y87.836 I-1.104 J-1.606 E.01743
G1 X153.3 Y101.15 E.68133
G1 X153.3 Y101.797 E.02344
G1 X139.491 Y87.989 E.70665
G1 X139.017 Y88.052 E.01731
G1 X138.893 Y88.038 E.00455
G1 X153.3 Y102.445 E.7373
G1 X153.3 Y103.093 E.02344
G1 X138.064 Y87.857 E.77971
G1 X137.715 Y87.705 E.01376
G1 X137.192 Y87.301 E.02392
G1 X136.831 Y86.84 E.02119
G3 X136.648 Y86.441 I1.486 J-.921 E.01594
G1 X131.407 Y81.2 E.2682
G1 X130.759 Y81.2 E.02344
G1 X153.3 Y103.741 E1.15352
G1 X153.3 Y104.389 E.02344
G1 X130.111 Y81.2 E1.18667
G1 X129.463 Y81.2 E.02344
G1 X153.3 Y105.037 E1.21982
G1 X153.3 Y105.684 E.02344
G1 X128.816 Y81.2 E1.25298
G1 X128.168 Y81.2 E.02344
G1 X153.3 Y106.332 E1.28613
G1 X153.3 Y106.98 E.02344
G1 X127.52 Y81.2 E1.31928
G1 X126.872 Y81.2 E.02344
G1 X153.3 Y107.628 E1.35243
G1 X153.3 Y108.276 E.02344
G1 X126.224 Y81.2 E1.38559
G1 X125.576 Y81.2 E.02344
G1 X153.3 Y108.924 E1.41874
G1 X153.3 Y109.571 E.02344
G1 X124.929 Y81.2 E1.45189
G1 X124.281 Y81.2 E.02344
G1 X153.3 Y110.219 E1.48504
G1 X153.3 Y110.867 E.02344
G1 X123.633 Y81.2 E1.51819
G1 X122.985 Y81.2 E.02344
G1 X153.3 Y111.515 E1.55135
G1 X153.3 Y112.163 E.02344
G1 X122.337 Y81.2 E1.5845
G1 X121.689 Y81.2 E.02344
G1 X153.3 Y112.811 E1.61765
G1 X153.3 Y113.458 E.02344
M73 P4 R28
G1 X121.042 Y81.2 E1.6508
G1 X120.394 Y81.2 E.02344
G1 X153.3 Y114.106 E1.68396
G1 X153.3 Y114.754 E.02344
G1 X119.746 Y81.2 E1.71711
G1 X119.098 Y81.2 E.02344
G1 X153.3 Y115.402 E1.75026
G1 X153.3 Y116.05 E.02344
G1 X118.45 Y81.2 E1.78341
G1 X117.802 Y81.2 E.02344
G1 X153.3 Y116.698 E1.81656
G1 X153.3 Y117.345 E.02344
G1 X117.155 Y81.2 E1.84972
G1 X116.507 Y81.2 E.02344
G1 X153.3 Y117.993 E1.88287
G1 X153.3 Y118.641 E.02344
G1 X115.859 Y81.2 E1.91602
G1 X115.211 Y81.2 E.02344
G1 X153.3 Y119.289 E1.94917
G1 X153.3 Y119.937 E.02344
G1 X114.563 Y81.2 E1.98233
G1 X113.915 Y81.2 E.02344
G1 X153.3 Y120.585 E2.01548
G1 X153.3 Y121.232 E.02344
G1 X113.268 Y81.2 E2.04863
G1 X112.62 Y81.2 E.02344
G1 X153.3 Y121.88 E2.08178
G1 X153.3 Y122.528 E.02344
G1 X111.972 Y81.2 E2.11494
G1 X111.324 Y81.2 E.02344
G1 X153.3 Y123.176 E2.14809
G1 X153.3 Y123.824 E.02344
G1 X110.676 Y81.2 E2.18124
G1 X110.028 Y81.2 E.02344
G1 X153.3 Y124.472 E2.21439
G1 X153.3 Y125.119 E.02344
G1 X109.381 Y81.2 E2.24754
G1 X108.733 Y81.2 E.02344
G1 X153.3 Y125.767 E2.2807
G1 X153.3 Y126.415 E.02344
G1 X108.085 Y81.2 E2.31385
G1 X107.437 Y81.2 E.02344
M73 P5 R28
G1 X153.3 Y127.063 E2.347
G1 X153.3 Y127.711 E.02344
G1 X106.789 Y81.2 E2.38015
G1 X106.141 Y81.2 E.02344
G1 X153.3 Y128.359 E2.41331
G1 X153.3 Y129.006 E.02344
G1 X105.494 Y81.2 E2.44646
G1 X104.846 Y81.2 E.02344
G1 X153.3 Y129.654 E2.47961
G1 X153.3 Y130.302 E.02344
G1 X104.198 Y81.2 E2.51276
G1 X103.55 Y81.2 E.02344
G1 X153.3 Y130.95 E2.54592
G1 X153.3 Y131.598 E.02344
G1 X102.902 Y81.2 E2.57907
G1 X102.254 Y81.2 E.02344
G1 X153.3 Y132.246 E2.61222
G1 X153.3 Y132.893 E.02344
G1 X101.607 Y81.2 E2.64537
G1 X100.959 Y81.2 E.02344
G1 X153.3 Y133.541 E2.67852
G1 X153.3 Y134.189 E.02344
G1 X100.311 Y81.2 E2.71168
G1 X99.663 Y81.2 E.02344
G1 X153.3 Y134.837 E2.74483
G1 X153.3 Y135.485 E.02344
G1 X99.015 Y81.2 E2.77798
G1 X98.367 Y81.2 E.02344
G1 X153.3 Y136.133 E2.81113
G1 X153.3 Y136.78 E.02344
G1 X97.72 Y81.2 E2.84429
G1 X97.072 Y81.2 E.02344
G1 X153.3 Y137.428 E2.87744
G1 X153.3 Y138.076 E.02344
M73 P6 R28
G1 X96.424 Y81.2 E2.91059
G1 X95.776 Y81.2 E.02344
G1 X153.3 Y138.724 E2.94374
G1 X153.3 Y138.8 E.00276
G1 X152.729 Y138.8 E.02068
G1 X95.128 Y81.2 E2.94764
G1 X94.48 Y81.2 E.02344
G1 X152.081 Y138.8 E2.94764
