;TIME:1894.79
;Filament used:3.19320m
;Layer height:0.200
; HEADER_BLOCK_START
; generated by Creality_Print V6.3.0.3420 on 2026-04-04 at 20:15:32
; total layer number: 42
; filament_density: 1.24
; filament_diameter: 1.75
; max_z_height: 7.00
; creality_uuid: ca6c2169-1a4e-45c3-ae7c-dc80e1a0d5a3
; HEADER_BLOCK_END

; MINX = 64.60
; MINY = 77.00
; MINZ = 0.00
; MAXX = 155.40
; MAXY = 143.00
; MAXZ = 7.00

; multicolor_method = 0 
; THUMBNAIL_BLOCK_START

;
; THUMBNAIL_BLOCK_END

; THUMBNAIL_BLOCK_START

;
; THUMBNAIL_BLOCK_END

; external perimeters extrusion width = 0.42mm
; perimeters extrusion width = 0.45mm
; infill extrusion width = 0.45mm
; solid infill extrusion width = 0.42mm
; top infill extrusion width = 0.42mm
; support material extrusion width = 0.40mm
; first layer extrusion width = 0.50mm

; EXECUTABLE_BLOCK_START
M73 P0 R31
M201 X5000 Y5000 Z500 E5000
M203 X500 Y500 Z30 E100
M204 P5000 R2500 T5000 ; sets acceleration (P, T) and retract acceleration (R), mm/sec^2
M205 X10.00 Y10.00 Z0.40 E5.00 ; sets the jerk limits, mm/sec
; max_print_temp = 50,190
;TYPE:Custom
M220 S100 ;Reset Feedrate 
M221 S100 ;Reset Flowrate 
 
M140 S50 ;Set final bed temp 
G28 ;Home 
 
G92 E0 ;Reset Extruder 
G1 Z2.0 F3000 ;Move Z Axis up 
M104 S190 ;Set final nozzle temp 
G1 X-2.1 Y20 Z0.28 F5000.0 ;Move to start position 
M190 S50 ;Wait for bed temp to stabilize 
M109 S190 ;Wait for nozzle temp to stabilize 
G1 X-2.1 Y145.0 Z0.28 F1500.0 E15 ;Draw the first line 
G1 X-2.4 Y145.0 Z0.28 F5000.0 ;Move to side a little 
G1 X-2.4 Y20 Z0.28 F1500.0 E30 ;Draw the second line 
G92 E0  ;Reset Extruder 
G1 E-1.0000 F1800 ;Retract a bit 
G1 Z2.0 F3000 ;Move Z Axis up 
G1 E0.0000 F1800
G90
G21
M83 ; use relative distances for extrusion
;filament start gcode
G1 E-1.2 F2400
G1 Z.2 F9000
M106 S0
;LAYER_CHANGE
;Z:0.2
;HEIGHT:0.2
;BEFORE_LAYER_CHANGE
;0.2
G92 E0

;_SET_FAN_SPEED_CHANGING_LAYER
M204 P500
M205 X10 Y10
; printing object 04_screen_mount.stl id:0 copy 0
M204 T500
G1 X66.55 Y76.814 Z.4 F9000
G1 Z.2
G1 E1.2 F1800
;TYPE:Support
;WIDTH:0.5
G1 X66.55 Y143.186 E2.39646
G1 X66.72 Y143.356 E.00868
G1 X62.358 Y143.356 E.15748
G1 X62.358 Y76.644 E2.40873
G1 X66.72 Y76.644 E.15748
G1 X66.598 Y76.765 E.0062
G1 X65.816 Y143.151 F9000
G1 F1800
G1 X65.816 Y77.055 E2.38645
G1 X65.308 Y77.055 E.01834
M73 P1 R31
G1 X65.308 Y142.945 E2.37902
G1 X64.8 Y142.945 E.01834
G1 X64.8 Y77.055 E2.37902
G1 X64.292 Y77.055 E.01834
G1 X64.292 Y142.945 E2.37902
G1 X63.784 Y142.945 E.01834
G1 X63.784 Y77.055 E2.37902
G1 X63.276 Y77.055 E.01834
G1 X63.276 Y143.151 E2.38645
G1 E-1.2 F2400
;WIPE_START
G1 F1800
G1 X63.276 Y141.151
;WIPE_END
G1 X66.944 Y140.095 Z.4 F9000
G1 X86.215 Y134.55 Z.4
G1 Z.2
G1 E1.2 F1800
G1 X81.998 Y134.55 E.15226
G3 X80.794 Y135.269 I-1.34 J-.877 E.0524
G3 X80.002 Y134.55 I.972 J-1.866 E.03904
G1 X75.45 Y134.55 E.16436
G1 X75.45 Y128.071 E.23393
G1 X86.215 Y128.071 E.38867
G1 X86.215 Y134.481 E.23145
G1 X85.622 Y134.344 F9000
G1 F1800
G1 X85.622 Y128.482 E.21165
G1 X85.115 Y128.482 E.01834
G1 X85.115 Y134.139 E.20422
G1 X84.607 Y134.139 E.01834
G1 X84.607 Y128.482 E.20422
G1 X84.099 Y128.482 E.01834
G1 X84.099 Y134.139 E.20422
G1 X83.591 Y134.139 E.01834
G1 X83.591 Y128.482 E.20422
G1 X83.083 Y128.482 E.01834
G1 X83.083 Y134.139 E.20422
G1 X82.575 Y134.139 E.01834
G1 X82.575 Y128.482 E.20422
G1 X82.067 Y128.482 E.01834
G1 X82.067 Y134.139 E.20422
G2 X81.56 Y134.348 I-.097 J.485 E.02103
G1 X81.56 Y128.482 E.21178
G1 X81.052 Y128.482 E.01834
G1 X81.052 Y134.874 E.23079
G3 X80.544 Y134.417 I-.022 J-.486 E.02735
G1 X80.544 Y128.482 E.21428
G1 X80.036 Y128.482 E.01834
G1 X80.036 Y134.139 E.20422
G1 X79.528 Y134.139 E.01834
G1 X79.528 Y128.482 E.20422
G1 X79.02 Y128.482 E.01834
M73 P1 R30
G1 X79.02 Y134.139 E.20422
G1 X78.512 Y134.139 E.01834
G1 X78.512 Y128.482 E.20422
G1 X78.004 Y128.482 E.01834
G1 X78.004 Y134.139 E.20422
G1 X77.497 Y134.139 E.01834
G1 X77.497 Y128.482 E.20422
G1 X76.989 Y128.482 E.01834
G1 X76.989 Y134.139 E.20422
G1 X76.481 Y134.139 E.01834
G1 X76.481 Y128.482 E.20422
G1 X75.973 Y128.482 E.01834
G1 X75.973 Y134.344 E.21165
G1 E-1.2 F2400
;WIPE_START
G1 F1800
G1 X75.973 Y132.344
;WIPE_END
G1 X76.39 Y128.551 Z.4 F9000
G1 X81.206 Y84.731 Z.4
G1 Z.2
G1 E1.2 F1800
G3 X81.998 Y85.45 I-.972 J1.866 E.03904
G1 X86.215 Y85.45 E.15226
G1 X86.215 Y91.929 E.23393
M73 P2 R30
G1 X75.45 Y91.929 E.38867
G1 X75.45 Y85.45 E.23393
G1 X80.002 Y85.45 E.16436
G3 X81.138 Y84.722 I1.393 J.923 E.05014
G1 X85.622 Y91.723 F9000
G1 F1800
G1 X85.622 Y85.861 E.21165
G1 X85.115 Y85.861 E.01834
G1 X85.115 Y91.518 E.20422
G1 X84.607 Y91.518 E.01834
G1 X84.607 Y85.861 E.20422
G1 X84.099 Y85.861 E.01834
G1 X84.099 Y91.518 E.20422
G1 X83.591 Y91.518 E.01834
G1 X83.591 Y85.861 E.20422
G1 X83.083 Y85.861 E.01834
G1 X83.083 Y91.518 E.20422
G1 X82.575 Y91.518 E.01834
G1 X82.575 Y85.861 E.20422
G1 X82.067 Y85.861 E.01834
G1 X82.067 Y91.518 E.20422
G1 X81.56 Y91.518 E.01834
G1 X81.56 Y85.652 E.21178
G2 X81.052 Y85.126 I-.809 J.272 E.02729
G1 X81.052 Y91.518 E.23079
G1 X80.544 Y91.518 E.01834
G1 X80.544 Y85.583 E.21428
G3 X80.036 Y85.861 I-.462 J-.241 E.02217
G1 X80.036 Y91.518 E.20422
G1 X79.528 Y91.518 E.01834
G1 X79.528 Y85.861 E.20422
G1 X79.02 Y85.861 E.01834
G1 X79.02 Y91.518 E.20422
G1 X78.512 Y91.518 E.01834
G1 X78.512 Y85.861 E.20422
G1 X78.004 Y85.861 E.01834
G1 X78.004 Y91.518 E.20422
G1 X77.497 Y91.518 E.01834
G1 X77.497 Y85.861 E.20422
G1 X76.989 Y85.861 E.01834
G1 X76.989 Y91.518 E.20422
G1 X76.481 Y91.518 E.01834
G1 X76.481 Y85.861 E.20422
G1 X75.973 Y85.861 E.01834
G1 X75.973 Y91.723 E.21165
G1 E-1.2 F2400
;WIPE_START
G1 F1800
G1 X75.973 Y89.723
;WIPE_END
G1 X79.777 Y89.423 Z.4 F9000
G1 X139.206 Y84.731 Z.4
G1 Z.2
G1 E1.2 F1800
G3 X139.998 Y85.45 I-.972 J1.866 E.03904
G1 X144.55 Y85.45 E.16436
G1 X144.55 Y91.929 E.23393
G1 X133.785 Y91.929 E.38867
G1 X133.785 Y85.45 E.23393
G1 X138.002 Y85.45 E.15226
G3 X139.138 Y84.722 I1.393 J.923 E.05014
G1 X144.027 Y91.723 F9000
G1 F1800
G1 X144.027 Y85.861 E.21165
G1 X143.519 Y85.861 E.01834
G1 X143.519 Y91.518 E.20422
G1 X143.011 Y91.518 E.01834
G1 X143.011 Y85.861 E.20422
G1 X142.503 Y85.861 E.01834
G1 X142.503 Y91.518 E.20422
G1 X141.996 Y91.518 E.01834
G1 X141.996 Y85.861 E.20422
G1 X141.488 Y85.861 E.01834
G1 X141.488 Y91.518 E.20422
G1 X140.98 Y91.518 E.01834
G1 X140.98 Y85.861 E.20422
G1 X140.472 Y85.861 E.01834
G1 X140.472 Y91.518 E.20422
G1 X139.964 Y91.518 E.01834
G1 X139.964 Y85.861 E.20422
G3 X139.456 Y85.583 I-.046 J-.519 E.02217
G1 X139.456 Y91.518 E.21428
G1 X138.948 Y91.518 E.01834
G1 X138.948 Y85.126 E.23079
G2 X138.44 Y85.652 I.301 J.798 E.02729
G1 X138.44 Y91.518 E.21178
G1 X137.933 Y91.518 E.01834
G1 X137.933 Y85.861 E.20422
G1 X137.425 Y85.861 E.01834
G1 X137.425 Y91.518 E.20422
G1 X136.917 Y91.518 E.01834
G1 X136.917 Y85.861 E.20422
G1 X136.409 Y85.861 E.01834
G1 X136.409 Y91.518 E.20422
G1 X135.901 Y91.518 E.01834
G1 X135.901 Y85.861 E.20422
G1 X135.393 Y85.861 E.01834
G1 X135.393 Y91.518 E.20422
G1 X134.885 Y91.518 E.01834
G1 X134.885 Y85.861 E.20422
G1 X134.378 Y85.861 E.01834
G1 X134.378 Y91.723 E.21165
G1 E-1.2 F2400
;WIPE_START
G1 F1800
G1 X134.378 Y89.723
;WIPE_END
G1 X135.222 Y93.445 Z.4 F9000
G1 X144.55 Y134.55 Z.4
G1 Z.2
G1 E1.2 F1800
G1 X139.998 Y134.55 E.16436
G3 X138.794 Y135.269 I-1.34 J-.877 E.0524
G3 X138.002 Y134.55 I.972 J-1.866 E.03904
G1 X133.785 Y134.55 E.15226
G1 X133.785 Y128.071 E.23393
G1 X144.55 Y128.071 E.38867
G1 X144.55 Y134.481 E.23145
G1 X144.027 Y134.344 F9000
G1 F1800
G1 X144.027 Y128.482 E.21165
G1 X143.519 Y128.482 E.01834
G1 X143.519 Y134.139 E.20422
G1 X143.011 Y134.139 E.01834
G1 X143.011 Y128.482 E.20422
G1 X142.503 Y128.482 E.01834
G1 X142.503 Y134.139 E.20422
G1 X141.996 Y134.139 E.01834
G1 X141.996 Y128.482 E.20422
G1 X141.488 Y128.482 E.01834
G1 X141.488 Y134.139 E.20422
G1 X140.98 Y134.139 E.01834
G1 X140.98 Y128.482 E.20422
G1 X140.472 Y128.482 E.01834
G1 X140.472 Y134.139 E.20422
G1 X139.964 Y134.139 E.01834
G1 X139.964 Y128.482 E.20422
G1 X139.456 Y128.482 E.01834
G1 X139.456 Y134.417 E.21428
G3 X138.948 Y134.874 I-.486 J-.029 E.02735
G1 X138.948 Y128.482 E.23079
G1 X138.44 Y128.482 E.01834
G1 X138.44 Y134.348 E.21178
G2 X137.933 Y134.139 I-.411 J.275 E.02103
G1 X137.933 Y128.482 E.20422
G1 X137.425 Y128.482 E.01834
G1 X137.425 Y134.139 E.20422
G1 X136.917 Y134.139 E.01834
M73 P3 R30
G1 X136.917 Y128.482 E.20422
G1 X136.409 Y128.482 E.01834
G1 X136.409 Y134.139 E.20422
G1 X135.901 Y134.139 E.01834
G1 X135.901 Y128.482 E.20422
G1 X135.393 Y128.482 E.01834
G1 X135.393 Y134.139 E.20422
G1 X134.885 Y134.139 E.01834
G1 X134.885 Y128.482 E.20422
G1 X134.378 Y128.482 E.01834
G1 X134.378 Y134.344 E.21165
G1 E-1.2 F2400
;WIPE_START
G1 F1800
G1 X134.378 Y132.344
;WIPE_END
G1 X137.827 Y133.977 Z.4 F9000
G1 X157.642 Y143.356 Z.4
G1 Z.2
G1 E1.2 F1800
G1 X153.28 Y143.356 E.15748
G1 X153.45 Y143.186 E.00868
G1 X153.45 Y76.814 E2.39646
G1 X153.28 Y76.644 E.00868
G1 X157.642 Y76.644 E.15748
G1 X157.642 Y143.288 E2.40625
G1 X156.724 Y143.151 F9000
G1 F1800
G1 X156.724 Y77.055 E2.38645
G1 X156.216 Y77.055 E.01834
G1 X156.216 Y142.945 E2.37902
G1 X155.708 Y142.945 E.01834
G1 X155.708 Y77.055 E2.37902
G1 X155.2 Y77.055 E.01834
G1 X155.2 Y142.945 E2.37902
G1 X154.692 Y142.945 E.01834
G1 X154.692 Y77.055 E2.37902
G1 X154.184 Y77.055 E.01834
G1 X154.184 Y143.151 E2.38645
G1 E-1.2 F2400
;WIPE_START
M73 P4 R30
G1 F9000
G1 X154.184 Y141.151
;WIPE_END
G1 X151.113 Y138.886 Z.4
G1 X68.357 Y77.857 Z.4
G1 Z.2
G1 E1.2 F1800
;TYPE:Inner wall
;WIDTH:0.499999
G1 X152.143 Y77.857 E3.02517
G1 X152.143 Y142.143 E2.3211
G1 X67.857 Y142.143 E3.04322
G1 X67.857 Y77.857 E2.3211
G1 X68.317 Y77.857 E.01661
G1 E-1.2 F2400
;WIPE_START
G1 F9000
G1 X70.317 Y77.857
;WIPE_END
G1 X67.4 Y77.4 Z.4
G1 Z.2
G1 E1.2 F1800
;TYPE:Outer wall
G1 X152.6 Y77.4 E3.07623
G1 X152.6 Y142.6 E2.35411
G1 X67.4 Y142.6 E3.07623
G1 X67.4 Y77.44 E2.35266
M73 P5 R29
G1 E-1.2 F2400
;WIPE_START
G1 F9000
G1 X69.4 Y77.439
;WIPE_END
G1 X73.201 Y77.778 Z.4
G1 X138.181 Y83.576 Z.4
G1 Z.2
G1 E1.2 F1800
;TYPE:Inner wall
G1 X138.513 Y83.45 E.01283
G1 X139.089 Y83.397 E.02089
G1 X139.631 Y83.492 E.01984
G1 X140.129 Y83.724 E.01984
G1 X140.561 Y84.091 E.02049
G1 X140.599 Y84.143 E.0023
G1 X145.171 Y84.143 E.16511
G1 X145.444 Y84.199 E.01004
G1 X145.656 Y84.344 E.00928
G1 X145.801 Y84.556 E.00928
G1 X145.857 Y84.829 E.01004
G1 X145.857 Y135.171 E1.81768
G1 X145.801 Y135.444 E.01004
G1 X145.656 Y135.656 E.00928
G1 X145.444 Y135.801 E.00928
G1 X145.171 Y135.857 E.01004
G1 X140.599 Y135.857 E.16511
G1 X140.424 Y136.05 E.00941
G1 X139.974 Y136.366 E.01984
G1 X139.487 Y136.55 E.0188
G1 X138.911 Y136.603 E.02089
G1 X138.369 Y136.508 E.01984
G1 X137.871 Y136.276 E.01984
G1 X137.439 Y135.909 E.02049
G1 X137.401 Y135.857 E.0023
G1 X82.599 Y135.857 E1.97871
G1 X82.424 Y136.05 E.00941
G1 X81.974 Y136.366 E.01984
G1 X81.487 Y136.55 E.0188
G1 X80.911 Y136.603 E.02089
G1 X80.369 Y136.508 E.01984
G1 X79.871 Y136.276 E.01984
G1 X79.439 Y135.909 E.02049
G1 X79.401 Y135.857 E.0023
G1 X74.829 Y135.857 E.16511
G1 X74.556 Y135.801 E.01004
G1 X74.344 Y135.656 E.00928
G1 X74.199 Y135.444 E.00928
G1 X74.143 Y135.171 E.01004
G1 X74.143 Y84.829 E1.81768
G1 X74.199 Y84.556 E.01004
G1 X74.344 Y84.344 E.00928
G1 X74.556 Y84.199 E.00928
G1 X74.829 Y84.143 E.01004
G1 X79.401 Y84.143 E.16511
G1 X79.576 Y83.95 E.00941
G1 X80.026 Y83.634 E.01984
G1 X80.513 Y83.45 E.0188
G1 X81.089 Y83.397 E.02089
G1 X81.631 Y83.492 E.01984
G1 X82.129 Y83.724 E.01984
G1 X82.561 Y84.091 E.02049
G1 X82.599 Y84.143 E.0023
G1 X137.401 Y84.143 E1.97871
G1 X137.576 Y83.95 E.00941
G1 X138.026 Y83.634 E.01984
G1 X138.143 Y83.59 E.00452
G1 E-1.2 F2400
;WIPE_START
G1 F9000
G1 X138.513 Y83.45
G1 X139.089 Y83.397
G1 X139.631 Y83.492
G1 X140.063 Y83.693
;WIPE_END
G1 X137.635 Y84.6 Z.4
G1 Z.2
G1 E1.2 F1800
;TYPE:Outer wall
G1 X137.855 Y84.313 E.01307
G1 X138.201 Y84.057 E.01555
G1 X138.602 Y83.899 E.01555
G1 X139.03 Y83.85 E.01555
G1 X139.456 Y83.914 E.01555
G1 X139.851 Y84.086 E.01555
G1 X140.191 Y84.36 E.01577
G1 X140.365 Y84.6 E.01072
G1 X145.171 Y84.6 E.17353
G1 X145.333 Y84.667 E.00632
G1 X145.4 Y84.829 E.00632
G1 X145.4 Y135.171 E1.81768
G1 X145.333 Y135.333 E.00632
G1 X145.171 Y135.4 E.00632
G1 X140.365 Y135.4 E.17353
G1 X140.145 Y135.687 E.01307
G1 X139.799 Y135.943 E.01555
G1 X139.398 Y136.101 E.01555
G1 X138.97 Y136.15 E.01555
G1 X138.544 Y136.086 E.01555
G1 X138.149 Y135.914 E.01555
G1 X137.809 Y135.64 E.01577
G1 X137.635 Y135.4 E.01072
G1 X82.365 Y135.4 E1.99554
G1 X82.145 Y135.687 E.01307
G1 X81.799 Y135.943 E.01555
G1 X81.398 Y136.101 E.01555
G1 X80.97 Y136.15 E.01555
G1 X80.544 Y136.086 E.01555
G1 X80.149 Y135.914 E.01555
G1 X79.809 Y135.64 E.01577
G1 X79.635 Y135.4 E.01072
G1 X74.829 Y135.4 E.17353
G1 X74.667 Y135.333 E.00632
G1 X74.6 Y135.171 E.00632
G1 X74.6 Y84.829 E1.81768
G1 X74.667 Y84.667 E.00632
M73 P6 R29
G1 X74.829 Y84.6 E.00632
G1 X79.635 Y84.6 E.17353
G1 X79.855 Y84.313 E.01307
G1 X80.201 Y84.057 E.01555
G1 X80.602 Y83.899 E.01555
G1 X81.03 Y83.85 E.01555
G1 X81.456 Y83.914 E.01555
G1 X81.851 Y84.086 E.01555
G1 X82.191 Y84.36 E.01577
G1 X82.365 Y84.6 E.01072
G1 X137.595 Y84.6 E1.9941
G1 E-1.2 F2400
;WIPE_START
G1 F9000
G1 X137.855 Y84.313
G1 X138.201 Y84.057
G1 X138.602 Y83.899
G1 X139.03 Y83.85
G1 X139.347 Y83.898
;WIPE_END
G1 X151.081 Y77.994 Z.4
G1 Z.4
G1 Z.2
G1 E1.2 F1800
;TYPE:Bottom surface
;WIDTH:0.500268
G1 F4800
G1 X151.8 Y78.713 E.03673
G1 X151.8 Y79.36 E.02337
G1 X150.64 Y78.2 E.05926
G1 X149.993 Y78.2 E.02337
G1 X151.8 Y80.007 E.09231
G1 X151.8 Y80.653 E.02337
G1 X149.347 Y78.2 E.12536
G1 X148.7 Y78.2 E.02337
G1 X151.8 Y81.3 E.1584
G1 X151.8 Y81.947 E.02337
G1 X148.053 Y78.2 E.19145
G1 X147.406 Y78.2 E.02337
G1 X151.8 Y82.594 E.22449
G1 X151.8 Y83.241 E.02337
G1 X146.759 Y78.2 E.25754
G1 X146.113 Y78.2 E.02337
G1 X151.8 Y83.887 E.29058
G1 X151.8 Y84.534 E.02337
G1 X145.466 Y78.2 E.32363
G1 X144.819 Y78.2 E.02337
G1 X151.8 Y85.181 E.35667
G1 X151.8 Y85.828 E.02337
G1 X144.172 Y78.2 E.38972
G1 X143.525 Y78.2 E.02337
G1 X151.8 Y86.475 E.42276
G1 X151.8 Y87.121 E.02337
G1 X142.879 Y78.2 E.45581
G1 X142.232 Y78.2 E.02337
G1 X151.8 Y87.768 E.48885
G1 X151.8 Y88.415 E.02337
G1 X141.585 Y78.2 E.5219
G1 X140.938 Y78.2 E.02337
G1 X151.8 Y89.062 E.55495
G1 X151.8 Y89.708 E.02337
G1 X140.292 Y78.2 E.58799
G1 X139.645 Y78.2 E.02337
G1 X145.253 Y83.808 E.28652
G3 X146.192 Y84.747 I-.065 J1.005 E.0524
G1 X151.8 Y90.355 E.28652
G1 X151.8 Y91.002 E.02337
G1 X146.2 Y85.402 E.28613
G1 X146.2 Y86.049 E.02337
G1 X151.8 Y91.649 E.28613
G1 X151.8 Y92.296 E.02337
G1 X146.2 Y86.695 E.28613
G1 X146.2 Y87.342 E.02337
G1 X151.8 Y92.942 E.28613
G1 X151.8 Y93.589 E.02337
G1 X146.2 Y87.989 E.28613
G1 X146.2 Y88.636 E.02337
G1 X151.8 Y94.236 E.28613
G1 X151.8 Y94.883 E.02337
G1 X146.2 Y89.283 E.28613
G1 X146.2 Y89.929 E.02337
G1 X151.8 Y95.53 E.28613
G1 X151.8 Y96.176 E.02337
G1 X146.2 Y90.576 E.28613
G1 X146.2 Y91.223 E.02337
G1 X151.8 Y96.823 E.28613
G1 X151.8 Y97.47 E.02337
G1 X146.2 Y91.87 E.28613
G1 X146.2 Y92.516 E.02337
G1 X151.8 Y98.117 E.28613
G1 X151.8 Y98.763 E.02337
G1 X146.2 Y93.163 E.28613
G1 X146.2 Y93.81 E.02337
G1 X151.8 Y99.41 E.28613
G1 X151.8 Y100.057 E.02337
G1 X146.2 Y94.457 E.28613
G1 X146.2 Y95.104 E.02337
G1 X151.8 Y100.704 E.28613
G1 X151.8 Y101.351 E.02337
G1 X146.2 Y95.75 E.28613
G1 X146.2 Y96.397 E.02337
G1 X151.8 Y101.997 E.28613
G1 X151.8 Y102.644 E.02337
G1 X146.2 Y97.044 E.28613
G1 X146.2 Y97.691 E.02337
G1 X151.8 Y103.291 E.28613
G1 X151.8 Y103.938 E.02337
G1 X146.2 Y98.338 E.28613
G1 X146.2 Y98.984 E.02337
G1 X151.8 Y104.585 E.28613
G1 X151.8 Y105.231 E.02337
G1 X146.2 Y99.631 E.28613
G1 X146.2 Y100.278 E.02337
G1 X151.8 Y105.878 E.28613
G1 X151.8 Y106.525 E.02337
G1 X146.2 Y100.925 E.28613
G1 X146.2 Y101.571 E.02337
G1 X151.8 Y107.172 E.28613
G1 X151.8 Y107.818 E.02337
G1 X146.2 Y102.218 E.28613
G1 X146.2 Y102.865 E.02337
G1 X151.8 Y108.465 E.28613
G1 X151.8 Y109.112 E.02337
G1 X146.2 Y103.512 E.28613
G1 X146.2 Y104.159 E.02337
G1 X151.8 Y109.759 E.28613
G1 X151.8 Y110.406 E.02337
G1 X146.2 Y104.805 E.28613
