;TIME:2028.77
;Filament used:3.17779m
;Layer height:0.200
; HEADER_BLOCK_START
; generated by Creality_Print V6.3.0.3420 on 2026-04-05 at 13:06:48
; total layer number: 77
; filament_density: 1.24
; filament_diameter: 1.75
; max_z_height: 13.00
; creality_uuid: 4e88853b-25ca-4ab6-a0c6-aab7017cecd3
; HEADER_BLOCK_END

; MINX = 75.40
; MINY = 86.40
; MINZ = 0.00
; MAXX = 144.60
; MAXY = 133.60
; MAXZ = 13.00

; multicolor_method = 0 
; THUMBNAIL_BLOCK_START

;
; THUMBNAIL_BLOCK_END

; THUMBNAIL_BLOCK_START

;
; THUMBNAIL_BLOCK_END

; external perimeters extrusion width = 0.42mm
; perimeters extrusion width = 0.45mm
; infill extrusion width = 0.45mm
; solid infill extrusion width = 0.42mm
; top infill extrusion width = 0.42mm
; support material extrusion width = 0.40mm
; first layer extrusion width = 0.50mm

; EXECUTABLE_BLOCK_START
M73 P0 R33
M201 X5000 Y5000 Z500 E5000
M203 X500 Y500 Z30 E100
M204 P5000 R2500 T5000 ; sets acceleration (P, T) and retract acceleration (R), mm/sec^2
M205 X10.00 Y10.00 Z0.40 E5.00 ; sets the jerk limits, mm/sec
; max_print_temp = 50,190
;TYPE:Custom
M220 S100 ;Reset Feedrate 
M221 S100 ;Reset Flowrate 
 
M140 S50 ;Set final bed temp 
G28 ;Home 
 
G92 E0 ;Reset Extruder 
G1 Z2.0 F3000 ;Move Z Axis up 
M104 S190 ;Set final nozzle temp 
G1 X-2.1 Y20 Z0.28 F5000.0 ;Move to start position 
M190 S50 ;Wait for bed temp to stabilize 
M109 S190 ;Wait for nozzle temp to stabilize 
G1 X-2.1 Y145.0 Z0.28 F1500.0 E15 ;Draw the first line 
G1 X-2.4 Y145.0 Z0.28 F5000.0 ;Move to side a little 
G1 X-2.4 Y20 Z0.28 F1500.0 E30 ;Draw the second line 
G92 E0  ;Reset Extruder 
G1 E-1.0000 F1800 ;Retract a bit 
G1 Z2.0 F3000 ;Move Z Axis up 
G1 E0.0000 F1800
G90
G21
M83 ; use relative distances for extrusion
;filament start gcode
G1 E-1.2 F2400
G1 Z.2 F9000
M106 S0
;LAYER_CHANGE
;Z:0.2
;HEIGHT:0.2
;BEFORE_LAYER_CHANGE
;0.2
G92 E0

;_SET_FAN_SPEED_CHANGING_LAYER
M204 P500
M205 X10 Y10
; printing object 04_screen_mount.stl id:2573 copy 0
M204 T500
G1 X149.07 Y137.642 Z.4 F9000
G1 Z.2
G1 E1.2 F1800
;TYPE:Support
;WIDTH:0.5
G1 X70.93 Y137.642 E2.82136
G1 X70.93 Y82.358 E1.9961
G1 X149.07 Y82.358 E2.82136
G1 X149.07 Y137.574 E1.99362
G1 E-1.2 F2400
;WIPE_START
M73 P1 R33
G1 F1800
G1 X149.07 Y135.574
;WIPE_END
G1 X146.607 Y132.659 Z.4 F9000
G1 X138.57 Y123.15 Z.4
G1 Z.2
G1 E1.2 F1800
G3 X137.477 Y123.294 I.028 J4.433 E.96576
G1 X138.502 Y123.159 E.03733
G1 X80.277 Y123.294 F9000
G1 F1800
G3 X80.211 Y123.313 I1.191 J4.268 E1.00266
G1 X86.215 Y97.643 F9000
G1 F1800
G1 X133.785 Y97.643 E1.71758
G1 X133.785 Y122.357 E.89232
G1 X86.215 Y122.357 E1.71758
G1 X86.215 Y97.712 E.88985
G1 X138.57 Y87.95 F9000
G1 F1800
G3 X137.477 Y88.094 I.027 J4.433 E.96571
G1 X138.503 Y87.959 E.03736
G1 X81.37 Y87.95 F9000
G1 F1800
G3 X80.277 Y88.094 I.03 J4.45 E.96961
G1 X81.303 Y87.959 E.03736
G1 E-1.2 F2400
;WIPE_START
G1 F1800
G1 X80.277 Y88.094
G1 X79.385 Y88.463
;WIPE_END
G1 X82.5 Y90.668 Z.4 F9000
G1 X148.598 Y137.436 Z.4
G1 Z.2
G1 E1.2 F1800
G1 X148.598 Y82.769 E1.97382
G1 X148.09 Y82.769 E.01834
G1 X148.09 Y137.231 E1.96639
G1 X147.582 Y137.231 E.01834
G1 X147.582 Y82.769 E1.96639
G1 X147.074 Y82.769 E.01834
G1 X147.074 Y137.231 E1.96639
G1 X146.566 Y137.231 E.01834
G1 X146.566 Y82.769 E1.96639
G1 X146.058 Y82.769 E.01834
M73 P2 R33
G1 X146.058 Y137.231 E1.96639
G1 X145.551 Y137.231 E.01834
G1 X145.551 Y82.769 E1.96639
G1 X145.043 Y82.769 E.01834
G1 X145.043 Y137.231 E1.96639
G1 X144.535 Y137.231 E.01834
G1 X144.535 Y82.769 E1.96639
G1 X144.027 Y82.769 E.01834
M73 P2 R32
G1 X144.027 Y137.231 E1.96639
G1 X143.519 Y137.231 E.01834
G1 X143.519 Y82.769 E1.96639
G1 X143.011 Y82.769 E.01834
G1 X143.011 Y90.436 E.27681
G2 X142.503 Y89.558 I-2.105 J.631 E.03696
G1 X142.503 Y82.769 E.2451
G1 X141.996 Y82.769 E.01834
G1 X141.996 Y88.921 E.22212
G1 X141.488 Y88.531 E.02311
G1 X141.488 Y82.769 E.20805
G1 X140.98 Y82.769 E.01834
G1 X140.98 Y88.161 E.19467
G1 X140.472 Y87.951 E.01985
G1 X140.472 Y82.769 E.18708
G1 X139.964 Y82.769 E.01834
G1 X139.964 Y87.74 E.17948
G2 X139.456 Y87.644 I-.63 J1.934 E.01871
G1 X139.456 Y82.769 E.17601
G1 X138.948 Y82.769 E.01834
G1 X138.948 Y87.577 E.17359
G2 X138.44 Y87.552 I-.317 J1.275 E.01848
G1 X138.44 Y82.769 E.17269
G1 X137.933 Y82.769 E.01834
G1 X137.933 Y87.619 E.17511
G1 X137.425 Y87.686 E.0185
G1 X137.425 Y82.769 E.17752
G1 X136.917 Y82.769 E.01834
G1 X136.917 Y87.872 E.18425
G1 X136.409 Y88.083 E.01985
G1 X136.409 Y82.769 E.19185
G1 X135.901 Y82.769 E.01834
G1 X135.901 Y88.386 E.20281
G1 X135.393 Y88.776 E.02311
G1 X135.393 Y82.769 E.21688
G1 X134.885 Y82.769 E.01834
G1 X134.885 Y89.311 E.23621
G2 X134.378 Y89.991 I2.327 J2.269 E.03071
G1 X134.378 Y82.769 E.26074
G1 X133.87 Y82.769 E.01834
G1 X133.87 Y97.232 E.52218
G1 X133.362 Y97.232 E.01834
G1 X133.362 Y82.769 E.52218
G1 X132.854 Y82.769 E.01834
G1 X132.854 Y97.232 E.52218
G1 X132.346 Y97.232 E.01834
G1 X132.346 Y82.769 E.52218
G1 X131.838 Y82.769 E.01834
G1 X131.838 Y97.232 E.52218
G1 X131.33 Y97.232 E.01834
G1 X131.33 Y82.769 E.52218
G1 X130.823 Y82.769 E.01834
M73 P3 R32
G1 X130.823 Y97.232 E.52218
G1 X130.315 Y97.232 E.01834
G1 X130.315 Y82.769 E.52218
G1 X129.807 Y82.769 E.01834
G1 X129.807 Y97.232 E.52218
G1 X129.299 Y97.232 E.01834
G1 X129.299 Y82.769 E.52218
G1 X128.791 Y82.769 E.01834
G1 X128.791 Y97.232 E.52218
G1 X128.283 Y97.232 E.01834
G1 X128.283 Y82.769 E.52218
G1 X127.775 Y82.769 E.01834
G1 X127.775 Y97.232 E.52218
G1 X127.267 Y97.232 E.01834
G1 X127.267 Y82.769 E.52218
G1 X126.76 Y82.769 E.01834
G1 X126.76 Y97.232 E.52218
G1 X126.252 Y97.232 E.01834
G1 X126.252 Y82.769 E.52218
G1 X125.744 Y82.769 E.01834
G1 X125.744 Y97.232 E.52218
G1 X125.236 Y97.232 E.01834
G1 X125.236 Y82.769 E.52218
G1 X124.728 Y82.769 E.01834
G1 X124.728 Y97.232 E.52218
G1 X124.22 Y97.232 E.01834
G1 X124.22 Y82.769 E.52218
G1 X123.712 Y82.769 E.01834
G1 X123.712 Y97.232 E.52218
G1 X123.205 Y97.232 E.01834
G1 X123.205 Y82.769 E.52218
G1 X122.697 Y82.769 E.01834
G1 X122.697 Y97.232 E.52218
G1 X122.189 Y97.232 E.01834
G1 X122.189 Y82.769 E.52218
G1 X121.681 Y82.769 E.01834
G1 X121.681 Y97.232 E.52218
G1 X121.173 Y97.232 E.01834
G1 X121.173 Y82.769 E.52218
G1 X120.665 Y82.769 E.01834
G1 X120.665 Y97.232 E.52218
G1 X120.157 Y97.232 E.01834
G1 X120.157 Y82.769 E.52218
G1 X119.649 Y82.769 E.01834
G1 X119.649 Y97.232 E.52218
G1 X119.142 Y97.232 E.01834
G1 X119.142 Y82.769 E.52218
G1 X118.634 Y82.769 E.01834
G1 X118.634 Y97.232 E.52218
G1 X118.126 Y97.232 E.01834
G1 X118.126 Y82.769 E.52218
G1 X117.618 Y82.769 E.01834
G1 X117.618 Y97.232 E.52218
G1 X117.11 Y97.232 E.01834
G1 X117.11 Y82.769 E.52218
G1 X116.602 Y82.769 E.01834
G1 X116.602 Y97.232 E.52218
G1 X116.094 Y97.232 E.01834
G1 X116.094 Y82.769 E.52218
G1 X115.587 Y82.769 E.01834
G1 X115.587 Y97.232 E.52218
G1 X115.079 Y97.232 E.01834
G1 X115.079 Y82.769 E.52218
G1 X114.571 Y82.769 E.01834
G1 X114.571 Y97.232 E.52218
G1 X114.063 Y97.232 E.01834
G1 X114.063 Y82.769 E.52218
G1 X113.555 Y82.769 E.01834
G1 X113.555 Y97.232 E.52218
G1 X113.047 Y97.232 E.01834
G1 X113.047 Y82.769 E.52218
G1 X112.539 Y82.769 E.01834
G1 X112.539 Y97.232 E.52218
G1 X112.031 Y97.232 E.01834
G1 X112.031 Y82.769 E.52218
M73 P4 R32
G1 X111.524 Y82.769 E.01834
G1 X111.524 Y97.232 E.52218
G1 X111.016 Y97.232 E.01834
G1 X111.016 Y82.769 E.52218
G1 X110.508 Y82.769 E.01834
G1 X110.508 Y97.232 E.52218
G1 X110 Y97.232 E.01834
G1 X110 Y82.769 E.52218
G1 X109.492 Y82.769 E.01834
G1 X109.492 Y97.232 E.52218
G1 X108.984 Y97.232 E.01834
G1 X108.984 Y82.769 E.52218
G1 X108.476 Y82.769 E.01834
G1 X108.476 Y97.232 E.52218
G1 X107.969 Y97.232 E.01834
G1 X107.969 Y82.769 E.52218
G1 X107.461 Y82.769 E.01834
G1 X107.461 Y97.232 E.52218
G1 X106.953 Y97.232 E.01834
G1 X106.953 Y82.769 E.52218
G1 X106.445 Y82.769 E.01834
G1 X106.445 Y97.232 E.52218
G1 X105.937 Y97.232 E.01834
G1 X105.937 Y82.769 E.52218
G1 X105.429 Y82.769 E.01834
G1 X105.429 Y97.232 E.52218
G1 X104.921 Y97.232 E.01834
G1 X104.921 Y82.769 E.52218
G1 X104.413 Y82.769 E.01834
G1 X104.413 Y97.232 E.52218
G1 X103.906 Y97.232 E.01834
G1 X103.906 Y82.769 E.52218
G1 X103.398 Y82.769 E.01834
G1 X103.398 Y97.232 E.52218
G1 X102.89 Y97.232 E.01834
G1 X102.89 Y82.769 E.52218
G1 X102.382 Y82.769 E.01834
G1 X102.382 Y97.232 E.52218
G1 X101.874 Y97.232 E.01834
G1 X101.874 Y82.769 E.52218
G1 X101.366 Y82.769 E.01834
G1 X101.366 Y97.232 E.52218
G1 X100.858 Y97.232 E.01834
G1 X100.858 Y82.769 E.52218
G1 X100.351 Y82.769 E.01834
G1 X100.351 Y97.232 E.52218
G1 X99.843 Y97.232 E.01834
G1 X99.843 Y82.769 E.52218
G1 X99.335 Y82.769 E.01834
G1 X99.335 Y97.232 E.52218
G1 X98.827 Y97.232 E.01834
G1 X98.827 Y82.769 E.52218
G1 X98.319 Y82.769 E.01834
G1 X98.319 Y97.232 E.52218
G1 X97.811 Y97.232 E.01834
G1 X97.811 Y82.769 E.52218
G1 X97.303 Y82.769 E.01834
G1 X97.303 Y97.232 E.52218
G1 X96.795 Y97.232 E.01834
G1 X96.795 Y82.769 E.52218
G1 X96.288 Y82.769 E.01834
G1 X96.288 Y97.232 E.52218
G1 X95.78 Y97.232 E.01834
G1 X95.78 Y82.769 E.52218
G1 X95.272 Y82.769 E.01834
G1 X95.272 Y97.232 E.52218
G1 X94.764 Y97.232 E.01834
G1 X94.764 Y82.769 E.52218
G1 X94.256 Y82.769 E.01834
G1 X94.256 Y97.232 E.52218
G1 X93.748 Y97.232 E.01834
G1 X93.748 Y82.769 E.52218
G1 X93.24 Y82.769 E.01834
G1 X93.24 Y97.232 E.52218
G1 X92.733 Y97.232 E.01834
M73 P5 R32
G1 X92.733 Y82.769 E.52218
G1 X92.225 Y82.769 E.01834
G1 X92.225 Y97.232 E.52218
G1 X91.717 Y97.232 E.01834
G1 X91.717 Y82.769 E.52218
G1 X91.209 Y82.769 E.01834
G1 X91.209 Y97.232 E.52218
G1 X90.701 Y97.232 E.01834
G1 X90.701 Y82.769 E.52218
G1 X90.193 Y82.769 E.01834
G1 X90.193 Y97.232 E.52218
G1 X89.685 Y97.232 E.01834
G1 X89.685 Y82.769 E.52218
G1 X89.177 Y82.769 E.01834
G1 X89.177 Y97.232 E.52218
G1 X88.67 Y97.232 E.01834
G1 X88.67 Y82.769 E.52218
G1 X88.162 Y82.769 E.01834
G1 X88.162 Y97.232 E.52218
G1 X87.654 Y97.232 E.01834
G1 X87.654 Y82.769 E.52218
G1 X87.146 Y82.769 E.01834
G1 X87.146 Y97.232 E.52218
G1 X86.638 Y97.232 E.01834
G1 X86.638 Y82.769 E.52218
G1 X86.13 Y82.769 E.01834
G1 X86.13 Y97.232 E.52218
G1 X85.803 Y97.232 E.0118
M73 P5 R31
G1 X85.803 Y122.768 E.92203
G1 X86.13 Y122.768 E.0118
G1 X86.13 Y137.231 E.52218
G1 X86.638 Y137.231 E.01834
G1 X86.638 Y122.768 E.52218
G1 X87.146 Y122.768 E.01834
G1 X87.146 Y137.231 E.52218
G1 X87.654 Y137.231 E.01834
G1 X87.654 Y122.768 E.52218
G1 X88.162 Y122.768 E.01834
G1 X88.162 Y137.231 E.52218
G1 X88.67 Y137.231 E.01834
G1 X88.67 Y122.768 E.52218
G1 X89.177 Y122.768 E.01834
G1 X89.177 Y137.231 E.52218
G1 X89.685 Y137.231 E.01834
G1 X89.685 Y122.768 E.52218
G1 X90.193 Y122.768 E.01834
G1 X90.193 Y137.231 E.52218
G1 X90.701 Y137.231 E.01834
G1 X90.701 Y122.768 E.52218
G1 X91.209 Y122.768 E.01834
G1 X91.209 Y137.231 E.52218
G1 X91.717 Y137.231 E.01834
G1 X91.717 Y122.768 E.52218
G1 X92.225 Y122.768 E.01834
G1 X92.225 Y137.231 E.52218
G1 X92.733 Y137.231 E.01834
G1 X92.733 Y122.768 E.52218
G1 X93.24 Y122.768 E.01834
G1 X93.24 Y137.231 E.52218
G1 X93.748 Y137.231 E.01834
G1 X93.748 Y122.768 E.52218
G1 X94.256 Y122.768 E.01834
G1 X94.256 Y137.231 E.52218
G1 X94.764 Y137.231 E.01834
G1 X94.764 Y122.768 E.52218
G1 X95.272 Y122.768 E.01834
G1 X95.272 Y137.231 E.52218
G1 X95.78 Y137.231 E.01834
G1 X95.78 Y122.768 E.52218
G1 X96.288 Y122.768 E.01834
G1 X96.288 Y137.231 E.52218
G1 X96.795 Y137.231 E.01834
M73 P6 R31
G1 X96.795 Y122.768 E.52218
G1 X97.303 Y122.768 E.01834
G1 X97.303 Y137.231 E.52218
G1 X97.811 Y137.231 E.01834
G1 X97.811 Y122.768 E.52218
G1 X98.319 Y122.768 E.01834
G1 X98.319 Y137.231 E.52218
G1 X98.827 Y137.231 E.01834
G1 X98.827 Y122.768 E.52218
G1 X99.335 Y122.768 E.01834
G1 X99.335 Y137.231 E.52218
G1 X99.843 Y137.231 E.01834
G1 X99.843 Y122.768 E.52218
G1 X100.351 Y122.768 E.01834
G1 X100.351 Y137.231 E.52218
G1 X100.858 Y137.231 E.01834
G1 X100.858 Y122.768 E.52218
G1 X101.366 Y122.768 E.01834
G1 X101.366 Y137.231 E.52218
G1 X101.874 Y137.231 E.01834
G1 X101.874 Y122.768 E.52218
G1 X102.382 Y122.768 E.01834
G1 X102.382 Y137.231 E.52218
G1 X102.89 Y137.231 E.01834
G1 X102.89 Y122.768 E.52218
G1 X103.398 Y122.768 E.01834
G1 X103.398 Y137.231 E.52218
G1 X103.906 Y137.231 E.01834
G1 X103.906 Y122.768 E.52218
G1 X104.413 Y122.768 E.01834
G1 X104.413 Y137.231 E.52218
G1 X104.921 Y137.231 E.01834
G1 X104.921 Y122.768 E.52218
G1 X105.429 Y122.768 E.01834
G1 X105.429 Y137.231 E.52218
G1 X105.937 Y137.231 E.01834
G1 X105.937 Y122.768 E.52218
G1 X106.445 Y122.768 E.01834
G1 X106.445 Y137.231 E.52218
G1 X106.953 Y137.231 E.01834
G1 X106.953 Y122.768 E.52218
G1 X107.461 Y122.768 E.01834
G1 X107.461 Y137.231 E.52218
G1 X107.969 Y137.231 E.01834
G1 X107.969 Y122.768 E.52218
G1 X108.476 Y122.768 E.01834
G1 X108.476 Y137.231 E.52218
G1 X108.984 Y137.231 E.01834
G1 X108.984 Y122.768 E.52218
G1 X109.492 Y122.768 E.01834
G1 X109.492 Y137.231 E.52218
G1 X110 Y137.231 E.01834
G1 X110 Y122.768 E.52218
G1 X110.508 Y122.768 E.01834
G1 X110.508 Y137.231 E.52218
G1 X111.016 Y137.231 E.01834
G1 X111.016 Y122.768 E.52218
G1 X111.524 Y122.768 E.01834
G1 X111.524 Y137.231 E.52218
G1 X112.031 Y137.231 E.01834
G1 X112.031 Y122.768 E.52218
G1 X112.539 Y122.768 E.01834
G1 X112.539 Y137.231 E.52218
G1 X113.047 Y137.231 E.01834
G1 X113.047 Y122.768 E.52218
G1 X113.555 Y122.768 E.01834
G1 X113.555 Y137.231 E.52218
G1 X114.063 Y137.231 E.01834
G1 X114.063 Y122.768 E.52218
G1 X114.571 Y122.768 E.01834
G1 X114.571 Y137.231 E.52218
G1 X115.079 Y137.231 E.01834
G1 X115.079 Y122.768 E.52218
G1 X115.587 Y122.768 E.01834
G1 X115.587 Y137.231 E.52218
G1 X116.094 Y137.231 E.01834
M73 P7 R31
G1 X116.094 Y122.768 E.52218
G1 X116.602 Y122.768 E.01834
G1 X116.602 Y137.231 E.52218
G1 X117.11 Y137.231 E.01834
G1 X117.11 Y122.768 E.52218
G1 X117.618 Y122.768 E.01834
G1 X117.618 Y137.231 E.52218
G1 X118.126 Y137.231 E.01834
G1 X118.126 Y122.768 E.52218
G1 X118.634 Y122.768 E.01834
G1 X118.634 Y137.231 E.52218
G1 X119.142 Y137.231 E.01834
G1 X119.142 Y122.768 E.52218
G1 X119.649 Y122.768 E.01834
G1 X119.649 Y137.231 E.52218
G1 X120.157 Y137.231 E.01834
G1 X120.157 Y122.768 E.52218
G1 X120.665 Y122.768 E.01834
G1 X120.665 Y137.231 E.52218
G1 X121.173 Y137.231 E.01834
G1 X121.173 Y122.768 E.52218
G1 X121.681 Y122.768 E.01834
G1 X121.681 Y137.231 E.52218
G1 X122.189 Y137.231 E.01834
G1 X122.189 Y122.768 E.52218
G1 X122.697 Y122.768 E.01834
G1 X122.697 Y137.231 E.52218
G1 X123.205 Y137.231 E.01834
G1 X123.205 Y122.768 E.52218
G1 X123.712 Y122.768 E.01834
G1 X123.712 Y137.231 E.52218
G1 X124.22 Y137.231 E.01834
G1 X124.22 Y122.768 E.52218
G1 X124.728 Y122.768 E.01834
G1 X124.728 Y137.231 E.52218
G1 X125.236 Y137.231 E.01834
G1 X125.236 Y122.768 E.52218
G1 X125.744 Y122.768 E.01834
G1 X125.744 Y137.231 E.52218
G1 X126.252 Y137.231 E.01834
G1 X126.252 Y122.768 E.52218
G1 X126.76 Y122.768 E.01834
G1 X126.76 Y137.231 E.52218
G1 X127.267 Y137.231 E.01834
G1 X127.267 Y122.768 E.52218
G1 X127.775 Y122.768 E.01834
G1 X127.775 Y137.231 E.52218
G1 X128.283 Y137.231 E.01834
G1 X128.283 Y122.768 E.52218
G1 X128.791 Y122.768 E.01834
G1 X128.791 Y137.231 E.52218
G1 X129.299 Y137.231 E.01834
G1 X129.299 Y122.768 E.52218
G1 X129.807 Y122.768 E.01834
G1 X129.807 Y137.231 E.52218
G1 X130.315 Y137.231 E.01834
G1 X130.315 Y122.768 E.52218
G1 X130.823 Y122.768 E.01834
G1 X130.823 Y137.231 E.52218
G1 X131.33 Y137.231 E.01834
G1 X131.33 Y122.768 E.52218
G1 X131.838 Y122.768 E.01834
G1 X131.838 Y137.231 E.52218
G1 X132.346 Y137.231 E.01834
G1 X132.346 Y122.768 E.52218
G1 X132.854 Y122.768 E.01834
G1 X132.854 Y137.231 E.52218
G1 X133.362 Y137.231 E.01834
G1 X133.362 Y122.768 E.52218
G1 X133.87 Y122.768 E.01834
G1 X133.87 Y137.231 E.52218
G1 X134.378 Y137.231 E.01834
G1 X134.378 Y130.009 E.26074
G2 X134.885 Y130.689 I2.835 J-1.59 E.03071
G1 X134.885 Y137.231 E.23621
M73 P8 R31
G1 X135.393 Y137.231 E.01834
G1 X135.393 Y131.224 E.21688
G1 X135.901 Y131.614 E.02311
G1 X135.901 Y137.231 E.20281
G1 X136.409 Y137.231 E.01834
G1 X136.409 Y131.917 E.19185
G1 X136.917 Y132.128 E.01985
G1 X136.917 Y137.231 E.18425
G1 X137.425 Y137.231 E.01834
G1 X137.425 Y132.314 E.17752
G1 X137.933 Y132.381 E.0185
G1 X137.933 Y137.231 E.17511
G1 X138.44 Y137.231 E.01834
G1 X138.44 Y132.448 E.17269
