;TIME:3234.45
;Filament used:7.48616m
;Layer height:0.200
; HEADER_BLOCK_START
; generated by Creality_Print V6.3.0.3420 on 2026-04-04 at 19:38:54
; total layer number: 104
; filament_density: 1.24
; filament_diameter: 1.75
; max_z_height: 20.00
; creality_uuid: b032bc08-3630-4e7e-b6cd-979bb9fef65b
; HEADER_BLOCK_END

; MINX = 57.30
; MINY = 76.80
; MINZ = 0.00
; MAXX = 162.70
; MAXY = 143.20
; MAXZ = 20.00

; multicolor_method = 0 
; THUMBNAIL_BLOCK_START

;
; THUMBNAIL_BLOCK_END

; THUMBNAIL_BLOCK_START

;
; THUMBNAIL_BLOCK_END

; external perimeters extrusion width = 0.42mm
; perimeters extrusion width = 0.45mm
; infill extrusion width = 0.45mm
; solid infill extrusion width = 0.42mm
; top infill extrusion width = 0.42mm
; support material extrusion width = 0.40mm
; first layer extrusion width = 0.50mm

; EXECUTABLE_BLOCK_START
M73 P0 R53
M201 X5000 Y5000 Z500 E5000
M203 X500 Y500 Z30 E100
M204 P5000 R2500 T5000 ; sets acceleration (P, T) and retract acceleration (R), mm/sec^2
M205 X10.00 Y10.00 Z0.40 E5.00 ; sets the jerk limits, mm/sec
; max_print_temp = 50,190
;TYPE:Custom
M220 S100 ;Reset Feedrate 
M221 S100 ;Reset Flowrate 
 
M140 S50 ;Set final bed temp 
G28 ;Home 
 
G92 E0 ;Reset Extruder 
G1 Z2.0 F3000 ;Move Z Axis up 
M104 S190 ;Set final nozzle temp 
G1 X-2.1 Y20 Z0.28 F5000.0 ;Move to start position 
M190 S50 ;Wait for bed temp to stabilize 
M109 S190 ;Wait for nozzle temp to stabilize 
G1 X-2.1 Y145.0 Z0.28 F1500.0 E15 ;Draw the first line 
G1 X-2.4 Y145.0 Z0.28 F5000.0 ;Move to side a little 
G1 X-2.4 Y20 Z0.28 F1500.0 E30 ;Draw the second line 
G92 E0  ;Reset Extruder 
G1 E-1.0000 F1800 ;Retract a bit 
G1 Z2.0 F3000 ;Move Z Axis up 
G1 E0.0000 F1800
G90
G21
M83 ; use relative distances for extrusion
;filament start gcode
G1 E-1.2 F2400
G1 Z.2 F9000
M106 S0
;LAYER_CHANGE
;Z:0.2
;HEIGHT:0.2
;BEFORE_LAYER_CHANGE
;0.2
G92 E0

;_SET_FAN_SPEED_CHANGING_LAYER
M204 P500
M205 X10 Y10
; printing object 05_powerbank_holder.stl id:15 copy 0
M204 T500
G1 X120.5 Y79.35 Z.4 F9000
G1 Z.2
G1 E1.2 F1800
;TYPE:Support
;WIDTH:0.5
G1 X99.5 Y79.35 E.7582
G1 X99.5 Y73.787 E.20087
G1 X120.5 Y73.787 E.7582
G1 X120.5 Y79.281 E.19839
G1 X119.649 Y79.144 F9000
G1 F1800
G1 X119.649 Y74.198 E.17859
G1 X119.142 Y74.198 E.01834
G1 X119.142 Y78.939 E.17116
G1 X118.634 Y78.939 E.01834
G1 X118.634 Y74.198 E.17116
G1 X118.126 Y74.198 E.01834
G1 X118.126 Y78.939 E.17116
G1 X117.618 Y78.939 E.01834
G1 X117.618 Y74.198 E.17116
G1 X117.11 Y74.198 E.01834
G1 X117.11 Y78.939 E.17116
G1 X116.602 Y78.939 E.01834
G1 X116.602 Y74.198 E.17116
G1 X116.094 Y74.198 E.01834
G1 X116.094 Y78.939 E.17116
G1 X115.587 Y78.939 E.01834
G1 X115.587 Y74.198 E.17116
G1 X115.079 Y74.198 E.01834
G1 X115.079 Y78.939 E.17116
G1 X114.571 Y78.939 E.01834
G1 X114.571 Y74.198 E.17116
G1 X114.063 Y74.198 E.01834
G1 X114.063 Y78.939 E.17116
G1 X113.555 Y78.939 E.01834
G1 X113.555 Y74.198 E.17116
G1 X113.047 Y74.198 E.01834
G1 X113.047 Y78.939 E.17116
G1 X112.539 Y78.939 E.01834
G1 X112.539 Y74.198 E.17116
G1 X112.031 Y74.198 E.01834
G1 X112.031 Y78.939 E.17116
G1 X111.524 Y78.939 E.01834
G1 X111.524 Y74.198 E.17116
G1 X111.016 Y74.198 E.01834
G1 X111.016 Y78.939 E.17116
G1 X110.508 Y78.939 E.01834
G1 X110.508 Y74.198 E.17116
G1 X110 Y74.198 E.01834
G1 X110 Y78.939 E.17116
G1 X109.492 Y78.939 E.01834
G1 X109.492 Y74.198 E.17116
G1 X108.984 Y74.198 E.01834
G1 X108.984 Y78.939 E.17116
G1 X108.476 Y78.939 E.01834
G1 X108.476 Y74.198 E.17116
G1 X107.969 Y74.198 E.01834
G1 X107.969 Y78.939 E.17116
G1 X107.461 Y78.939 E.01834
G1 X107.461 Y74.198 E.17116
G1 X106.953 Y74.198 E.01834
G1 X106.953 Y78.939 E.17116
G1 X106.445 Y78.939 E.01834
G1 X106.445 Y74.198 E.17116
G1 X105.937 Y74.198 E.01834
G1 X105.937 Y78.939 E.17116
G1 X105.429 Y78.939 E.01834
G1 X105.429 Y74.198 E.17116
G1 X104.921 Y74.198 E.01834
G1 X104.921 Y78.939 E.17116
G1 X104.413 Y78.939 E.01834
G1 X104.413 Y74.198 E.17116
G1 X103.906 Y74.198 E.01834
G1 X103.906 Y78.939 E.17116
G1 X103.398 Y78.939 E.01834
G1 X103.398 Y74.198 E.17116
G1 X102.89 Y74.198 E.01834
G1 X102.89 Y78.939 E.17116
G1 X102.382 Y78.939 E.01834
G1 X102.382 Y74.198 E.17116
G1 X101.874 Y74.198 E.01834
G1 X101.874 Y78.939 E.17116
G1 X101.366 Y78.939 E.01834
G1 X101.366 Y74.198 E.17116
G1 X100.858 Y74.198 E.01834
G1 X100.858 Y78.939 E.17116
G1 X100.351 Y78.939 E.01834
G1 X100.351 Y73.992 E.17859
G1 E-1.2 F2400
;WIPE_START
G1 F9000
G1 X100.351 Y75.992
;WIPE_END
G1 X96.918 Y77.661 Z.4
G1 X59.995 Y95.61 Z.4
G1 Z.2
G1 E1.2 F1800
;TYPE:Inner wall
;WIDTH:0.488258
G1 X59.97 Y95.67 E.00229
G1 X59.8 Y95.741 E.00649
G1 X59.63 Y95.67 E.00649
G1 X59.559 Y95.5 E.00649
G1 X59.63 Y95.33 E.00649
G1 X59.8 Y95.259 E.00649
G1 X59.97 Y95.33 E.00649
G1 X60.041 Y95.5 E.00649
G1 X60.011 Y95.573 E.00279
G1 X59.8 Y94.771 F9000
;TYPE:Outer wall
;WIDTH:0.499999
G1 F1800
G1 X60.316 Y94.984 E.02016
G1 X60.529 Y95.5 E.02016
G1 X60.316 Y96.016 E.02016
G1 X59.8 Y96.229 E.02016
G1 X59.284 Y96.016 E.02016
G1 X59.071 Y95.5 E.02016
G1 X59.284 Y94.984 E.02016
G1 X59.763 Y94.786 E.01871
G1 E-1.2 F2400
;WIPE_START
G1 F9000
G1 X60.316 Y94.984
G1 X60.529 Y95.5
G1 X60.316 Y96.016
G1 X60.042 Y96.129
;WIPE_END
G1 X60.036 Y99.945 Z.4
G1 X59.995 Y125.61 Z.4
G1 Z.2
G1 E1.2 F1800
;TYPE:Inner wall
;WIDTH:0.488256
G1 X59.97 Y125.67 E.00229
G1 X59.8 Y125.741 E.00649
G1 X59.63 Y125.67 E.00649
G1 X59.559 Y125.5 E.00649
G1 X59.63 Y125.33 E.00649
G1 X59.8 Y125.259 E.00649
G1 X59.97 Y125.33 E.00649
G1 X60.041 Y125.5 E.00649
G1 X60.011 Y125.573 E.00279
G1 X59.8 Y124.771 F9000
;TYPE:Outer wall
;WIDTH:0.499999
G1 F1800
G1 X60.316 Y124.984 E.02016
G1 X60.529 Y125.5 E.02016
G1 X60.316 Y126.016 E.02016
G1 X59.8 Y126.229 E.02016
G1 X59.284 Y126.016 E.02016
G1 X59.071 Y125.5 E.02016
G1 X59.284 Y124.984 E.02016
G1 X59.763 Y124.786 E.01871
G1 E-1.2 F2400
;WIPE_START
G1 F9000
G1 X60.316 Y124.984
G1 X60.529 Y125.5
G1 X60.316 Y126.016
G1 X60.042 Y126.129
;WIPE_END
G1 X63.858 Y126.109 Z.4
G1 X160.395 Y125.61 Z.4
G1 Z.2
G1 E1.2 F1800
;TYPE:Inner wall
;WIDTH:0.488255
G1 X160.37 Y125.67 E.00229
G1 X160.2 Y125.741 E.00649
G1 X160.03 Y125.67 E.00649
G1 X159.959 Y125.5 E.00649
G1 X160.03 Y125.33 E.00649
G1 X160.2 Y125.259 E.00649
G1 X160.37 Y125.33 E.00649
G1 X160.441 Y125.5 E.00649
G1 X160.411 Y125.573 E.00279
G1 X160.2 Y124.771 F9000
;TYPE:Outer wall
;WIDTH:0.499999
G1 F1800
G1 X160.716 Y124.984 E.02016
G1 X160.929 Y125.5 E.02016
G1 X160.716 Y126.016 E.02016
G1 X160.2 Y126.229 E.02016
G1 X159.684 Y126.016 E.02016
G1 X159.471 Y125.5 E.02016
G1 X159.684 Y124.984 E.02016
G1 X160.163 Y124.786 E.01871
G1 E-1.2 F2400
;WIPE_START
G1 F9000
G1 X160.716 Y124.984
G1 X160.929 Y125.5
G1 X160.716 Y126.016
G1 X160.442 Y126.129
;WIPE_END
G1 X160.439 Y122.313 Z.4
G1 X160.416 Y95.44 Z.4
G1 Z.2
G1 E1.2 F1800
;TYPE:Inner wall
;WIDTH:0.488257
G1 X160.441 Y95.5 E.00229
G1 X160.37 Y95.67 E.00649
G1 X160.2 Y95.741 E.00649
G1 X160.03 Y95.67 E.00649
G1 X159.959 Y95.5 E.00649
G1 X160.03 Y95.33 E.00649
G1 X160.2 Y95.259 E.00649
G1 X160.37 Y95.33 E.00649
G1 X160.401 Y95.403 E.00279
G1 X159.684 Y94.984 F9000
;TYPE:Outer wall
;WIDTH:0.499999
G1 F1800
G1 X160.2 Y94.771 E.02016
G1 X160.716 Y94.984 E.02016
G1 X160.929 Y95.5 E.02016
G1 X160.716 Y96.016 E.02016
G1 X160.2 Y96.229 E.02016
G1 X159.684 Y96.016 E.02016
G1 X159.471 Y95.5 E.02016
G1 X159.669 Y95.021 E.01871
; stop printing object 05_powerbank_holder.stl id:15 copy 0
G1 E-1.2 F2400
;WIPE_START
G1 F9000
G1 X160.2 Y94.771
G1 X160.716 Y94.984
G1 X160.929 Y95.5
G1 X160.816 Y95.774
;WIPE_END
;TIME_ELAPSED:25.944700

M106 S255
;LAYER_CHANGE
;Z:0.4
;HEIGHT:0.2
;BEFORE_LAYER_CHANGE
;0.4
G92 E0

;_SET_FAN_SPEED_CHANGING_LAYER
M204 P2500
; printing object 05_powerbank_holder.stl id:15 copy 0
M204 T2500
G1 X57.902 Y142.598 Z.4 F9000
G1 E1.2 F1800
M204 P500
;TYPE:Overhang wall
;WIDTH:0.449999
G1 F3000
G1 X57.902 Y78.402 E2.06431
G1 X162.098 Y78.402 E3.35056
G1 X162.098 Y142.598 E2.06431
G1 X57.942 Y142.598 E3.34927
G1 X57.902 Y142.99 F9000
;WIDTH:0.419999
M73 P1 R53
G1 F3000
G1 X57.51 Y142.99 E.01168
G1 X57.51 Y78.01 E1.93553
G1 X162.49 Y78.01 E3.12699
G1 X162.49 Y142.99 E1.93553
G1 X57.942 Y142.99 E3.11412
G1 E-1.2 F2400
;WIPE_START
G1 F9000
G1 X57.51 Y142.99
G1 X57.51 Y141.422
;WIPE_END
G1 X58.001 Y142.061 Z.6
G1 Z.6
G1 Z.4
G1 E1.2 F1800
;TYPE:Bridge
;WIDTH:0.401146
G1 F3000
G1 X161.837 Y142.061 E2.93827
G1 X161.837 Y141.703 E.01014
G1 X58.163 Y141.703 E2.93371
G1 X58.163 Y141.345 E.01014
G1 X161.837 Y141.345 E2.93371
G1 X161.837 Y140.986 E.01014
G1 X58.163 Y140.986 E2.93371
G1 X58.163 Y140.628 E.01014
G1 X161.837 Y140.628 E2.93371
G1 X161.837 Y140.27 E.01014
G1 X58.163 Y140.27 E2.93371
G1 X58.163 Y139.912 E.01014
G1 X161.837 Y139.912 E2.93371
G1 X161.837 Y139.554 E.01014
M73 P1 R52
G1 X58.163 Y139.554 E2.93371
G1 X58.163 Y139.195 E.01014
G1 X161.837 Y139.195 E2.93371
G1 X161.837 Y138.837 E.01014
G1 X58.163 Y138.837 E2.93371
G1 X58.163 Y138.479 E.01014
G1 X161.837 Y138.479 E2.93371
G1 X161.837 Y138.121 E.01014
M73 P2 R52
G1 X58.163 Y138.121 E2.93371
G1 X58.163 Y137.762 E.01014
G1 X161.837 Y137.762 E2.93371
G1 X161.837 Y137.404 E.01014
G1 X58.163 Y137.404 E2.93371
G1 X58.163 Y137.046 E.01014
G1 X161.837 Y137.046 E2.93371
G1 X161.837 Y136.688 E.01014
G1 X58.163 Y136.688 E2.93371
G1 X58.163 Y136.329 E.01014
G1 X161.837 Y136.329 E2.93371
G1 X161.837 Y135.971 E.01014
G1 X58.163 Y135.971 E2.93371
G1 X58.163 Y135.613 E.01014
G1 X161.837 Y135.613 E2.93371
G1 X161.837 Y135.255 E.01014
G1 X58.163 Y135.255 E2.93371
G1 X58.163 Y134.897 E.01014
G1 X161.837 Y134.897 E2.93371
G1 X161.837 Y134.538 E.01014
G1 X58.163 Y134.538 E2.93371
G1 X58.163 Y134.18 E.01014
G1 X161.837 Y134.18 E2.93371
G1 X161.837 Y133.822 E.01014
G1 X58.163 Y133.822 E2.93371
G1 X58.163 Y133.464 E.01014
G1 X161.837 Y133.464 E2.93371
G1 X161.837 Y133.105 E.01014
G1 X58.163 Y133.105 E2.93371
G1 X58.163 Y132.747 E.01014
M73 P3 R52
G1 X161.837 Y132.747 E2.93371
G1 X161.837 Y132.389 E.01014
G1 X58.163 Y132.389 E2.93371
G1 X58.163 Y132.031 E.01014
G1 X161.837 Y132.031 E2.93371
G1 X161.837 Y131.673 E.01014
G1 X58.163 Y131.673 E2.93371
G1 X58.163 Y131.314 E.01014
G1 X161.837 Y131.314 E2.93371
G1 X161.837 Y130.956 E.01014
G1 X58.163 Y130.956 E2.93371
G1 X58.163 Y130.598 E.01014
G1 X161.837 Y130.598 E2.93371
G1 X161.837 Y130.24 E.01014
G1 X58.163 Y130.24 E2.93371
G1 X58.163 Y129.881 E.01014
G1 X161.837 Y129.881 E2.93371
G1 X161.837 Y129.523 E.01014
M73 P3 R51
G1 X58.163 Y129.523 E2.93371
G1 X58.163 Y129.165 E.01014
G1 X161.837 Y129.165 E2.93371
G1 X161.837 Y128.807 E.01014
G1 X58.163 Y128.807 E2.93371
G1 X58.163 Y128.449 E.01014
G1 X161.837 Y128.449 E2.93371
G1 X161.837 Y128.09 E.01014
G1 X58.163 Y128.09 E2.93371
G1 X58.163 Y127.732 E.01014
G1 X161.837 Y127.732 E2.93371
G1 X161.837 Y127.374 E.01014
M73 P4 R51
G1 X58.163 Y127.374 E2.93371
G1 X58.163 Y127.016 E.01014
G1 X161.837 Y127.016 E2.93371
G1 X161.837 Y126.657 E.01014
G1 X58.163 Y126.657 E2.93371
G1 X58.163 Y126.299 E.01014
G1 X161.837 Y126.299 E2.93371
G1 X161.837 Y125.941 E.01014
G1 X58.163 Y125.941 E2.93371
G1 X58.163 Y125.583 E.01014
G1 X161.837 Y125.583 E2.93371
G1 X161.837 Y125.225 E.01014
G1 X58.163 Y125.225 E2.93371
G1 X58.163 Y124.866 E.01014
G1 X161.837 Y124.866 E2.93371
G1 X161.837 Y124.508 E.01014
G1 X58.163 Y124.508 E2.93371
G1 X58.163 Y124.15 E.01014
G1 X161.837 Y124.15 E2.93371
G1 X161.837 Y123.792 E.01014
G1 X58.163 Y123.792 E2.93371
G1 X58.163 Y123.433 E.01014
G1 X161.837 Y123.433 E2.93371
G1 X161.837 Y123.075 E.01014
G1 X58.163 Y123.075 E2.93371
G1 X58.163 Y122.717 E.01014
G1 X161.837 Y122.717 E2.93371
G1 X161.837 Y122.359 E.01014
G1 X58.163 Y122.359 E2.93371
G1 X58.163 Y122 E.01014
M73 P5 R51
G1 X161.837 Y122 E2.93371
G1 X161.837 Y121.642 E.01014
G1 X58.163 Y121.642 E2.93371
G1 X58.163 Y121.284 E.01014
G1 X161.837 Y121.284 E2.93371
G1 X161.837 Y120.926 E.01014
G1 X58.163 Y120.926 E2.93371
G1 X58.163 Y120.568 E.01014
G1 X161.837 Y120.568 E2.93371
G1 X161.837 Y120.209 E.01014
G1 X58.163 Y120.209 E2.93371
G1 X58.163 Y119.851 E.01014
M73 P5 R50
G1 X161.837 Y119.851 E2.93371
G1 X161.837 Y119.493 E.01014
G1 X58.163 Y119.493 E2.93371
G1 X58.163 Y119.135 E.01014
G1 X161.837 Y119.135 E2.93371
G1 X161.837 Y118.776 E.01014
G1 X58.163 Y118.776 E2.93371
G1 X58.163 Y118.418 E.01014
G1 X161.837 Y118.418 E2.93371
G1 X161.837 Y118.06 E.01014
G1 X58.163 Y118.06 E2.93371
G1 X58.163 Y117.702 E.01014
G1 X161.837 Y117.702 E2.93371
G1 X161.837 Y117.344 E.01014
G1 X58.163 Y117.344 E2.93371
G1 X58.163 Y116.985 E.01014
G1 X161.837 Y116.985 E2.93371
G1 X161.837 Y116.627 E.01014
M73 P6 R50
G1 X58.163 Y116.627 E2.93371
G1 X58.163 Y116.269 E.01014
G1 X161.837 Y116.269 E2.93371
G1 X161.837 Y115.911 E.01014
G1 X58.163 Y115.911 E2.93371
G1 X58.163 Y115.552 E.01014
G1 X161.837 Y115.552 E2.93371
G1 X161.837 Y115.194 E.01014
G1 X58.163 Y115.194 E2.93371
G1 X58.163 Y114.836 E.01014
G1 X161.837 Y114.836 E2.93371
G1 X161.837 Y114.478 E.01014
G1 X58.163 Y114.478 E2.93371
G1 X58.163 Y114.12 E.01014
G1 X161.837 Y114.12 E2.93371
G1 X161.837 Y113.761 E.01014
G1 X58.163 Y113.761 E2.93371
G1 X58.163 Y113.403 E.01014
G1 X161.837 Y113.403 E2.93371
G1 X161.837 Y113.045 E.01014
G1 X58.163 Y113.045 E2.93371
G1 X58.163 Y112.687 E.01014
G1 X161.837 Y112.687 E2.93371
G1 X161.837 Y112.328 E.01014
G1 X58.163 Y112.328 E2.93371
G1 X58.163 Y111.97 E.01014
G1 X161.837 Y111.97 E2.93371
G1 X161.837 Y111.612 E.01014
G1 X58.163 Y111.612 E2.93371
G1 X58.163 Y111.254 E.01014
M73 P7 R50
G1 X161.837 Y111.254 E2.93371
G1 X161.837 Y110.896 E.01014
G1 X58.163 Y110.896 E2.93371
G1 X58.163 Y110.537 E.01014
G1 X161.837 Y110.537 E2.93371
G1 X161.837 Y110.179 E.01014
G1 X58.163 Y110.179 E2.93371
G1 X58.163 Y109.821 E.01014
M73 P7 R49
G1 X161.837 Y109.821 E2.93371
G1 X161.837 Y109.463 E.01014
G1 X58.163 Y109.463 E2.93371
G1 X58.163 Y109.104 E.01014
G1 X161.837 Y109.104 E2.93371
G1 X161.837 Y108.746 E.01014
G1 X58.163 Y108.746 E2.93371
G1 X58.163 Y108.388 E.01014
G1 X161.837 Y108.388 E2.93371
G1 X161.837 Y108.03 E.01014
G1 X58.163 Y108.03 E2.93371
G1 X58.163 Y107.671 E.01014
G1 X161.837 Y107.671 E2.93371
G1 X161.837 Y107.313 E.01014
G1 X58.163 Y107.313 E2.93371
G1 X58.163 Y106.955 E.01014
G1 X161.837 Y106.955 E2.93371
G1 X161.837 Y106.597 E.01014
G1 X58.163 Y106.597 E2.93371
G1 X58.163 Y106.239 E.01014
G1 X161.837 Y106.239 E2.93371
G1 X161.837 Y105.88 E.01014
M73 P8 R49
G1 X58.163 Y105.88 E2.93371
G1 X58.163 Y105.522 E.01014
G1 X161.837 Y105.522 E2.93371
G1 X161.837 Y105.164 E.01014
G1 X58.163 Y105.164 E2.93371
G1 X58.163 Y104.806 E.01014
G1 X161.837 Y104.806 E2.93371
G1 X161.837 Y104.447 E.01014
G1 X58.163 Y104.447 E2.93371
G1 X58.163 Y104.089 E.01014
G1 X161.837 Y104.089 E2.93371
G1 X161.837 Y103.731 E.01014
G1 X58.163 Y103.731 E2.93371
G1 X58.163 Y103.373 E.01014
G1 X161.837 Y103.373 E2.93371
G1 X161.837 Y103.015 E.01014
G1 X58.163 Y103.015 E2.93371
G1 X58.163 Y102.656 E.01014
G1 X161.837 Y102.656 E2.93371
G1 X161.837 Y102.298 E.01014
G1 X58.163 Y102.298 E2.93371
G1 X58.163 Y101.94 E.01014
G1 X161.837 Y101.94 E2.93371
G1 X161.837 Y101.582 E.01014
G1 X58.163 Y101.582 E2.93371
G1 X58.163 Y101.223 E.01014
G1 X161.837 Y101.223 E2.93371
G1 X161.837 Y100.865 E.01014
G1 X58.163 Y100.865 E2.93371
G1 X58.163 Y100.507 E.01014
M73 P9 R49
G1 X161.837 Y100.507 E2.93371
G1 X161.837 Y100.149 E.01014
G1 X58.163 Y100.149 E2.93371
G1 X58.163 Y99.791 E.01014
M73 P9 R48
G1 X161.837 Y99.791 E2.93371
G1 X161.837 Y99.432 E.01014
G1 X58.163 Y99.432 E2.93371
G1 X58.163 Y99.074 E.01014
G1 X161.837 Y99.074 E2.93371
G1 X161.837 Y98.716 E.01014
G1 X58.163 Y98.716 E2.93371
G1 X58.163 Y98.358 E.01014
G1 X161.837 Y98.358 E2.93371
G1 X161.837 Y97.999 E.01014
G1 X58.163 Y97.999 E2.93371
G1 X58.163 Y97.641 E.01014
G1 X161.837 Y97.641 E2.93371
G1 X161.837 Y97.283 E.01014
G1 X58.163 Y97.283 E2.93371
G1 X58.163 Y96.925 E.01014
G1 X161.837 Y96.925 E2.93371
G1 X161.837 Y96.567 E.01014
G1 X58.163 Y96.567 E2.93371
G1 X58.163 Y96.208 E.01014
G1 X161.837 Y96.208 E2.93371
G1 X161.837 Y95.85 E.01014
G1 X58.163 Y95.85 E2.93371
G1 X58.163 Y95.492 E.01014
G1 X161.837 Y95.492 E2.93371
G1 X161.837 Y95.134 E.01014
M73 P10 R48
G1 X58.163 Y95.134 E2.93371
G1 X58.163 Y94.775 E.01014
