;TIME:1709.32
;Filament used:2.79664m
;Layer height:0.280
; HEADER_BLOCK_START
; generated by Creality_Print V6.3.0.3420 on 2026-04-04 at 16:35:07
; total layer number: 75
; filament_density: 1.24
; filament_diameter: 1.75
; max_z_height: 21.00
; creality_uuid: 36fe33a2-d6aa-4c76-83da-bc80bbc72732
; HEADER_BLOCK_END

; MINX = 80.00
; MINY = 90.00
; MINZ = 0.00
; MAXX = 140.00
; MAXY = 130.00
; MAXZ = 21.00

; multicolor_method = 0 
; THUMBNAIL_BLOCK_START

;
; THUMBNAIL_BLOCK_END

; THUMBNAIL_BLOCK_START

;
; THUMBNAIL_BLOCK_END

; external perimeters extrusion width = 0.42mm
; perimeters extrusion width = 0.45mm
; infill extrusion width = 0.45mm
; solid infill extrusion width = 0.42mm
; top infill extrusion width = 0.42mm
; support material extrusion width = 0.40mm
; first layer extrusion width = 0.50mm

; EXECUTABLE_BLOCK_START
M73 P0 R28
M201 X5000 Y5000 Z500 E5000
M203 X500 Y500 Z30 E100
M204 P5000 R2500 T5000 ; sets acceleration (P, T) and retract acceleration (R), mm/sec^2
M205 X10.00 Y10.00 Z0.40 E5.00 ; sets the jerk limits, mm/sec
; max_print_temp = 50,190
;TYPE:Custom
M220 S100 ;Reset Feedrate 
M221 S100 ;Reset Flowrate 
 
M140 S50 ;Set final bed temp 
G28 ;Home 
 
G92 E0 ;Reset Extruder 
G1 Z2.0 F3000 ;Move Z Axis up 
M104 S190 ;Set final nozzle temp 
G1 X-2.1 Y20 Z0.28 F5000.0 ;Move to start position 
M190 S50 ;Wait for bed temp to stabilize 
M109 S190 ;Wait for nozzle temp to stabilize 
G1 X-2.1 Y145.0 Z0.28 F1500.0 E15 ;Draw the first line 
G1 X-2.4 Y145.0 Z0.28 F5000.0 ;Move to side a little 
G1 X-2.4 Y20 Z0.28 F1500.0 E30 ;Draw the second line 
G92 E0  ;Reset Extruder 
G1 E-1.0000 F1800 ;Retract a bit 
G1 Z2.0 F3000 ;Move Z Axis up 
G1 E0.0000 F1800
G90
G21
M83 ; use relative distances for extrusion
;filament start gcode
G1 E-1.2 F2400
G1 Z.28 F9000
M106 S0
;LAYER_CHANGE
;Z:0.28
;HEIGHT:0.28
;BEFORE_LAYER_CHANGE
;0.28
G92 E0

;_SET_FAN_SPEED_CHANGING_LAYER
M204 P500
M205 X10 Y10
; printing object 08_tolerance_test.stl id:0 copy 0
M204 T500
G1 X88.364 Y112.564 Z.48 F9000
G1 Z.28
G1 E1.2 F1800
;TYPE:Support
;WIDTH:0.5
G3 X91.746 Y115 I-.377 J4.089 E.21264
G3 X84.334 Y114.83 I-3.708 J.011 E.5761
G3 X88.299 Y112.557 I3.642 J1.757 E.2363
G1 X90.937 Y116.948 F9000
G1 F1800
G1 X90.937 Y114.383 E.12478
G2 X90.448 Y113.867 I-1.377 J.815 E.03486
G1 X90.448 Y117.26 E.16504
G3 X89.96 Y117.679 I-1.026 J-.703 E.03168
G1 X89.96 Y113.508 E.20291
G2 X89.471 Y113.239 I-.834 J.938 E.02736
G1 X89.471 Y117.982 E.23074
G1 X88.982 Y118.185 E.02574
G1 X88.982 Y113.069 E.2489
G2 X88.493 Y112.977 I-.445 J1.027 E.02439
G1 X88.493 Y118.282 E.25806
G1 X88.004 Y118.346 E.02398
G1 X88.004 Y112.924 E.2638
G1 X87.516 Y112.979 E.02393
G1 X87.516 Y118.283 E.25806
G3 X87.027 Y118.188 I-.068 J-.959 E.0245
G1 X87.027 Y113.073 E.24888
G1 X86.538 Y113.243 E.02519
G1 X86.538 Y117.986 E.23072
G3 X86.049 Y117.686 I.316 J-1.062 E.02823
G1 X86.049 Y113.516 E.20287
G2 X85.561 Y113.88 I.555 J1.255 E.0299
G1 X85.56 Y117.271 E.16501
G3 X85.072 Y116.601 I1.006 J-1.247 E.04082
G1 X85.072 Y114.088 E.12229
G1 E-1.2 F2400
;WIPE_START
G1 F1800
G1 X85.072 Y116.088
;WIPE_END
G1 X86.587 Y119.59 Z.48 F9000
G1 X91.443 Y130.818 Z.48
G1 Z.28
G1 E1.2 F1800
G1 X91.594 Y131.251 E.02232
G3 X84.25 Y130.45 I-3.863 J1.35 E.80249
G1 X91.213 Y130.45 E.33874
G1 X91.408 Y130.762 E.01789
G1 X91.426 Y133.828 F9000
G1 F1800
G2 X90.937 Y130.846 I-4.967 J-.717 E.14931
G1 X90.937 Y134.443 E.17501
G3 X90.448 Y135.109 I-1.705 J-.739 E.04053
G1 X90.448 Y130.846 E.20742
G1 X89.96 Y130.846 E.02378
G1 X89.96 Y135.565 E.22959
G1 X89.471 Y135.872 E.02808
G1 X89.471 Y130.846 E.24453
G1 X88.982 Y130.846 E.02378
M73 P1 R28
G1 X88.982 Y136.079 E.25458
G3 X88.493 Y136.234 I-.586 J-.993 E.02517
G1 X88.493 Y130.846 E.26215
G1 X88.004 Y130.846 E.02378
G1 X88.004 Y136.289 E.26483
G3 X87.516 Y136.296 I-.259 J-1.068 E.02398
G1 X87.516 Y130.846 E.26514
G1 X87.027 Y130.846 E.02378
G1 X87.027 Y136.241 E.26246
G3 X86.538 Y136.099 I.067 J-1.142 E.02497
G1 X86.538 Y130.846 E.25555
G1 X86.049 Y130.846 E.02378
G1 X86.049 Y135.908 E.24628
G1 X85.56 Y135.601 E.02808
G1 X85.56 Y130.846 E.23134
G1 X85.072 Y130.846 E.02378
G1 X85.072 Y135.167 E.2102
G3 X84.583 Y134.534 I1.143 J-1.388 E.03921
G1 X84.583 Y130.846 E.17944
G1 X84.469 Y130.846 E.00552
G2 X84.094 Y131.879 I4.537 J2.233 E.05357
G1 X84.094 Y133.991 E.10274
G1 E-1.2 F2400
;WIPE_START
G1 F1800
G1 X84.094 Y131.991
;WIPE_END
G1 X87.905 Y131.789 Z.48 F9000
G1 X106.513 Y130.806 Z.48
G1 Z.28
G1 E1.2 F1800
G3 X99.364 Y130.45 I-3.671 J1.766 E.82007
G1 X106.291 Y130.45 E.33701
G1 X106.478 Y130.75 E.01718
G1 X106.09 Y134.64 F9000
G1 F1800
G1 X106.09 Y130.875 E.18315
G1 X105.601 Y130.846 E.02382
G1 X105.601 Y134.982 E.20121
G3 X105.112 Y135.466 I-1.306 J-.831 E.03374
G1 X105.112 Y130.846 E.22475
G1 X104.623 Y130.846 E.02378
G1 X104.623 Y135.772 E.23967
G3 X104.135 Y135.998 I-.74 J-.959 E.02642
G1 X104.135 Y130.846 E.25067
G1 X103.646 Y130.846 E.02378
G1 X103.646 Y136.169 E.25897
G1 X103.157 Y136.224 E.02393
G1 X103.157 Y130.846 E.26165
G1 X102.668 Y130.846 E.02378
G1 X102.668 Y136.243 E.26258
G1 X102.179 Y136.188 E.02393
G1 X102.179 Y130.846 E.2599
G1 X101.691 Y130.846 E.02378
G1 X101.691 Y136.058 E.25356
G3 X101.202 Y135.879 I.148 J-1.162 E.02553
G1 X101.202 Y130.846 E.24487
G1 X100.713 Y130.846 E.02378
G1 X100.713 Y135.572 E.22995
G3 X100.224 Y135.152 I.679 J-1.283 E.03164
G1 X100.224 Y130.846 E.20947
G1 X99.735 Y130.846 E.02378
G1 X99.735 Y134.539 E.17964
G3 X99.384 Y133.826 I1.391 J-1.128 E.03896
G1 X99.247 Y133.435 E.02019
G1 X99.247 Y131.108 E.11321
G1 E-1.2 F2400
;WIPE_START
G1 F1800
G1 X99.247 Y133.108
;WIPE_END
G1 X99.999 Y129.366 Z.48 F9000
G1 X103.357 Y112.666 Z.48
G1 Z.28
G1 E1.2 F1800
G3 X106.809 Y115.283 I-.245 J3.908 E.2233
G3 X99.196 Y115.318 I-3.808 J-.252 E.55702
G3 X103.292 Y112.658 I3.821 J1.4 E.25482
G1 X106.09 Y116.912 F9000
G1 F1800
G1 X106.09 Y114.731 E.10613
G2 X105.601 Y114.124 I-1.577 J.77 E.03823
G1 X105.601 Y117.224 E.15082
G3 X105.112 Y117.687 I-1.108 J-.681 E.03312
G1 X105.112 Y113.707 E.19362
G1 X104.623 Y113.4 E.02807
G1 X104.623 Y118.026 E.22506
G1 X104.135 Y118.229 E.02574
G1 X104.135 Y113.224 E.24347
G2 X103.646 Y113.096 I-.525 J1.009 E.02479
G1 X103.646 Y118.362 E.25616
G1 X103.157 Y118.426 E.02398
G1 X103.157 Y113.041 E.26197
G2 X102.668 Y113.063 I-.197 J1.084 E.024
G1 X102.668 Y118.403 E.2598
G1 X102.179 Y118.339 E.02398
G1 X102.179 Y113.12 E.25388
G1 X101.691 Y113.291 E.02519
G1 X101.691 Y118.156 E.2367
G3 X101.202 Y117.928 I.183 J-1.027 E.02656
G1 X101.202 Y113.52 E.21442
G2 X100.713 Y113.827 I.429 J1.226 E.02831
G1 X100.713 Y117.553 E.18125
G3 X100.224 Y116.996 I.794 J-1.19 E.03645
G1 X100.224 Y114.314 E.13046
G2 X99.735 Y115.034 I1.336 J1.433 E.04267
G1 X99.735 Y116.566 E.07452
G1 E-1.2 F2400
;WIPE_START
G1 F1800
G1 X99.735 Y115.034
G1 X99.999 Y114.647
;WIPE_END
G1 X103.795 Y114.256 Z.48 F9000
G1 X118.393 Y112.755 Z.48
G1 Z.28
G1 E1.2 F1800
G3 X121.88 Y115.506 I-.367 J4.05 E.22857
G3 X114.138 Y115.636 I-3.881 J-.507 E.54227
G3 X118.327 Y112.747 I3.903 J1.178 E.26736
G1 X121.242 Y116.876 F9000
G1 F1800
G1 X121.242 Y115.024 E.09013
G2 X120.753 Y114.341 I-1.744 J.732 E.0412
G1 X120.753 Y117.188 E.13852
G3 X120.265 Y117.695 I-1.19 J-.659 E.03464
G1 X120.265 Y113.876 E.18578
G1 X119.776 Y113.569 E.02807
G1 X119.776 Y118.07 E.21895
G3 X119.287 Y118.273 I-.624 J-.811 E.02605
G1 X119.287 Y113.357 E.23915
G2 X118.798 Y113.199 I-.592 J.993 E.02521
M73 P1 R27
G1 X118.798 Y118.442 E.25506
G1 X118.309 Y118.506 E.02398
G1 X118.309 Y113.144 E.26087
G2 X117.821 Y113.136 I-.261 J1.068 E.02398
G1 X117.821 Y118.523 E.26208
G1 X117.332 Y118.459 E.02398
G1 X117.332 Y113.191 E.25627
G2 X116.843 Y113.334 I.068 J1.143 E.02498
G1 X116.843 Y118.327 E.24293
G1 X116.354 Y118.124 E.02574
G1 X116.354 Y113.527 E.22369
G1 X115.865 Y113.833 E.02807
G1 X115.865 Y117.794 E.19272
G3 X115.377 Y117.358 I.571 J-1.131 E.03226
G1 X115.377 Y114.273 E.15006
G2 X114.888 Y114.917 I1.168 J1.394 E.03964
G1 X114.888 Y117.046 E.10359
G1 E-1.2 F2400
;WIPE_START
G1 F1800
G1 X114.888 Y115.046
;WIPE_END
G1 X116.298 Y118.592 Z.48 F9000
G1 X121.127 Y130.732 Z.48
G1 Z.28
G1 E1.2 F1800
G3 X114.236 Y130.45 I-3.526 J1.826 E.80741
G1 X120.939 Y130.45 E.3261
G1 X121.09 Y130.678 E.0133
G1 X120.753 Y134.582 F9000
G1 F1800
G1 X120.753 Y130.886 E.17983
G1 X120.265 Y130.846 E.02386
G1 X120.265 Y134.911 E.19777
G3 X119.776 Y135.386 I-1.265 J-.813 E.03344
G1 X119.776 Y130.846 E.22087
G1 X119.287 Y130.846 E.02378
G1 X119.287 Y135.695 E.23589
G3 X118.798 Y135.907 I-.698 J-.941 E.02615
G1 X118.798 Y130.846 E.2462
G1 X118.309 Y130.846 E.02378
G1 X118.309 Y136.063 E.25381
G1 X117.821 Y136.114 E.02391
G1 X117.821 Y130.846 E.25629
M73 P2 R27
G1 X117.332 Y130.846 E.02378
G1 X117.332 Y136.116 E.25638
G3 X116.843 Y136.052 I.25 J-3.818 E.024
G1 X116.843 Y130.846 E.25327
G1 X116.354 Y130.846 E.02378
G1 X116.354 Y135.897 E.24574
G3 X115.865 Y135.687 I.199 J-1.137 E.02611
G1 X115.865 Y130.846 E.23553
G1 X115.377 Y130.846 E.02378
G1 X115.377 Y135.359 E.21955
G3 X114.888 Y134.876 I.772 J-1.27 E.03373
G1 X114.888 Y130.846 E.19606
G1 X114.399 Y130.963 E.02446
G1 X114.399 Y134.543 E.17413
G1 E-1.2 F2400
;WIPE_START
G1 F1800
G1 X114.399 Y132.543
;WIPE_END
G1 X118.202 Y132.228 Z.48 F9000
G1 X136.161 Y130.744 Z.48
G1 Z.28
G1 E1.2 F1800
G3 X129.274 Y130.45 I-3.527 J1.813 E.80569
G1 X135.966 Y130.45 E.32558
G1 X136.124 Y130.689 E.01393
G1 X135.906 Y134.39 F9000
G1 F1800
G1 X135.906 Y131.186 E.15588
G2 X135.417 Y130.846 I-.339 J-.035 E.03527
G1 X135.417 Y134.795 E.19213
G3 X134.928 Y135.288 I-9.392 J-8.834 E.03376
G1 X134.928 Y130.846 E.21609
G1 X134.439 Y130.846 E.02378
G1 X134.439 Y135.623 E.23242
G3 X133.951 Y135.87 I-.773 J-.924 E.02687
G1 X133.951 Y130.846 E.24442
G1 X133.462 Y130.846 E.02378
G1 X133.462 Y136.038 E.25258
G3 X132.973 Y136.105 I-.389 J-1.011 E.02422
G1 X132.973 Y130.846 E.25587
G1 X132.484 Y130.846 E.02378
G1 X132.484 Y136.135 E.25731
G1 X131.996 Y136.071 E.02398
G1 X131.996 Y130.846 E.25421
G1 X131.507 Y130.846 E.02378
G1 X131.507 Y135.946 E.24813
G1 X131.018 Y135.762 E.02542
G1 X131.018 Y130.846 E.23915
G1 X130.529 Y130.846 E.02378
G1 X130.529 Y135.443 E.22366
G3 X130.04 Y135.02 I.782 J-1.396 E.03168
G1 X130.04 Y130.846 E.20305
G1 X129.552 Y130.846 E.02378
G1 X129.552 Y134.372 E.17156
G3 X129.063 Y131.359 I4.306 J-2.245 E.15107
G1 E-1.2 F2400
;WIPE_START
G1 F1800
G1 X129.096 Y133.133
G1 X129.174 Y133.345
;WIPE_END
G1 X129.947 Y129.608 Z.48 F9000
G1 X133.411 Y112.851 Z.48
G1 Z.28
G1 E1.2 F1800
G3 X136.908 Y116.047 I-.223 J3.756 E.24936
G3 X129.073 Y115.905 I-3.899 J-1.081 E.51908
G3 X133.345 Y112.843 I3.97 J1.027 E.27757
G1 X136.395 Y116.77 F9000
G1 F1800
G1 X136.395 Y115.42 E.06567
G2 X135.906 Y114.588 I-7.365 J3.768 E.04696
G1 X135.906 Y117.152 E.12473
G3 X135.417 Y117.703 I-1.271 J-.637 E.03622
G1 X135.417 Y114.1 E.17524
G2 X134.928 Y113.76 I-.992 J.902 E.02923
G1 X134.928 Y118.078 E.21007
G3 X134.439 Y118.317 I-.691 J-.792 E.02679
G1 X134.44 Y113.505 E.23412
G1 X133.951 Y113.334 E.02519
G1 X133.951 Y118.52 E.25228
G3 X133.462 Y118.586 I-.368 J-.879 E.02427
G1 X133.366 Y113.244 E.25993
G2 X132.973 Y113.212 I-.266 J.847 E.01936
G1 X132.973 Y118.643 E.26422
G1 X132.484 Y118.579 E.02398
G1 X132.484 Y113.267 E.25841
G2 X131.996 Y113.373 I-.013 J1.125 E.02453
G1 X131.996 Y118.497 E.24931
G1 X131.507 Y118.295 E.02574
G1 X131.507 Y113.544 E.23115
G2 X131.018 Y113.829 I.382 J1.215 E.02778
G1 X131.018 Y118.036 E.20467
G1 X130.529 Y117.661 E.02997
G1 X130.529 Y114.212 E.16783
G2 X130.04 Y114.764 I.966 J1.348 E.03617
G1 X130.04 Y117.082 E.1128
G3 X129.552 Y115.168 I2.001 J-1.53 E.09876
G1 E-1.2 F2400
;WIPE_START
G1 F9000
G1 X129.552 Y116.123
G1 X130.026 Y117.054
;WIPE_END
G1 X132.242 Y120.161 Z.48
G1 X138.66 Y129.16 Z.48
G1 Z.28
G1 E1.2 F1800
;TYPE:Inner wall
;WIDTH:0.5
G1 X80.84 Y129.16 E2.81294
G1 X80.84 Y90.84 E1.86427
G1 X139.16 Y90.84 E2.83726
G1 X139.16 Y129.16 E1.86427
G1 X138.7 Y129.16 E.02238
G1 E-1.2 F2400
;WIPE_START
G1 F9000
G1 X136.7 Y129.16
;WIPE_END
G1 X139.6 Y129.6 Z.48
G1 Z.28
M73 P3 R27
G1 E1.2 F1800
;TYPE:Outer wall
G1 X80.4 Y129.6 E2.88006
G1 X80.4 Y90.4 E1.90707
G1 X139.6 Y90.4 E2.88006
G1 X139.6 Y129.56 E1.90512
G1 E-1.2 F2400
;WIPE_START
G1 F9000
G1 X137.6 Y129.561
;WIPE_END
G1 X135.289 Y126.524 Z.48
G1 X128.149 Y117.142 Z.48
G1 Z.28
G1 E1.2 F1800
;TYPE:Inner wall
G1 X127.835 Y116.384 E.03993
G1 X127.653 Y115 E.06791
G1 X127.82 Y113.728 E.06241
G1 X127.868 Y113.536 E.00964
G1 X128.369 Y112.326 E.06368
G1 X129.112 Y111.359 E.05935
G1 X129.288 Y111.166 E.01269
G1 X130.326 Y110.369 E.06368
G1 X131.616 Y109.835 E.06791
G1 X133 Y109.653 E.06791
G1 X134.384 Y109.835 E.06791
G1 X135.674 Y110.369 E.06791
G1 X136.781 Y111.219 E.06791
G1 X137.631 Y112.326 E.06791
G1 X138.165 Y113.616 E.06791
G1 X138.347 Y115 E.06791
G1 X138.165 Y116.384 E.06791
G1 X137.631 Y117.674 E.06791
G1 X136.781 Y118.781 E.06791
G1 X135.674 Y119.631 E.06791
G1 X134.464 Y120.132 E.06368
G1 X133.005 Y120.348 E.07176
G1 X131.616 Y120.165 E.06816
G1 X130.326 Y119.631 E.06791
G1 X129.219 Y118.781 E.06791
G1 X128.369 Y117.674 E.06791
G1 X128.164 Y117.179 E.02603
G1 X128.747 Y117.436 F9000
;TYPE:Outer wall
G1 F1800
G1 X128.264 Y116.269 E.06144
G1 X128.097 Y115 E.06227
G1 X128.264 Y113.731 E.06227
G1 X128.753 Y112.548 E.06227
G1 X129.556 Y111.515 E.06364
G1 X130.548 Y110.753 E.06087
G1 X131.731 Y110.264 E.06227
G1 X133 Y110.097 E.06227
G1 X134.269 Y110.264 E.06227
G1 X135.452 Y110.753 E.06227
G1 X136.467 Y111.533 E.06227
G1 X137.247 Y112.548 E.06227
G1 X137.736 Y113.731 E.06227
G1 X137.903 Y115 E.06227
G1 X137.736 Y116.269 E.06227
G1 X137.247 Y117.452 E.06227
G1 X136.467 Y118.467 E.06227
G1 X135.452 Y119.247 E.06227
G1 X134.296 Y119.725 E.06087
G1 X133.001 Y119.904 E.06361
G1 X131.731 Y119.736 E.06231
G1 X130.548 Y119.247 E.06227
G1 X129.533 Y118.467 E.06227
G1 X128.767 Y117.47 E.06116
G1 E-1.2 F2400
;WIPE_START
G1 F9000
G1 X128.264 Y116.269
G1 X128.173 Y115.577
;WIPE_END
G1 X124.357 Y115.63 Z.48
G1 X112.857 Y115.788 Z.48
G1 Z.28
G1 E1.2 F1800
;TYPE:Inner wall
G1 X112.753 Y115 E.03867
G1 X112.932 Y113.642 E.06664
G1 X113.402 Y112.507 E.05978
G1 X113.509 Y112.307 E.011
G1 X114.29 Y111.29 E.06241
G1 X115.195 Y110.595 E.05549
G1 X115.457 Y110.423 E.01527
G1 X116.642 Y109.932 E.06241
G1 X118 Y109.753 E.06664
G1 X119.358 Y109.932 E.06664
G1 X120.624 Y110.456 E.06664
G1 X121.549 Y111.166 E.05676
G1 X121.763 Y111.359 E.014
G1 X122.544 Y112.376 E.06241
G1 X123.024 Y113.536 E.06105
G1 X123.08 Y113.728 E.00973
G1 X123.247 Y115 E.06241
G1 X123.068 Y116.358 E.06664
G1 X122.544 Y117.624 E.06664
G1 X121.71 Y118.71 E.06664
G1 X120.624 Y119.544 E.06664
G1 X119.358 Y120.068 E.06664
G1 X118 Y120.247 E.06664
G1 X116.642 Y120.068 E.06664
G1 X115.376 Y119.544 E.06664
G1 X114.29 Y118.71 E.06664
G1 X113.456 Y117.624 E.06664
G1 X112.932 Y116.358 E.06664
G1 X112.862 Y115.828 E.02603
G1 X113.367 Y116.259 F9000
;TYPE:Outer wall
G1 F1800
G1 X113.36 Y116.243 E.00083
G1 X113.197 Y115 E.061
G1 X113.36 Y113.757 E.061
G1 X113.84 Y112.598 E.061
G1 X114.626 Y111.586 E.06237
G1 X115.598 Y110.84 E.0596
G1 X116.757 Y110.36 E.061
G1 X118 Y110.197 E.061
G1 X119.243 Y110.36 E.061
G1 X120.402 Y110.84 E.061
G3 X121.414 Y111.626 I-8.574 J12.085 E.06239
G1 X122.16 Y112.598 E.0596
G1 X122.64 Y113.757 E.061
G1 X122.803 Y115 E.061
G1 X122.64 Y116.243 E.061
G1 X122.16 Y117.402 E.061
G1 X121.397 Y118.397 E.061
G1 X120.402 Y119.16 E.061
G1 X119.243 Y119.64 E.061
G1 X118 Y119.803 E.061
G1 X116.757 Y119.64 E.061
G1 X115.598 Y119.16 E.061
G1 X114.603 Y118.397 E.061
G1 X113.84 Y117.402 E.061
G1 X113.382 Y116.296 E.05823
G1 E-1.2 F2400
;WIPE_START
G1 F9000
G1 X113.36 Y116.243
G1 X113.197 Y115
G1 X113.286 Y114.317
;WIPE_END
G1 X109.48 Y114.038 Z.48
G1 X98.216 Y113.214 Z.48
G1 Z.28
G1 E1.2 F1800
;TYPE:Inner wall
G1 X98.542 Y112.426 E.04148
G1 X99.253 Y111.5 E.05681
G1 X99.429 Y111.308 E.01269
G1 X100.426 Y110.542 E.06114
G1 X101.668 Y110.028 E.06537
G1 X103 Y109.853 E.06537
G1 X104.332 Y110.028 E.06537
G1 X105.574 Y110.542 E.06537
G1 X106.479 Y111.237 E.05549
G1 X106.692 Y111.429 E.014
G1 X107.458 Y112.426 E.06114
G1 X107.928 Y113.562 E.05978
