;TIME:2164.65
;Filament used:2.90945m
;Layer height:0.200
; HEADER_BLOCK_START
; generated by Creality_Print V6.3.0.3420 on 2026-04-04 at 16:56:36
; total layer number: 129
; filament_density: 1.24
; filament_diameter: 1.75
; max_z_height: 21.00
; creality_uuid: 0981a0a0-d742-4d66-a9dc-cedfd86f48db
; HEADER_BLOCK_END

; MINX = 80.00
; MINY = 90.00
; MINZ = 0.00
; MAXX = 140.00
; MAXY = 130.00
; MAXZ = 21.00

; multicolor_method = 0 
; THUMBNAIL_BLOCK_START

;
; THUMBNAIL_BLOCK_END

; THUMBNAIL_BLOCK_START

;
; THUMBNAIL_BLOCK_END

; external perimeters extrusion width = 0.42mm
; perimeters extrusion width = 0.45mm
; infill extrusion width = 0.45mm
; solid infill extrusion width = 0.42mm
; top infill extrusion width = 0.42mm
; support material extrusion width = 0.40mm
; first layer extrusion width = 0.50mm

; EXECUTABLE_BLOCK_START
M73 P0 R36
M201 X5000 Y5000 Z500 E5000
M203 X500 Y500 Z30 E100
M204 P5000 R2500 T5000 ; sets acceleration (P, T) and retract acceleration (R), mm/sec^2
M205 X10.00 Y10.00 Z0.40 E5.00 ; sets the jerk limits, mm/sec
; max_print_temp = 50,190
;TYPE:Custom
M220 S100 ;Reset Feedrate 
M221 S100 ;Reset Flowrate 
 
M140 S50 ;Set final bed temp 
G28 ;Home 
 
G92 E0 ;Reset Extruder 
G1 Z2.0 F3000 ;Move Z Axis up 
M104 S190 ;Set final nozzle temp 
G1 X-2.1 Y20 Z0.28 F5000.0 ;Move to start position 
M190 S50 ;Wait for bed temp to stabilize 
M109 S190 ;Wait for nozzle temp to stabilize 
G1 X-2.1 Y145.0 Z0.28 F1500.0 E15 ;Draw the first line 
G1 X-2.4 Y145.0 Z0.28 F5000.0 ;Move to side a little 
M73 P0 R35
G1 X-2.4 Y20 Z0.28 F1500.0 E30 ;Draw the second line 
G92 E0  ;Reset Extruder 
G1 E-1.0000 F1800 ;Retract a bit 
G1 Z2.0 F3000 ;Move Z Axis up 
G1 E0.0000 F1800
G90
G21
M83 ; use relative distances for extrusion
;filament start gcode
G1 E-1.2 F2400
G1 Z.2 F9000
M106 S0
;LAYER_CHANGE
;Z:0.2
;HEIGHT:0.2
;BEFORE_LAYER_CHANGE
;0.2
G92 E0

;_SET_FAN_SPEED_CHANGING_LAYER
M204 P500
M205 X10 Y10
; printing object 08_tolerance_test.stl id:0 copy 0
M204 T500
G1 X139.143 Y124.575 Z.4 F9000
G1 Z.2
G1 E1.2 F1800
;TYPE:Inner wall
;WIDTH:0.499999
G1 X139.143 Y129.143 E.16493
G1 X80.857 Y129.143 E2.10447
G1 X80.857 Y90.857 E1.38235
G1 X139.143 Y90.857 E2.10447
G1 X139.143 Y113.639 E.82256
;WIDTH:0.543033
G1 X139.121 Y113.74 E.00407
;WIDTH:0.586067
G1 X139.1 Y113.841 E.00443
;WIDTH:0.6291
G1 X139.078 Y113.941 E.00478
;WIDTH:0.672134
G1 X139.057 Y114.042 E.00513
;WIDTH:0.715166
G1 X139.035 Y114.143 E.00548
G3 X139.035 Y115.857 I-15.215 J.857 E.09104
G1 X139.057 Y115.937 E.00439
;WIDTH:0.672133
G1 X139.078 Y116.016 E.00411
;WIDTH:0.6291
G1 X139.1 Y116.096 E.00383
;WIDTH:0.586066
G1 X139.121 Y116.176 E.00355
;WIDTH:0.543033
G1 X139.143 Y116.256 E.00327
;WIDTH:0.499999
G1 X139.143 Y124.535 E.29892
G1 E-1.2 F2400
;WIPE_START
G1 F9000
G1 X139.143 Y126.535
;WIPE_END
G1 X136.239 Y124.059 Z.4
G1 X128.133 Y117.147 Z.4
G1 Z.2
G1 E1.2 F1800
G1 X127.818 Y116.388 E.02965
G1 X127.636 Y115 E.05056
G1 X127.803 Y113.727 E.04636
G1 X127.853 Y113.528 E.0074
G1 X128.354 Y112.318 E.0473
G1 X129.098 Y111.349 E.04409
G1 X129.278 Y111.152 E.00966
G1 X130.318 Y110.354 E.0473
G1 X131.612 Y109.818 E.05056
G1 X133 Y109.636 E.05056
G1 X134.388 Y109.818 E.05056
G1 X135.682 Y110.354 E.05056
G1 X136.793 Y111.207 E.05056
G1 X137.646 Y112.318 E.05056
G1 X138.147 Y113.528 E.0473
G1 X138.207 Y113.805 E.01024
;WIDTH:0.543033
G1 X138.239 Y113.882 E.00327
;WIDTH:0.586067
G1 X138.271 Y113.958 E.00355
;WIDTH:0.6291
G1 X138.302 Y114.034 E.00383
;WIDTH:0.672134
G1 X138.334 Y114.111 E.00411
;WIDTH:0.715167
G1 X138.366 Y114.187 E.00439
G1 X138.436 Y114.9 E.03801
G1 X138.366 Y115.813 E.04865
G1 X138.331 Y115.91 E.00548
;WIDTH:0.672133
G1 X138.297 Y116.007 E.00513
;WIDTH:0.6291
G1 X138.262 Y116.105 E.00478
;WIDTH:0.586066
G1 X138.228 Y116.202 E.00443
;WIDTH:0.543033
G1 X138.193 Y116.299 E.00407
;WIDTH:0.499999
G1 X138.147 Y116.472 E.00646
G1 X137.646 Y117.682 E.0473
G1 X136.793 Y118.793 E.05056
G1 X135.682 Y119.646 E.05056
G1 X134.472 Y120.147 E.0473
G1 X133.005 Y120.365 E.05353
G1 X131.612 Y120.182 E.05076
G1 X130.318 Y119.646 E.05056
G1 X129.207 Y118.793 E.05056
G1 X128.354 Y117.682 E.05056
G1 X128.148 Y117.184 E.01947
G1 X128.746 Y117.434 F9000
;TYPE:Outer wall
G1 F1800
G1 X128.264 Y116.269 E.04553
G1 X128.097 Y115 E.04622
G1 X128.264 Y113.731 E.04622
G1 X128.753 Y112.548 E.04622
G1 X129.557 Y111.514 E.04727
G1 X130.548 Y110.753 E.04513
G1 X131.731 Y110.264 E.04622
G1 X133 Y110.097 E.04622
G1 X134.269 Y110.264 E.04622
G1 X135.452 Y110.753 E.04622
G1 X136.467 Y111.533 E.04622
G1 X137.247 Y112.548 E.04622
G1 X137.725 Y113.703 E.04513
G3 X137.9 Y114.97 I-45.778 J6.956 E.04618
G3 X137.736 Y116.269 I-64.666 J-7.463 E.04727
G1 X137.247 Y117.452 E.04622
G1 X136.467 Y118.467 E.04622
G1 X135.452 Y119.247 E.04622
G1 X134.297 Y119.725 E.04513
G1 X133.001 Y119.904 E.04724
G1 X131.731 Y119.736 E.04624
G1 X130.548 Y119.247 E.04622
G1 X129.533 Y118.467 E.04622
G1 X128.766 Y117.468 E.04546
G1 E-1.2 F2400
;WIPE_START
G1 F9000
G1 X128.264 Y116.269
G1 X128.172 Y115.575
;WIPE_END
G1 X124.357 Y115.668 Z.4
G1 X112.86 Y115.945 Z.4
G1 Z.2
G1 E1.2 F1800
;TYPE:Inner wall
G1 X112.736 Y115 E.03442
M73 P1 R35
G1 X112.9 Y113.753 E.04542
G1 X112.949 Y113.554 E.0074
G1 X113.441 Y112.368 E.04636
G1 X114.168 Y111.42 E.04314
G1 X114.349 Y111.223 E.00966
G1 X115.368 Y110.441 E.04636
G1 X116.637 Y109.915 E.04962
G1 X118 Y109.736 E.04962
G1 X119.363 Y109.915 E.04962
G1 X120.632 Y110.441 E.04962
G1 X121.559 Y111.152 E.04217
G1 X121.777 Y111.349 E.01063
G1 X122.559 Y112.368 E.04636
G1 X123.04 Y113.528 E.04535
G1 X123.097 Y113.727 E.00747
G1 X123.264 Y115 E.04636
G1 X123.085 Y116.363 E.04962
G1 X122.559 Y117.632 E.04962
G1 X121.723 Y118.723 E.04962
G1 X120.632 Y119.559 E.04962
G1 X119.363 Y120.085 E.04962
G1 X118 Y120.264 E.04962
G1 X116.637 Y120.085 E.04962
G1 X115.368 Y119.559 E.04962
G1 X114.277 Y118.723 E.04962
G1 X113.441 Y117.632 E.04962
G1 X112.915 Y116.362 E.04962
G1 X112.865 Y115.985 E.01375
G1 X113.367 Y116.261 F9000
;TYPE:Outer wall
G1 F1800
G1 X113.36 Y116.243 E.00068
G1 X113.197 Y115 E.04527
G1 X113.36 Y113.757 E.04528
G1 X113.84 Y112.598 E.04528
G1 X114.627 Y111.585 E.04633
G1 X115.598 Y110.84 E.04419
G1 X116.757 Y110.36 E.04527
G1 X118 Y110.197 E.04528
G1 X119.243 Y110.36 E.04528
G1 X120.402 Y110.84 E.04527
G3 X121.415 Y111.627 I-8.355 J11.798 E.04634
G1 X122.16 Y112.598 E.04419
G1 X122.64 Y113.757 E.04527
G1 X122.803 Y115 E.04528
G1 X122.64 Y116.243 E.04528
G1 X122.16 Y117.402 E.04527
G1 X121.397 Y118.397 E.04528
G1 X120.402 Y119.16 E.04528
G1 X119.243 Y119.64 E.04528
G1 X118 Y119.803 E.04528
G1 X116.757 Y119.64 E.04528
G1 X115.598 Y119.16 E.04528
G1 X114.603 Y118.397 E.04528
G1 X113.84 Y117.402 E.04528
G1 X113.383 Y116.298 E.04315
G1 E-1.2 F2400
;WIPE_START
G1 F9000
G1 X113.36 Y116.243
G1 X113.197 Y115
G1 X113.286 Y114.319
;WIPE_END
G1 X109.48 Y114.039 Z.4
G1 X98.199 Y113.21 Z.4
G1 Z.2
G1 E1.2 F1800
;TYPE:Inner wall
G1 X98.527 Y112.418 E.03095
G1 X99.239 Y111.49 E.0422
G1 X99.42 Y111.293 E.00966
G1 X100.418 Y110.527 E.04542
G1 X101.663 Y110.012 E.04868
G1 X103 Y109.836 E.04868
G1 X104.337 Y110.012 E.04868
G1 X105.582 Y110.527 E.04868
G1 X106.488 Y111.223 E.04122
G1 X106.707 Y111.42 E.01063
G1 X107.473 Y112.418 E.04542
G1 X107.943 Y113.554 E.04441
G1 X108 Y113.753 E.00747
G1 X108.164 Y115 E.04542
G1 X107.988 Y116.337 E.04868
G1 X107.473 Y117.582 E.04868
G1 X106.652 Y118.652 E.04868
G1 X105.582 Y119.473 E.04868
G1 X104.337 Y119.988 E.04868
G1 X103 Y120.164 E.04868
G1 X101.663 Y119.988 E.04868
G1 X100.418 Y119.473 E.04868
G1 X99.348 Y118.652 E.04868
G1 X98.527 Y117.582 E.04868
G1 X98.012 Y116.337 E.04868
G1 X97.836 Y115 E.04868
G1 X97.996 Y113.779 E.04448
G1 X98.046 Y113.58 E.0074
G1 X98.184 Y113.247 E.01302
G1 X98.454 Y113.801 F9000
;TYPE:Outer wall
G1 F1800
G1 X98.457 Y113.783 E.00068
G1 X98.927 Y112.648 E.04433
G1 X99.698 Y111.656 E.04538
G1 X100.648 Y110.927 E.04325
G1 X101.783 Y110.457 E.04433
G1 X103 Y110.297 E.04433
G1 X104.217 Y110.457 E.04433
G1 X105.352 Y110.927 E.04433
G3 X106.344 Y111.698 I-8.187 J11.557 E.0454
G1 X107.073 Y112.648 E.04325
G1 X107.543 Y113.783 E.04433
G1 X107.703 Y115 E.04433
G1 X107.543 Y116.217 E.04433
G1 X107.073 Y117.352 E.04433
G1 X106.326 Y118.326 E.04433
G1 X105.352 Y119.073 E.04433
G1 X104.217 Y119.543 E.04433
G1 X103 Y119.703 E.04433
G1 X101.783 Y119.543 E.04433
G1 X100.648 Y119.073 E.04433
G1 X99.674 Y118.326 E.04433
G1 X98.927 Y117.352 E.04433
G1 X98.457 Y116.217 E.04433
G1 X98.297 Y115 E.04433
G1 X98.449 Y113.841 E.04221
G1 E-1.2 F2400
;WIPE_START
G1 F9000
G1 X98.457 Y113.783
G1 X98.927 Y112.648
G1 X99.364 Y112.085
;WIPE_END
G1 X96.071 Y114.013 Z.4
G1 X86.3 Y119.731 Z.4
G1 Z.2
G1 E1.2 F1800
;TYPE:Inner wall
G1 X85.468 Y119.386 E.03254
G1 X84.419 Y118.581 E.04774
G1 X83.614 Y117.532 E.04774
G1 X83.108 Y116.311 E.04774
G1 X82.936 Y115 E.04774
G1 X83.108 Y113.689 E.04774
G1 X83.614 Y112.468 E.04774
G1 X84.419 Y111.419 E.04774
G1 X85.468 Y110.614 E.04774
G1 X86.689 Y110.108 E.04774
G1 X88 Y109.936 E.04774
G1 X89.311 Y110.108 E.04774
G1 X90.532 Y110.614 E.04774
G1 X91.417 Y111.293 E.04028
G1 X91.636 Y111.49 E.01063
G1 X92.386 Y112.468 E.04448
G1 X92.847 Y113.58 E.04346
G1 X92.904 Y113.779 E.00747
G1 X93.064 Y115 E.04448
G1 X92.892 Y116.311 E.04774
G1 X92.386 Y117.532 E.04774
G1 X91.581 Y118.581 E.04774
G1 X90.532 Y119.386 E.04774
G1 X89.311 Y119.892 E.04774
G1 X88 Y120.064 E.04774
G1 X86.689 Y119.892 E.04774
G1 X86.337 Y119.746 E.01375
G1 X86.827 Y119.449 F9000
;TYPE:Outer wall
G1 F1800
G1 X86.809 Y119.447 E.00068
G1 X85.698 Y118.987 E.04339
G1 X84.745 Y118.255 E.04339
G1 X84.013 Y117.302 E.04339
G1 X83.553 Y116.191 E.04339
G1 X83.397 Y115 E.04339
G1 X83.553 Y113.809 E.04339
G1 X84.013 Y112.698 E.04339
G1 X84.745 Y111.745 E.04339
G1 X85.698 Y111.013 E.04339
G1 X86.809 Y110.553 E.04339
G1 X88 Y110.397 E.04339
G1 X89.191 Y110.553 E.04339
G1 X90.302 Y111.013 E.04339
G3 X91.273 Y111.769 I-8.018 J11.316 E.04445
G1 X91.987 Y112.698 E.0423
G1 X92.447 Y113.809 E.04339
G1 X92.603 Y115 E.04339
G1 X92.447 Y116.191 E.04339
G1 X91.987 Y117.302 E.04339
G1 X91.255 Y118.255 E.04339
G1 X90.302 Y118.987 E.04339
G1 X89.191 Y119.447 E.04339
G1 X88 Y119.603 E.04339
G1 X86.867 Y119.454 E.04126
G1 E-1.2 F2400
;WIPE_START
G1 F9000
G1 X86.809 Y119.447
G1 X85.698 Y118.987
G1 X85.112 Y118.537
;WIPE_END
G1 X88.852 Y119.296 Z.4
G1 X139.6 Y129.6 Z.4
G1 Z.2
G1 E1.2 F1800
G1 X80.4 Y129.6 E2.13747
G1 X80.4 Y90.4 E1.41535
G1 X139.6 Y90.4 E2.13747
G1 X139.6 Y129.56 E1.41391
G1 E-1.2 F2400
;WIPE_START
G1 F9000
G1 X137.6 Y129.561
;WIPE_END
G1 X139.006 Y91.923 Z.4
G1 Z.4
G1 Z.2
G1 E1.2 F1800
;TYPE:Bottom surface
;WIDTH:0.502131
G1 F4800
G1 X138.283 Y91.2 E.03708
G1 X137.634 Y91.2 E.02356
G1 X138.8 Y92.366 E.05984
G1 X138.8 Y93.016 E.02356
G1 X136.984 Y91.2 E.09316
G1 X136.335 Y91.2 E.02356
G1 X138.8 Y93.665 E.12647
G1 X138.8 Y94.315 E.02356
G1 X135.685 Y91.2 E.15979
G1 X135.036 Y91.2 E.02356
G1 X138.8 Y94.964 E.1931
G1 X138.8 Y95.614 E.02356
G1 X134.386 Y91.2 E.22642
G1 X133.737 Y91.2 E.02356
G1 X138.8 Y96.263 E.25973
G1 X138.8 Y96.912 E.02356
G1 X133.088 Y91.2 E.29305
G1 X132.438 Y91.2 E.02356
G1 X138.8 Y97.562 E.32636
G1 X138.8 Y98.211 E.02356
G1 X131.789 Y91.2 E.35968
G1 X131.139 Y91.2 E.02356
G1 X138.8 Y98.861 E.393
G1 X138.8 Y99.51 E.02356
G1 X130.49 Y91.2 E.42631
G1 X129.841 Y91.2 E.02356
G1 X138.8 Y100.159 E.45963
G1 X138.8 Y100.809 E.02356
G1 X129.191 Y91.2 E.49294
G1 X128.542 Y91.2 E.02356
G1 X138.8 Y101.458 E.52626
G1 X138.8 Y102.108 E.02356
G1 X127.892 Y91.2 E.55957
G1 X127.243 Y91.2 E.02356
G1 X138.8 Y102.757 E.59289
G1 X138.8 Y103.407 E.02356
G1 X126.593 Y91.2 E.6262
G1 X125.944 Y91.2 E.02356
G1 X138.8 Y104.056 E.65952
G1 X138.8 Y104.705 E.02356
G1 X125.295 Y91.2 E.69283
G1 X124.645 Y91.2 E.02356
G1 X138.8 Y105.355 E.72615
G1 X138.8 Y106.004 E.02356
G1 X123.996 Y91.2 E.75946
G1 X123.346 Y91.2 E.02356
G1 X138.8 Y106.654 E.79278
G1 X138.8 Y107.303 E.02356
M73 P2 R35
G1 X122.697 Y91.2 E.82609
G1 X122.047 Y91.2 E.02356
G1 X138.8 Y107.953 E.85941
G1 X138.8 Y108.602 E.02356
G1 X121.398 Y91.2 E.89272
G1 X120.749 Y91.2 E.02356
G1 X138.8 Y109.251 E.92604
G1 X138.8 Y109.901 E.02356
G1 X120.099 Y91.2 E.95935
G1 X119.45 Y91.2 E.02356
G1 X138.8 Y110.55 E.99267
G1 X138.8 Y111.2 E.02356
G1 X118.8 Y91.2 E1.02598
G1 X118.151 Y91.2 E.02356
G1 X138.8 Y111.849 E1.0593
G1 X138.8 Y112.499 E.02356
G1 X117.501 Y91.2 E1.09261
G1 X116.852 Y91.2 E.02356
G1 X135.602 Y109.95 E.96188
G3 X135.957 Y110.133 I-.516 J1.437 E.0145
G1 X136.936 Y110.884 E.04479
G1 X137.116 Y111.064 E.0092
G1 X137.867 Y112.043 E.04479
G3 X138.05 Y112.398 I-1.254 J.871 E.0145
G1 X139.006 Y113.354 E.04903
G1 X138.129 Y113.126 F9000
G1 F4800
G1 X138.923 Y113.92 E.04074
G1 E-1.2 F2400
;WIPE_START
G1 F9000
G1 X138.129 Y113.126
;WIPE_END
G1 X138.45 Y116.045 Z.4
G1 Z.2
G1 E1.2 F1800
G1 F4800
G1 X138.8 Y116.395 E.01794
G1 X138.8 Y117.044 E.02356
G1 X138.433 Y116.677 E.01883
G1 X138.243 Y117.137 E.01803
G1 X138.8 Y117.694 E.02859
G1 X138.8 Y118.343 E.02356
G1 X138.053 Y117.596 E.03835
G3 X137.822 Y118.015 I-1.859 J-.748 E.01739
G1 X138.8 Y118.993 E.05015
G1 X138.8 Y119.642 E.02356
G1 X137.54 Y118.383 E.06462
G1 X137.259 Y118.75 E.0168
G1 X138.8 Y120.292 E.07908
G1 X138.8 Y120.941 E.02356
G1 X136.955 Y119.096 E.09463
G1 X136.591 Y119.381 E.01678
G1 X138.8 Y121.59 E.11335
G1 X138.8 Y122.24 E.02356
G1 X136.223 Y119.663 E.1322
G3 X135.843 Y119.933 I-1.215 J-1.307 E.01694
G1 X138.8 Y122.889 E.15167
G1 X138.8 Y123.539 E.02356
G1 X135.397 Y120.135 E.1746
G1 X134.937 Y120.325 E.01803
G1 X138.8 Y124.188 E.19816
G1 X138.8 Y124.838 E.02356
G1 X134.465 Y120.502 E.22241
G3 X133.904 Y120.591 I-.619 J-2.083 E.02064
G1 X138.8 Y125.487 E.25115
G1 X138.8 Y126.136 E.02356
G1 X133.33 Y120.667 E.28059
G3 X132.681 Y120.667 I-.326 J-1.967 E.02365
G1 X138.8 Y126.786 E.31388
G1 X138.8 Y127.435 E.02356
G1 X131.928 Y120.563 E.35252
G1 X131.523 Y120.508 E.01484
G1 X131.017 Y120.301 E.01983
G1 X139.006 Y128.29 E.40983
G1 E-1.2 F2400
;WIPE_START
G1 F9000
G1 X137.592 Y126.876
;WIPE_END
G1 X136.989 Y123.108 Z.4
G1 X134.874 Y109.871 Z.4
G1 Z.2
G1 E1.2 F1800
G1 F4800
G1 X116.203 Y91.2 E.95782
G1 X115.553 Y91.2 E.02356
G1 X133.741 Y109.387 E.93301
G1 X133.127 Y109.306 E.02246
G1 X133.01 Y109.306 E.00422
G1 X114.904 Y91.2 E.92886
G1 X114.254 Y91.2 E.02356
G1 X132.422 Y109.367 E.93198
G1 X131.849 Y109.444 E.02095
G1 X113.605 Y91.2 E.93593
G1 X112.956 Y91.2 E.02356
G1 X131.323 Y109.567 E.94223
G1 X130.863 Y109.757 E.01803
G1 X112.306 Y91.2 E.95198
G1 X111.657 Y91.2 E.02356
G1 X130.404 Y109.947 E.96174
G2 X129.985 Y110.178 I.735 J1.833 E.01739
G1 X111.007 Y91.2 E.97356
G1 X110.358 Y91.2 E.02356
G1 X129.619 Y110.461 E.98812
G1 X129.254 Y110.745 E.01679
G1 X109.708 Y91.2 E1.00267
G1 X109.059 Y91.2 E.02356
G1 X128.907 Y111.048 E1.01819
G1 X128.623 Y111.413 E.01679
G1 X108.41 Y91.2 E1.03693
G1 X107.76 Y91.2 E.02356
G1 X128.339 Y111.778 E1.05568
G2 X128.067 Y112.156 I1.162 J1.124 E.01693
G1 X107.111 Y91.2 E1.07504
G1 X106.461 Y91.2 E.02356
G1 X127.866 Y112.605 E1.09808
G1 X127.678 Y113.066 E.01807
G1 X105.812 Y91.2 E1.12175
G1 X105.162 Y91.2 E.02356
G1 X127.491 Y113.529 E1.14547
G1 X127.416 Y114.103 E.021
G1 X104.513 Y91.2 E1.17491
G1 X103.864 Y91.2 E.02356
G1 X127.34 Y114.677 E1.20434
G2 X127.338 Y115.324 I1.237 J.327 E.02375
G1 X103.214 Y91.2 E1.23757
G1 X102.565 Y91.2 E.02356
G1 X127.432 Y116.067 E1.27568
G2 X127.695 Y116.979 I2.387 J-.193 E.03466
G1 X101.915 Y91.2 E1.32247
G1 X101.266 Y91.2 E.02356
G1 X119.787 Y109.721 E.95012
G2 X118.929 Y109.512 I-.979 J2.156 E.03223
G1 X100.616 Y91.2 E.93941
G1 X99.967 Y91.2 E.02356
M73 P3 R34
G1 X118.181 Y109.414 E.93436
G2 X117.568 Y109.45 I-.203 J1.748 E.02238
G1 X99.318 Y91.2 E.93623
G1 X98.668 Y91.2 E.02356
G1 X116.994 Y109.526 E.94011
G1 X116.593 Y109.579 E.01468
G1 X116.444 Y109.625 E.00565
G1 X98.019 Y91.2 E.94523
G1 X97.369 Y91.2 E.02356
G1 X115.984 Y109.815 E.95493
G1 X115.525 Y110.005 E.01803
G1 X96.72 Y91.2 E.96468
G1 X96.071 Y91.2 E.02356
G1 X115.091 Y110.221 E.97577
G1 X114.726 Y110.504 E.01679
G1 X95.421 Y91.2 E.99032
G1 X94.772 Y91.2 E.02356
G1 X114.36 Y110.788 E1.00488
G1 X114.043 Y111.034 E.01455
