;TIME:889.97
;Filament used:1.29030m
;Layer height:0.200
; HEADER_BLOCK_START
; generated by Creality_Print V6.3.0.3420 on 2026-04-04 at 17:14:42
; total layer number: 129
; filament_density: 1.24
; filament_diameter: 1.75
; max_z_height: 25.80
; creality_uuid: 9e226bcc-1370-4a4d-af32-db43be288ae1
; HEADER_BLOCK_END

; MINX = 96.62
; MINY = 93.85
; MINZ = 0.00
; MAXX = 122.46
; MAXY = 119.69
; MAXZ = 25.84

; multicolor_method = 0 
; THUMBNAIL_BLOCK_START

;
; THUMBNAIL_BLOCK_END

; THUMBNAIL_BLOCK_START

;
; THUMBNAIL_BLOCK_END

; external perimeters extrusion width = 0.42mm
; perimeters extrusion width = 0.45mm
; infill extrusion width = 0.45mm
; solid infill extrusion width = 0.42mm
; top infill extrusion width = 0.42mm
; first layer extrusion width = 0.50mm

; EXECUTABLE_BLOCK_START
M73 P0 R14
M201 X5000 Y5000 Z500 E5000
M203 X500 Y500 Z30 E100
M204 P5000 R2500 T5000 ; sets acceleration (P, T) and retract acceleration (R), mm/sec^2
M205 X10.00 Y10.00 Z0.40 E5.00 ; sets the jerk limits, mm/sec
; max_print_temp = 50,190
;TYPE:Custom
M220 S100 ;Reset Feedrate 
M221 S100 ;Reset Flowrate 
 
M140 S50 ;Set final bed temp 
G28 ;Home 
 
G92 E0 ;Reset Extruder 
G1 Z2.0 F3000 ;Move Z Axis up 
M104 S190 ;Set final nozzle temp 
G1 X-2.1 Y20 Z0.28 F5000.0 ;Move to start position 
M190 S50 ;Wait for bed temp to stabilize 
M109 S190 ;Wait for nozzle temp to stabilize 
G1 X-2.1 Y145.0 Z0.28 F1500.0 E15 ;Draw the first line 
G1 X-2.4 Y145.0 Z0.28 F5000.0 ;Move to side a little 
G1 X-2.4 Y20 Z0.28 F1500.0 E30 ;Draw the second line 
G92 E0  ;Reset Extruder 
G1 E-1.0000 F1800 ;Retract a bit 
M73 P1 R14
G1 Z2.0 F3000 ;Move Z Axis up 
G1 E0.0000 F1800
G90
G21
M83 ; use relative distances for extrusion
;filament start gcode
G1 E-1.2 F2400
G1 Z.2 F9000
M106 S0
;LAYER_CHANGE
;Z:0.2
;HEIGHT:0.2
;BEFORE_LAYER_CHANGE
;0.2
G92 E0

;_SET_FAN_SPEED_CHANGING_LAYER
M204 P500
M205 X10 Y10
; printing object RoundPlanter.stl id:64248415795822 copy 0
M204 T500
G1 X99.171 Y95.894 Z.4 F9000
G1 Z.2
G1 E1.2 F1800
;TYPE:Inner wall
;WIDTH:0.499999
G1 X120.414 Y95.895 E.76698
G1 X120.414 Y117.637 E.785
G1 X98.671 Y117.637 E.78504
G1 X98.671 Y95.894 E.78503
G1 X99.131 Y95.894 E.01661
G1 X98.301 Y95.524 F9000
;TYPE:Outer wall
G1 F1800
G1 X98.505 Y95.437 E.00802
G1 X120.638 Y95.438 E.79914
G1 X120.829 Y95.57 E.00838
G1 X120.871 Y95.771 E.00743
G1 X120.871 Y117.803 E.79547
G1 X120.785 Y118.007 E.00802
G1 X120.58 Y118.094 E.00802
G1 X98.505 Y118.094 E.79702
G1 X98.301 Y118.007 E.00802
G1 X98.214 Y117.803 E.00802
G1 X98.214 Y95.728 E.79702
G1 X98.285 Y95.56 E.00658
G1 E-1.2 F2400
;WIPE_START
G1 F9000
M73 P2 R14
G1 X98.505 Y95.437
G1 X100.253 Y95.437
;WIPE_END
G1 X119.344 Y96.032 Z.4
G1 Z.4
G1 Z.2
G1 E1.2 F1800
;TYPE:Bottom surface
;WIDTH:0.503901
G1 F4800
G1 X120.071 Y96.759 E.03742
G1 X120.071 Y97.411 E.02374
G1 X118.898 Y96.238 E.0604
G1 X118.246 Y96.238 E.02374
G1 X120.071 Y98.063 E.09397
G1 X120.071 Y98.715 E.02374
G1 X117.594 Y96.238 E.12755
G1 X116.942 Y96.238 E.02374
G1 X120.071 Y99.366 E.16112
G1 X120.071 Y100.018 E.02374
G1 X116.29 Y96.238 E.19469
G1 X115.638 Y96.238 E.02374
G1 X120.071 Y100.67 E.22827
G1 X120.071 Y101.322 E.02374
G1 X114.986 Y96.238 E.26184
G1 X114.334 Y96.238 E.02374
G1 X120.071 Y101.974 E.29542
G1 X120.071 Y102.626 E.02374
G1 X113.683 Y96.238 E.32899
G1 X113.031 Y96.238 E.02374
G1 X120.071 Y103.278 E.36256
G1 X120.071 Y103.93 E.02374
G1 X112.379 Y96.238 E.39614
G1 X111.727 Y96.238 E.02374
G1 X120.071 Y104.582 E.42971
G1 X120.071 Y105.234 E.02374
G1 X111.075 Y96.238 E.46329
G1 X110.423 Y96.237 E.02374
G1 X120.071 Y105.886 E.49686
G1 X120.071 Y106.538 E.02374
G1 X109.771 Y96.237 E.53043
G1 X109.119 Y96.237 E.02374
G1 X120.071 Y107.19 E.56401
G1 X120.071 Y107.841 E.02374
G1 X108.467 Y96.237 E.59758
G1 X107.815 Y96.237 E.02374
G1 X120.071 Y108.493 E.63115
G1 X120.071 Y109.145 E.02374
G1 X107.163 Y96.237 E.66473
G1 X106.511 Y96.237 E.02374
G1 X120.071 Y109.797 E.6983
G1 X120.071 Y110.449 E.02374
G1 X105.859 Y96.237 E.73188
G1 X105.207 Y96.237 E.02374
G1 X120.071 Y111.101 E.76545
G1 X120.071 Y111.753 E.02374
G1 X104.555 Y96.237 E.79902
G1 X103.903 Y96.237 E.02374
G1 X120.071 Y112.405 E.8326
G1 X120.071 Y113.057 E.02374
G1 X103.251 Y96.237 E.86617
G1 X102.599 Y96.237 E.02374
G1 X120.071 Y113.709 E.89975
G1 X120.071 Y114.361 E.02374
G1 X101.947 Y96.237 E.93332
G1 X101.295 Y96.237 E.02374
M73 P3 R14
G1 X120.071 Y115.013 E.96689
G1 X120.071 Y115.665 E.02374
G1 X100.643 Y96.237 E1.00047
G1 X99.992 Y96.237 E.02374
G1 X120.071 Y116.317 E1.03404
G1 X120.071 Y116.968 E.02374
G1 X99.34 Y96.237 E1.06761
G1 X99.014 Y96.237 E.01185
G1 X99.014 Y96.563 E.01189
G1 X119.745 Y117.294 E1.06757
G1 X119.093 Y117.294 E.02374
G1 X99.014 Y97.215 E1.034
G1 X99.014 Y97.867 E.02374
G1 X118.441 Y117.294 E1.00042
G1 X117.789 Y117.294 E.02374
G1 X99.014 Y98.519 E.96685
G1 X99.014 Y99.171 E.02374
G1 X117.137 Y117.294 E.93328
G1 X116.485 Y117.294 E.02374
G1 X99.014 Y99.823 E.89971
G1 X99.014 Y100.475 E.02374
G1 X115.833 Y117.294 E.86613
G1 X115.181 Y117.294 E.02374
G1 X99.014 Y101.127 E.83256
G1 X99.014 Y101.779 E.02374
G1 X114.529 Y117.294 E.79899
G1 X113.877 Y117.294 E.02374
G1 X99.014 Y102.431 E.76542
G1 X99.014 Y103.083 E.02374
G1 X113.225 Y117.294 E.73184
G1 X112.573 Y117.294 E.02374
G1 X99.014 Y103.735 E.69827
G1 X99.014 Y104.387 E.02374
G1 X111.921 Y117.294 E.6647
G1 X111.27 Y117.294 E.02374
G1 X99.014 Y105.038 E.63113
G1 X99.014 Y105.69 E.02374
G1 X110.618 Y117.294 E.59755
G1 X109.966 Y117.294 E.02374
G1 X99.014 Y106.342 E.56398
G1 X99.014 Y106.994 E.02374
M73 P4 R14
G1 X109.314 Y117.294 E.53041
G1 X108.662 Y117.294 E.02374
G1 X99.014 Y107.646 E.49684
G1 X99.014 Y108.298 E.02374
G1 X108.01 Y117.294 E.46326
G1 X107.358 Y117.294 E.02374
G1 X99.014 Y108.95 E.42969
G1 X99.014 Y109.602 E.02374
G1 X106.706 Y117.294 E.39612
G1 X106.054 Y117.294 E.02374
G1 X99.014 Y110.254 E.36255
G1 X99.014 Y110.906 E.02374
G1 X105.402 Y117.294 E.32897
G1 X104.75 Y117.294 E.02374
G1 X99.014 Y111.558 E.2954
G1 X99.014 Y112.21 E.02374
G1 X104.098 Y117.294 E.26183
G1 X103.446 Y117.294 E.02374
G1 X99.014 Y112.862 E.22826
G1 X99.014 Y113.513 E.02374
G1 X102.795 Y117.294 E.19468
G1 X102.143 Y117.294 E.02374
G1 X99.014 Y114.165 E.16111
G1 X99.014 Y114.817 E.02374
G1 X101.491 Y117.294 E.12754
G1 X100.839 Y117.294 E.02374
G1 X99.014 Y115.469 E.09397
G1 X99.014 Y116.121 E.02374
G1 X100.187 Y117.294 E.06039
G1 X99.535 Y117.294 E.02374
G1 X98.808 Y116.567 E.03741
; stop printing object RoundPlanter.stl id:64248415795822 copy 0
;TIME_ELAPSED:39.424927

M106 S255
;LAYER_CHANGE
;Z:0.4
;HEIGHT:0.2
;BEFORE_LAYER_CHANGE
;0.4
G92 E0

G1 E-1.2 F2400
;WIPE_START
G1 F9000
G1 X99.535 Y117.294
G1 X100.187 Y117.294
G1 X99.96 Y117.067
;WIPE_END
;_SET_FAN_SPEED_CHANGING_LAYER
M204 P2500
; printing object RoundPlanter.stl id:64248415795822 copy 0
M204 T2500
G1 X99.741 Y113.257 Z.4
G1 X98.715 Y95.439 Z.4
G1 E1.2 F1800
M204 P2000
;TYPE:Inner wall
;WIDTH:0.449999
G1 F5400
G1 X120.569 Y95.439 E.70272
G1 X120.783 Y95.514 E.0073
G1 X120.869 Y95.716 E.00707
G1 X120.869 Y117.749 E.70848
G1 X120.8 Y118.001 E.00838
G1 X120.595 Y118.092 E.00721
G1 X98.559 Y118.092 E.70861
G1 X98.307 Y118.023 E.00838
G1 X98.216 Y117.818 E.00721
G1 X98.216 Y95.782 E.70861
G1 X98.285 Y95.53 E.00838
G1 X98.49 Y95.439 E.00721
G1 X98.675 Y95.439 E.00597
G1 X97.933 Y95.355 F9000
M204 P1000
;TYPE:Outer wall
;WIDTH:0.419999
G1 F3120
G1 X98.145 Y95.138 E.00904
G1 X98.475 Y95.047 E.0102
G1 F3000
G1 X120.66 Y95.047 E.66081
G1 X120.952 Y95.159 E.00932
G1 F3120
G1 X121.17 Y95.368 E.009
G1 X121.261 Y95.716 E.01071
G1 X121.261 Y117.849 E.65927
G1 X121.152 Y118.176 E.01027
G1 X120.94 Y118.393 E.00904
G1 X120.61 Y118.484 E.0102
G1 X98.459 Y118.484 E.6598
G1 X98.132 Y118.375 E.01027
G1 X97.915 Y118.163 E.00904
G1 X97.824 Y117.833 E.0102
G1 X97.824 Y95.682 E.6598
G1 X97.92 Y95.393 E.00907
G1 E-1.2 F2400
;WIPE_START
G1 F9000
G1 X98.145 Y95.138
G1 X98.475 Y95.047
G1 X99.793 Y95.047
;WIPE_END
G1 X98.632 Y95.777 Z.6
G1 Z.6
G1 Z.4
G1 E1.2 F1800
M204 P2500
;TYPE:Internal solid infill
;WIDTH:0.386006
G1 F10800
G1 X98.567 Y95.814 E.00201
G1 X98.633 Y95.849 E.00201
G1 X118.59 Y117.991 F9000
;WIDTH:0.420953
G1 F10800
G1 X120.599 Y115.983 E.08484
G1 X120.599 Y115.448 E.01596
G1 X118.225 Y117.822 E.10025
G1 X117.69 Y117.822 E.01596
G1 X120.599 Y114.913 E.12283
G1 X120.599 Y114.379 E.01596
G1 X117.156 Y117.822 E.1454
G1 X116.621 Y117.822 E.01596
G1 X120.599 Y113.844 E.16798
G1 X120.599 Y113.309 E.01596
G1 X116.087 Y117.822 E.19056
G1 X115.552 Y117.822 E.01596
G1 X120.599 Y112.775 E.21314
G1 X120.599 Y112.24 E.01596
G1 X115.017 Y117.822 E.23572
G1 X114.483 Y117.822 E.01596
G1 X120.599 Y111.706 E.25829
G1 X120.599 Y111.171 E.01596
G1 X113.948 Y117.822 E.28087
G1 X113.413 Y117.822 E.01596
G1 X120.599 Y110.636 E.30345
G1 X120.599 Y110.102 E.01596
M73 P5 R14
G1 X112.879 Y117.822 E.32603
G1 X112.344 Y117.822 E.01596
G1 X120.599 Y109.567 E.3486
G1 X120.599 Y109.033 E.01596
G1 X111.81 Y117.822 E.37118
G1 X111.275 Y117.822 E.01596
G1 X120.599 Y108.498 E.39376
G1 X120.599 Y107.963 E.01596
G1 X110.74 Y117.822 E.41634
G1 X110.206 Y117.822 E.01596
G1 X120.599 Y107.429 E.43891
G1 X120.599 Y106.894 E.01596
G1 X109.671 Y117.822 E.46149
G1 X109.136 Y117.822 E.01596
G1 X120.599 Y106.359 E.48407
G1 X120.599 Y105.825 E.01596
G1 X108.602 Y117.822 E.50665
G1 X108.067 Y117.822 E.01596
G1 X120.599 Y105.29 E.52922
G1 X120.599 Y104.756 E.01596
G1 X107.533 Y117.822 E.5518
G1 X106.998 Y117.822 E.01596
G1 X120.599 Y104.221 E.57438
G1 X120.599 Y103.686 E.01596
G1 X106.463 Y117.822 E.59696
G1 X105.929 Y117.822 E.01596
G1 X120.599 Y103.152 E.61953
G1 X120.599 Y102.617 E.01596
G1 X105.394 Y117.822 E.64211
G1 X104.86 Y117.822 E.01596
G1 X120.599 Y102.082 E.66469
G1 X120.599 Y101.548 E.01596
G1 X104.325 Y117.822 E.68727
G1 X103.79 Y117.822 E.01596
G1 X120.599 Y101.013 E.70984
G1 X120.599 Y100.479 E.01596
G1 X103.256 Y117.822 E.73242
G1 X102.721 Y117.822 E.01596
G1 X120.599 Y99.944 E.755
G1 X120.599 Y99.409 E.01596
G1 X102.186 Y117.822 E.77758
G1 X101.652 Y117.822 E.01596
G1 X120.599 Y98.875 E.80015
G1 X120.599 Y98.34 E.01596
G1 X101.117 Y117.822 E.82273
G1 X100.583 Y117.822 E.01596
G1 X120.599 Y97.806 E.84531
G1 X120.599 Y97.271 E.01596
G1 X100.048 Y117.822 E.86789
G1 X99.513 Y117.822 E.01596
G1 X120.599 Y96.736 E.89046
G1 X120.599 Y96.202 E.01596
G1 X98.979 Y117.822 E.91304
G1 X98.552 Y117.822 E.01273
G1 X98.486 Y117.808 E.00201
G1 X98.486 Y117.78 E.00085
G1 X120.554 Y95.712 E.93196
G1 X120.02 Y95.711 E.01594
G1 X98.486 Y117.245 E.90941
G1 X98.486 Y116.71 E.01596
M73 P5 R13
G1 X119.486 Y95.711 E.88684
G1 X118.951 Y95.711 E.01596
G1 X98.486 Y116.176 E.86426
G1 X98.486 Y115.641 E.01596
G1 X118.417 Y95.711 E.84169
G1 X117.882 Y95.711 E.01596
G1 X98.486 Y115.107 E.81911
G1 X98.486 Y114.572 E.01596
G1 X117.348 Y95.711 E.79654
G1 X116.813 Y95.711 E.01596
G1 X98.486 Y114.037 E.77396
G1 X98.486 Y113.503 E.01596
G1 X116.278 Y95.711 E.75138
G1 X115.744 Y95.71 E.01596
G1 X98.486 Y112.968 E.72881
G1 X98.486 Y112.433 E.01596
G1 X115.209 Y95.71 E.70623
G1 X114.675 Y95.71 E.01596
G1 X98.486 Y111.899 E.68366
G1 X98.486 Y111.364 E.01596
G1 X114.14 Y95.71 E.66108
G1 X113.606 Y95.71 E.01596
G1 X98.486 Y110.83 E.6385
G1 X98.486 Y110.295 E.01596
G1 X113.071 Y95.71 E.61593
G1 X112.536 Y95.71 E.01596
M73 P6 R13
G1 X98.486 Y109.76 E.59335
G1 X98.486 Y109.226 E.01596
G1 X112.002 Y95.71 E.57078
G1 X111.467 Y95.71 E.01596
G1 X98.486 Y108.691 E.5482
G1 X98.486 Y108.157 E.01596
G1 X110.933 Y95.71 E.52563
G1 X110.398 Y95.71 E.01596
G1 X98.486 Y107.622 E.50305
G1 X98.486 Y107.087 E.01596
G1 X109.863 Y95.71 E.48047
G1 X109.329 Y95.71 E.01596
G1 X98.486 Y106.553 E.4579
G1 X98.486 Y106.018 E.01596
G1 X108.794 Y95.71 E.43532
G1 X108.26 Y95.71 E.01596
G1 X98.486 Y105.483 E.41275
G1 X98.486 Y104.949 E.01596
G1 X107.725 Y95.71 E.39017
G1 X107.191 Y95.71 E.01596
G1 X98.486 Y104.414 E.36759
G1 X98.486 Y103.88 E.01596
G1 X106.656 Y95.71 E.34502
G1 X106.121 Y95.71 E.01596
G1 X98.486 Y103.345 E.32244
G1 X98.486 Y102.81 E.01596
G1 X105.587 Y95.71 E.29987
G1 X105.052 Y95.71 E.01596
G1 X98.486 Y102.276 E.27729
G1 X98.486 Y101.741 E.01596
G1 X104.518 Y95.71 E.25472
G1 X103.983 Y95.71 E.01596
G1 X98.486 Y101.206 E.23214
G1 X98.486 Y100.672 E.01596
G1 X103.449 Y95.71 E.20956
G1 X102.914 Y95.709 E.01596
G1 X98.486 Y100.137 E.18699
G1 X98.486 Y99.603 E.01596
G1 X102.379 Y95.709 E.16441
G1 X101.845 Y95.709 E.01596
G1 X98.486 Y99.068 E.14184
G1 X98.486 Y98.533 E.01596
G1 X101.31 Y95.709 E.11926
G1 X100.776 Y95.709 E.01596
G1 X98.486 Y97.999 E.09668
G1 X98.486 Y97.464 E.01596
G1 X100.241 Y95.709 E.07411
G1 X99.706 Y95.709 E.01596
G1 X98.486 Y96.93 E.05153
G1 X98.486 Y96.395 E.01596
G1 X99.342 Y95.54 E.03612
G1 X119.529 Y117.631 F9000
;WIDTH:0.55783
G1 F10800
G1 X120.408 Y117.631 E.03575
G1 X120.408 Y116.752 E.03575
G1 X119.557 Y117.602 E.04894
; stop printing object RoundPlanter.stl id:64248415795822 copy 0
;TIME_ELAPSED:57.340240

;LAYER_CHANGE
;Z:0.6
;HEIGHT:0.2
;BEFORE_LAYER_CHANGE
;0.6
G92 E0

G1 E-1.2 F2400
;WIPE_START
G1 F9000
G1 X120.408 Y116.752
G1 X120.408 Y117.549
;WIPE_END
;_SET_FAN_SPEED_CHANGING_LAYER
; printing object RoundPlanter.stl id:64248415795822 copy 0
G1 X117.735 Y114.825 Z.6
G1 X98.519 Y95.239 Z.6
G1 E1.2 F1800
M204 P2000
;TYPE:Inner wall
;WIDTH:0.449999
G1 F5400
G1 X120.592 Y95.239 E.7098
G1 X120.889 Y95.339 E.01008
G1 X121.005 Y95.487 E.00603
G1 X121.069 Y95.782 E.00972
G1 X121.069 Y117.815 E.70848
G1 X120.969 Y118.112 E.01009
G1 X120.839 Y118.218 E.00538
G1 X120.569 Y118.292 E.00899
G1 X98.493 Y118.292 E.70989
G1 X98.196 Y118.192 E.01009
G1 X98.09 Y118.062 E.00538
G1 X98.016 Y117.792 E.00899
G1 X98.016 Y95.716 E.70989
G1 X98.116 Y95.419 E.01009
G1 X98.246 Y95.313 E.00538
G1 X98.48 Y95.249 E.0078
G1 X97.848 Y95.15 F9000
M204 P1000
;TYPE:Outer wall
;WIDTH:0.419999
G1 F3180
G1 X97.879 Y95.102 E.0017
G1 F3060
G1 X98.201 Y94.893 E.01143
G1 X98.484 Y94.847 E.00854
G1 X120.526 Y94.847 E.65655
G1 X120.883 Y94.893 E.01072
G1 X121.206 Y95.102 E.01146
G1 X121.415 Y95.424 E.01143
G1 X121.461 Y95.782 E.01075
G1 X121.461 Y117.749 E.65432
G1 X121.415 Y118.107 E.01075
G1 X121.206 Y118.429 E.01143
G1 X120.884 Y118.638 E.01143
G1 X120.601 Y118.684 E.00854
G1 X98.56 Y118.684 E.65652
G1 X98.201 Y118.638 E.01078
G1 X97.879 Y118.429 E.01143
G1 X97.67 Y118.107 E.01143
G1 X97.624 Y117.824 E.00854
G1 X97.624 Y95.782 E.65655
G1 X97.67 Y95.424 E.01075
G1 X97.826 Y95.184 E.00853
G1 E-1.2 F2400
;WIPE_START
G1 F9000
G1 X97.879 Y95.102
G1 X98.201 Y94.893
G1 X98.484 Y94.847
G1 X99.716 Y94.847
;WIPE_END
G1 X119.474 Y95.631 Z.8
G1 Z.8
G1 Z.6
G1 E1.2 F1800
M204 P2500
;TYPE:Internal solid infill
G1 F10800
G1 X120.677 Y96.834 E.05068
G1 X120.677 Y95.781 E.03137
G1 X120.638 Y95.666 E.00361
G1 X120.324 Y95.631 E.0094
G1 X119.514 Y95.631 E.02415
G1 X120.345 Y95.948 F9000
;WIDTH:0.370558
G1 F10800
G1 X120.283 Y95.984 E.00184
G1 X120.345 Y96.018 E.00184
G1 X120.969 Y97.608 F9000
;WIDTH:0.422792
G1 F10800
G1 X118.87 Y95.509 E.08907
G1 X118.332 Y95.509 E.01612
G1 X120.799 Y97.976 E.10467
G1 X120.799 Y98.513 E.01612
G1 X117.795 Y95.509 E.12747
G1 X117.258 Y95.509 E.01612
G1 X120.799 Y99.05 E.15026
G1 X120.799 Y99.587 E.01612
G1 X116.721 Y95.509 E.17306
G1 X116.183 Y95.509 E.01612
G1 X120.799 Y100.125 E.19586
G1 X120.799 Y100.662 E.01612
G1 X115.646 Y95.509 E.21866
G1 X115.109 Y95.509 E.01612
G1 X120.799 Y101.199 E.24145
G1 X120.799 Y101.736 E.01612
G1 X114.572 Y95.509 E.26425
G1 X114.035 Y95.509 E.01612
M73 P7 R13
G1 X120.799 Y102.273 E.28705
G1 X120.799 Y102.811 E.01612
G1 X113.497 Y95.509 E.30985
G1 X112.96 Y95.509 E.01612
G1 X120.799 Y103.348 E.33265
G1 X120.799 Y103.885 E.01612
G1 X112.423 Y95.509 E.35544
G1 X111.886 Y95.509 E.01612
G1 X120.799 Y104.422 E.37824
G1 X120.799 Y104.959 E.01612
G1 X111.349 Y95.509 E.40104
G1 X110.811 Y95.509 E.01612
G1 X120.799 Y105.497 E.42384
G1 X120.799 Y106.034 E.01612
G1 X110.274 Y95.509 E.44663
G1 X109.737 Y95.509 E.01612
G1 X120.799 Y106.571 E.46943
G1 X120.799 Y107.108 E.01612
G1 X109.2 Y95.509 E.49223
G1 X108.662 Y95.509 E.01612
G1 X120.799 Y107.646 E.51503
G1 X120.799 Y108.183 E.01612
